;G-code has been generated based on 
;"triangle_punch_radial_spiral_needle_full_random_upd" function
;at 26/09/2025 13:29:20
;--------------------------------------------------
;Approximate execution time:
;--------------------------------------------------
;Generation parameters:
;Tube length => 264
;Internal diameter => 10
;Outer diameter => 10
;Fabric thickness => 1.0
;Punch step => 1
;Needles step => 8
;Volumetric density => 25
;Punch head len => 264
;Punch depth => 14
;Shoe depth => 5
;Punch offset => 10
;Idling speed => 6000
;Move_speed => 1200
;Rotate_speed => 2000
;--------------------------------------------------
;Additional calculated parameters:
;Calculated diameter => 10.0
;Main rotation number => 0
;Fabric length => 1822
;Total punch number => 3644
;Seed for random => 5
;##################################################
G01 A0.0 F2000
G01 X0.305 Y0.0 Z0.0 F6000
G01 X0.305 Y24.0 Z5.0 F1200
G01 X0.305 Y0.0 Z0.0 F1200
G01 X1.308 Y0.0 Z0.0 F6000
G01 X1.308 Y24.0 Z5.0 F1200
G01 X1.308 Y0.0 Z0.0 F1200
G01 A11.253 F2000
G01 X1.515 Y0.0 Z0.0 F6000
G01 X1.515 Y24.0 Z5.0 F1200
G01 X1.515 Y0.0 Z0.0 F1200
G01 X0.286 Y0.0 Z0.0 F6000
G01 X0.286 Y24.0 Z5.0 F1200
G01 X0.286 Y0.0 Z0.0 F1200
G01 A22.506 F2000
G01 X-0.446 Y0.0 Z0.0 F6000
G01 X-0.446 Y24.0 Z5.0 F1200
G01 X-0.446 Y0.0 Z0.0 F1200
G01 X0.883 Y0.0 Z0.0 F6000
G01 X0.883 Y24.0 Z5.0 F1200
G01 X0.883 Y0.0 Z0.0 F1200
G01 A33.759 F2000
G01 X1.408 Y0.0 Z0.0 F6000
G01 X1.408 Y24.0 Z5.0 F1200
G01 X1.408 Y0.0 Z0.0 F1200
G01 X0.045 Y0.0 Z0.0 F6000
G01 X0.045 Y24.0 Z5.0 F1200
G01 X0.045 Y0.0 Z0.0 F1200
G01 A45.012 F2000
G01 X-0.451 Y0.0 Z0.0 F6000
G01 X-0.451 Y24.0 Z5.0 F1200
G01 X-0.451 Y0.0 Z0.0 F1200
G01 X1.499 Y0.0 Z0.0 F6000
G01 X1.499 Y24.0 Z5.0 F1200
G01 X1.499 Y0.0 Z0.0 F1200
G01 A56.264 F2000
G01 X1.652 Y0.0 Z0.0 F6000
G01 X1.652 Y24.0 Z5.0 F1200
G01 X1.652 Y0.0 Z0.0 F1200
G01 X0.235 Y0.0 Z0.0 F6000
G01 X0.235 Y24.0 Z5.0 F1200
G01 X0.235 Y0.0 Z0.0 F1200
G01 A67.517 F2000
G01 X-0.065 Y0.0 Z0.0 F6000
G01 X-0.065 Y24.0 Z5.0 F1200
G01 X-0.065 Y0.0 Z0.0 F1200
G01 X1.474 Y0.0 Z0.0 F6000
G01 X1.474 Y24.0 Z5.0 F1200
G01 X1.474 Y0.0 Z0.0 F1200
G01 A78.77 F2000
G01 X1.898 Y0.0 Z0.0 F6000
G01 X1.898 Y24.0 Z5.0 F1200
G01 X1.898 Y0.0 Z0.0 F1200
G01 X0.844 Y0.0 Z0.0 F6000
G01 X0.844 Y24.0 Z5.0 F1200
G01 X0.844 Y0.0 Z0.0 F1200
G01 A90.023 F2000
G01 X-0.108 Y0.0 Z0.0 F6000
G01 X-0.108 Y24.0 Z5.0 F1200
G01 X-0.108 Y0.0 Z0.0 F1200
G01 X0.993 Y0.0 Z0.0 F6000
G01 X0.993 Y24.0 Z5.0 F1200
G01 X0.993 Y0.0 Z0.0 F1200
G01 A101.276 F2000
G01 X1.677 Y0.0 Z0.0 F6000
G01 X1.677 Y24.0 Z5.0 F1200
G01 X1.677 Y0.0 Z0.0 F1200
G01 X0.061 Y0.0 Z0.0 F6000
G01 X0.061 Y24.0 Z5.0 F1200
G01 X0.061 Y0.0 Z0.0 F1200
G01 A112.529 F2000
G01 X0.056 Y0.0 Z0.0 F6000
G01 X0.056 Y24.0 Z5.0 F1200
G01 X0.056 Y0.0 Z0.0 F1200
G01 X0.771 Y0.0 Z0.0 F6000
G01 X0.771 Y24.0 Z5.0 F1200
G01 X0.771 Y0.0 Z0.0 F1200
G01 A123.782 F2000
G01 X1.88 Y0.0 Z0.0 F6000
G01 X1.88 Y24.0 Z5.0 F1200
G01 X1.88 Y0.0 Z0.0 F1200
G01 X0.064 Y0.0 Z0.0 F6000
G01 X0.064 Y24.0 Z5.0 F1200
G01 X0.064 Y0.0 Z0.0 F1200
G01 A135.035 F2000
G01 X0.179 Y0.0 Z0.0 F6000
G01 X0.179 Y24.0 Z5.0 F1200
G01 X0.179 Y0.0 Z0.0 F1200
G01 X1.37 Y0.0 Z0.0 F6000
G01 X1.37 Y24.0 Z5.0 F1200
G01 X1.37 Y0.0 Z0.0 F1200
G01 A146.288 F2000
G01 X1.227 Y0.0 Z0.0 F6000
G01 X1.227 Y24.0 Z5.0 F1200
G01 X1.227 Y0.0 Z0.0 F1200
G01 X0.895 Y0.0 Z0.0 F6000
G01 X0.895 Y24.0 Z5.0 F1200
G01 X0.895 Y0.0 Z0.0 F1200
G01 A157.54 F2000
G01 X0.372 Y0.0 Z0.0 F6000
G01 X0.372 Y24.0 Z5.0 F1200
G01 X0.372 Y0.0 Z0.0 F1200
G01 X0.519 Y0.0 Z0.0 F6000
G01 X0.519 Y24.0 Z5.0 F1200
G01 X0.519 Y0.0 Z0.0 F1200
G01 A168.793 F2000
G01 X1.707 Y0.0 Z0.0 F6000
G01 X1.707 Y24.0 Z5.0 F1200
G01 X1.707 Y0.0 Z0.0 F1200
G01 X0.001 Y0.0 Z0.0 F6000
G01 X0.001 Y24.0 Z5.0 F1200
G01 X0.001 Y0.0 Z0.0 F1200
G01 A180.046 F2000
G01 X0.003 Y0.0 Z0.0 F6000
G01 X0.003 Y24.0 Z5.0 F1200
G01 X0.003 Y0.0 Z0.0 F1200
G01 X0.937 Y0.0 Z0.0 F6000
G01 X0.937 Y24.0 Z5.0 F1200
G01 X0.937 Y0.0 Z0.0 F1200
G01 A191.299 F2000
G01 X1.203 Y0.0 Z0.0 F6000
G01 X1.203 Y24.0 Z5.0 F1200
G01 X1.203 Y0.0 Z0.0 F1200
G01 X0.325 Y0.0 Z0.0 F6000
G01 X0.325 Y24.0 Z5.0 F1200
G01 X0.325 Y0.0 Z0.0 F1200
G01 A202.552 F2000
G01 X0.306 Y0.0 Z0.0 F6000
G01 X0.306 Y24.0 Z5.0 F1200
G01 X0.306 Y0.0 Z0.0 F1200
G01 X0.816 Y0.0 Z0.0 F6000
G01 X0.816 Y24.0 Z5.0 F1200
G01 X0.816 Y0.0 Z0.0 F1200
G01 A213.805 F2000
G01 X1.149 Y0.0 Z0.0 F6000
G01 X1.149 Y24.0 Z5.0 F1200
G01 X1.149 Y0.0 Z0.0 F1200
G01 X0.699 Y0.0 Z0.0 F6000
G01 X0.699 Y24.0 Z5.0 F1200
G01 X0.699 Y0.0 Z0.0 F1200
G01 A225.058 F2000
G01 X-0.051 Y0.0 Z0.0 F6000
G01 X-0.051 Y24.0 Z5.0 F1200
G01 X-0.051 Y0.0 Z0.0 F1200
G01 X1.299 Y0.0 Z0.0 F6000
G01 X1.299 Y24.0 Z5.0 F1200
G01 X1.299 Y0.0 Z0.0 F1200
G01 A236.311 F2000
G01 X1.236 Y0.0 Z0.0 F6000
G01 X1.236 Y24.0 Z5.0 F1200
G01 X1.236 Y0.0 Z0.0 F1200
G01 X0.32 Y0.0 Z0.0 F6000
G01 X0.32 Y24.0 Z5.0 F1200
G01 X0.32 Y0.0 Z0.0 F1200
G01 A247.564 F2000
G01 X0.3 Y0.0 Z0.0 F6000
G01 X0.3 Y24.0 Z5.0 F1200
G01 X0.3 Y0.0 Z0.0 F1200
G01 X1.007 Y0.0 Z0.0 F6000
G01 X1.007 Y24.0 Z5.0 F1200
G01 X1.007 Y0.0 Z0.0 F1200
G01 A258.816 F2000
G01 X1.506 Y0.0 Z0.0 F6000
G01 X1.506 Y24.0 Z5.0 F1200
G01 X1.506 Y0.0 Z0.0 F1200
G01 X0.236 Y0.0 Z0.0 F6000
G01 X0.236 Y24.0 Z5.0 F1200
G01 X0.236 Y0.0 Z0.0 F1200
G01 A270.069 F2000
G01 X-0.485 Y0.0 Z0.0 F6000
G01 X-0.485 Y24.0 Z5.0 F1200
G01 X-0.485 Y0.0 Z0.0 F1200
G01 X1.433 Y0.0 Z0.0 F6000
G01 X1.433 Y24.0 Z5.0 F1200
G01 X1.433 Y0.0 Z0.0 F1200
G01 A281.322 F2000
G01 X1.086 Y0.0 Z0.0 F6000
G01 X1.086 Y24.0 Z5.0 F1200
G01 X1.086 Y0.0 Z0.0 F1200
G01 X0.845 Y0.0 Z0.0 F6000
G01 X0.845 Y24.0 Z5.0 F1200
G01 X0.845 Y0.0 Z0.0 F1200
G01 A292.575 F2000
G01 X-0.132 Y0.0 Z0.0 F6000
G01 X-0.132 Y24.0 Z5.0 F1200
G01 X-0.132 Y0.0 Z0.0 F1200
G01 X1.451 Y0.0 Z0.0 F6000
G01 X1.451 Y24.0 Z5.0 F1200
G01 X1.451 Y0.0 Z0.0 F1200
G01 A303.828 F2000
G01 X1.399 Y0.0 Z0.0 F6000
G01 X1.399 Y24.0 Z5.0 F1200
G01 X1.399 Y0.0 Z0.0 F1200
G01 X0.936 Y0.0 Z0.0 F6000
G01 X0.936 Y24.0 Z5.0 F1200
G01 X0.936 Y0.0 Z0.0 F1200
G01 A315.081 F2000
G01 X0.056 Y0.0 Z0.0 F6000
G01 X0.056 Y24.0 Z5.0 F1200
G01 X0.056 Y0.0 Z0.0 F1200
G01 X0.74 Y0.0 Z0.0 F6000
G01 X0.74 Y24.0 Z5.0 F1200
G01 X0.74 Y0.0 Z0.0 F1200
G01 A326.334 F2000
G01 X1.741 Y0.0 Z0.0 F6000
G01 X1.741 Y24.0 Z5.0 F1200
G01 X1.741 Y0.0 Z0.0 F1200
G01 X0.674 Y0.0 Z0.0 F6000
G01 X0.674 Y24.0 Z5.0 F1200
G01 X0.674 Y0.0 Z0.0 F1200
G01 A337.587 F2000
G01 X0.184 Y0.0 Z0.0 F6000
G01 X0.184 Y24.0 Z5.0 F1200
G01 X0.184 Y0.0 Z0.0 F1200
G01 X0.964 Y0.0 Z0.0 F6000
G01 X0.964 Y24.0 Z5.0 F1200
G01 X0.964 Y0.0 Z0.0 F1200
G01 A348.84 F2000
G01 X1.222 Y0.0 Z0.0 F6000
G01 X1.222 Y24.0 Z5.0 F1200
G01 X1.222 Y0.0 Z0.0 F1200
G01 X0.641 Y0.0 Z0.0 F6000
G01 X0.641 Y24.0 Z5.0 F1200
G01 X0.641 Y0.0 Z0.0 F1200
G01 A360.0 F2000
G01 X1.607 Y-1.0 Z0.0 F6000
G01 X1.607 Y23.0 Z5.0 F1200
G01 X1.607 Y-1.0 Z0.0 F1200
G01 X3.192 Y-1.0 Z0.0 F6000
G01 X3.192 Y23.0 Z5.0 F1200
G01 X3.192 Y-1.0 Z0.0 F1200
G01 A369.473 F2000
G01 X3.635 Y-1.0 Z0.0 F6000
G01 X3.635 Y23.0 Z5.0 F1200
G01 X3.635 Y-1.0 Z0.0 F1200
G01 X2.377 Y-1.0 Z0.0 F6000
G01 X2.377 Y23.0 Z5.0 F1200
G01 X2.377 Y-1.0 Z0.0 F1200
G01 A378.946 F2000
G01 X2.299 Y-1.0 Z0.0 F6000
G01 X2.299 Y23.0 Z5.0 F1200
G01 X2.299 Y-1.0 Z0.0 F1200
G01 X2.694 Y-1.0 Z0.0 F6000
G01 X2.694 Y23.0 Z5.0 F1200
G01 X2.694 Y-1.0 Z0.0 F1200
G01 A388.419 F2000
G01 X3.39 Y-1.0 Z0.0 F6000
G01 X3.39 Y23.0 Z5.0 F1200
G01 X3.39 Y-1.0 Z0.0 F1200
G01 X2.798 Y-1.0 Z0.0 F6000
G01 X2.798 Y23.0 Z5.0 F1200
G01 X2.798 Y-1.0 Z0.0 F1200
G01 A397.892 F2000
G01 X1.88 Y-1.0 Z0.0 F6000
G01 X1.88 Y23.0 Z5.0 F1200
G01 X1.88 Y-1.0 Z0.0 F1200
G01 X3.213 Y-1.0 Z0.0 F6000
G01 X3.213 Y23.0 Z5.0 F1200
G01 X3.213 Y-1.0 Z0.0 F1200
G01 A407.365 F2000
G01 X3.613 Y-1.0 Z0.0 F6000
G01 X3.613 Y23.0 Z5.0 F1200
G01 X3.613 Y-1.0 Z0.0 F1200
G01 X2.941 Y-1.0 Z0.0 F6000
G01 X2.941 Y23.0 Z5.0 F1200
G01 X2.941 Y-1.0 Z0.0 F1200
G01 A416.837 F2000
G01 X2.492 Y-1.0 Z0.0 F6000
G01 X2.492 Y23.0 Z5.0 F1200
G01 X2.492 Y-1.0 Z0.0 F1200
G01 X3.224 Y-1.0 Z0.0 F6000
G01 X3.224 Y23.0 Z5.0 F1200
G01 X3.224 Y-1.0 Z0.0 F1200
G01 A426.31 F2000
G01 X3.809 Y-1.0 Z0.0 F6000
G01 X3.809 Y23.0 Z5.0 F1200
G01 X3.809 Y-1.0 Z0.0 F1200
G01 X2.153 Y-1.0 Z0.0 F6000
G01 X2.153 Y23.0 Z5.0 F1200
G01 X2.153 Y-1.0 Z0.0 F1200
G01 A435.783 F2000
G01 X2.213 Y-1.0 Z0.0 F6000
G01 X2.213 Y23.0 Z5.0 F1200
G01 X2.213 Y-1.0 Z0.0 F1200
G01 X3.348 Y-1.0 Z0.0 F6000
G01 X3.348 Y23.0 Z5.0 F1200
G01 X3.348 Y-1.0 Z0.0 F1200
G01 A445.256 F2000
G01 X3.401 Y-1.0 Z0.0 F6000
G01 X3.401 Y23.0 Z5.0 F1200
G01 X3.401 Y-1.0 Z0.0 F1200
G01 X2.553 Y-1.0 Z0.0 F6000
G01 X2.553 Y23.0 Z5.0 F1200
G01 X2.553 Y-1.0 Z0.0 F1200
G01 A454.729 F2000
G01 X1.979 Y-1.0 Z0.0 F6000
G01 X1.979 Y23.0 Z5.0 F1200
G01 X1.979 Y-1.0 Z0.0 F1200
G01 X3.459 Y-1.0 Z0.0 F6000
G01 X3.459 Y23.0 Z5.0 F1200
G01 X3.459 Y-1.0 Z0.0 F1200
G01 A464.202 F2000
G01 X3.317 Y-1.0 Z0.0 F6000
G01 X3.317 Y23.0 Z5.0 F1200
G01 X3.317 Y-1.0 Z0.0 F1200
G01 X2.402 Y-1.0 Z0.0 F6000
G01 X2.402 Y23.0 Z5.0 F1200
G01 X2.402 Y-1.0 Z0.0 F1200
G01 A473.675 F2000
G01 X1.501 Y-1.0 Z0.0 F6000
G01 X1.501 Y23.0 Z5.0 F1200
G01 X1.501 Y-1.0 Z0.0 F1200
G01 X2.92 Y-1.0 Z0.0 F6000
G01 X2.92 Y23.0 Z5.0 F1200
G01 X2.92 Y-1.0 Z0.0 F1200
G01 A483.148 F2000
G01 X3.631 Y-1.0 Z0.0 F6000
G01 X3.631 Y23.0 Z5.0 F1200
G01 X3.631 Y-1.0 Z0.0 F1200
G01 X2.935 Y-1.0 Z0.0 F6000
G01 X2.935 Y23.0 Z5.0 F1200
G01 X2.935 Y-1.0 Z0.0 F1200
G01 A492.621 F2000
G01 X2.424 Y-1.0 Z0.0 F6000
G01 X2.424 Y23.0 Z5.0 F1200
G01 X2.424 Y-1.0 Z0.0 F1200
G01 X2.827 Y-1.0 Z0.0 F6000
G01 X2.827 Y23.0 Z5.0 F1200
G01 X2.827 Y-1.0 Z0.0 F1200
G01 A502.094 F2000
G01 X3.989 Y-1.0 Z0.0 F6000
G01 X3.989 Y23.0 Z5.0 F1200
G01 X3.989 Y-1.0 Z0.0 F1200
G01 X2.188 Y-1.0 Z0.0 F6000
G01 X2.188 Y23.0 Z5.0 F1200
G01 X2.188 Y-1.0 Z0.0 F1200
G01 A511.566 F2000
G01 X2.323 Y-1.0 Z0.0 F6000
G01 X2.323 Y23.0 Z5.0 F1200
G01 X2.323 Y-1.0 Z0.0 F1200
G01 X2.657 Y-1.0 Z0.0 F6000
G01 X2.657 Y23.0 Z5.0 F1200
G01 X2.657 Y-1.0 Z0.0 F1200
G01 A521.039 F2000
G01 X3.405 Y-1.0 Z0.0 F6000
G01 X3.405 Y23.0 Z5.0 F1200
G01 X3.405 Y-1.0 Z0.0 F1200
G01 X2.073 Y-1.0 Z0.0 F6000
G01 X2.073 Y23.0 Z5.0 F1200
G01 X2.073 Y-1.0 Z0.0 F1200
G01 A530.512 F2000
G01 X2.358 Y-1.0 Z0.0 F6000
G01 X2.358 Y23.0 Z5.0 F1200
G01 X2.358 Y-1.0 Z0.0 F1200
G01 X3.329 Y-1.0 Z0.0 F6000
G01 X3.329 Y23.0 Z5.0 F1200
G01 X3.329 Y-1.0 Z0.0 F1200
G01 A539.985 F2000
G01 X3.14 Y-1.0 Z0.0 F6000
G01 X3.14 Y23.0 Z5.0 F1200
G01 X3.14 Y-1.0 Z0.0 F1200
G01 X2.527 Y-1.0 Z0.0 F6000
G01 X2.527 Y23.0 Z5.0 F1200
G01 X2.527 Y-1.0 Z0.0 F1200
G01 A549.458 F2000
G01 X1.758 Y-1.0 Z0.0 F6000
G01 X1.758 Y23.0 Z5.0 F1200
G01 X1.758 Y-1.0 Z0.0 F1200
G01 X2.992 Y-1.0 Z0.0 F6000
G01 X2.992 Y23.0 Z5.0 F1200
G01 X2.992 Y-1.0 Z0.0 F1200
G01 A558.931 F2000
G01 X3.553 Y-1.0 Z0.0 F6000
G01 X3.553 Y23.0 Z5.0 F1200
G01 X3.553 Y-1.0 Z0.0 F1200
G01 X2.106 Y-1.0 Z0.0 F6000
G01 X2.106 Y23.0 Z5.0 F1200
G01 X2.106 Y-1.0 Z0.0 F1200
G01 A568.404 F2000
G01 X2.364 Y-1.0 Z0.0 F6000
G01 X2.364 Y23.0 Z5.0 F1200
G01 X2.364 Y-1.0 Z0.0 F1200
G01 X2.779 Y-1.0 Z0.0 F6000
G01 X2.779 Y23.0 Z5.0 F1200
G01 X2.779 Y-1.0 Z0.0 F1200
G01 A577.877 F2000
G01 X3.447 Y-1.0 Z0.0 F6000
G01 X3.447 Y23.0 Z5.0 F1200
G01 X3.447 Y-1.0 Z0.0 F1200
G01 X2.057 Y-1.0 Z0.0 F6000
G01 X2.057 Y23.0 Z5.0 F1200
G01 X2.057 Y-1.0 Z0.0 F1200
G01 A587.35 F2000
G01 X1.503 Y-1.0 Z0.0 F6000
G01 X1.503 Y23.0 Z5.0 F1200
G01 X1.503 Y-1.0 Z0.0 F1200
G01 X2.695 Y-1.0 Z0.0 F6000
G01 X2.695 Y23.0 Z5.0 F1200
G01 X2.695 Y-1.0 Z0.0 F1200
G01 A596.823 F2000
G01 X3.342 Y-1.0 Z0.0 F6000
G01 X3.342 Y23.0 Z5.0 F1200
G01 X3.342 Y-1.0 Z0.0 F1200
G01 X2.928 Y-1.0 Z0.0 F6000
G01 X2.928 Y23.0 Z5.0 F1200
G01 X2.928 Y-1.0 Z0.0 F1200
G01 A606.295 F2000
G01 X2.39 Y-1.0 Z0.0 F6000
G01 X2.39 Y23.0 Z5.0 F1200
G01 X2.39 Y-1.0 Z0.0 F1200
G01 X2.981 Y-1.0 Z0.0 F6000
G01 X2.981 Y23.0 Z5.0 F1200
G01 X2.981 Y-1.0 Z0.0 F1200
G01 A615.768 F2000
G01 X3.455 Y-1.0 Z0.0 F6000
G01 X3.455 Y23.0 Z5.0 F1200
G01 X3.455 Y-1.0 Z0.0 F1200
G01 X2.667 Y-1.0 Z0.0 F6000
G01 X2.667 Y23.0 Z5.0 F1200
G01 X2.667 Y-1.0 Z0.0 F1200
G01 A625.241 F2000
G01 X2.359 Y-1.0 Z0.0 F6000
G01 X2.359 Y23.0 Z5.0 F1200
G01 X2.359 Y-1.0 Z0.0 F1200
G01 X2.837 Y-1.0 Z0.0 F6000
G01 X2.837 Y23.0 Z5.0 F1200
G01 X2.837 Y-1.0 Z0.0 F1200
G01 A634.714 F2000
G01 X3.794 Y-1.0 Z0.0 F6000
G01 X3.794 Y23.0 Z5.0 F1200
G01 X3.794 Y-1.0 Z0.0 F1200
G01 X2.399 Y-1.0 Z0.0 F6000
G01 X2.399 Y23.0 Z5.0 F1200
G01 X2.399 Y-1.0 Z0.0 F1200
G01 A644.187 F2000
G01 X2.094 Y-1.0 Z0.0 F6000
G01 X2.094 Y23.0 Z5.0 F1200
G01 X2.094 Y-1.0 Z0.0 F1200
G01 X3.237 Y-1.0 Z0.0 F6000
G01 X3.237 Y23.0 Z5.0 F1200
G01 X3.237 Y-1.0 Z0.0 F1200
G01 A653.66 F2000
G01 X3.501 Y-1.0 Z0.0 F6000
G01 X3.501 Y23.0 Z5.0 F1200
G01 X3.501 Y-1.0 Z0.0 F1200
G01 X2.691 Y-1.0 Z0.0 F6000
G01 X2.691 Y23.0 Z5.0 F1200
G01 X2.691 Y-1.0 Z0.0 F1200
G01 A663.133 F2000
G01 X2.197 Y-1.0 Z0.0 F6000
G01 X2.197 Y23.0 Z5.0 F1200
G01 X2.197 Y-1.0 Z0.0 F1200
G01 X2.506 Y-1.0 Z0.0 F6000
G01 X2.506 Y23.0 Z5.0 F1200
G01 X2.506 Y-1.0 Z0.0 F1200
G01 A672.606 F2000
G01 X3.039 Y-1.0 Z0.0 F6000
G01 X3.039 Y23.0 Z5.0 F1200
G01 X3.039 Y-1.0 Z0.0 F1200
G01 X2.149 Y-1.0 Z0.0 F6000
G01 X2.149 Y23.0 Z5.0 F1200
G01 X2.149 Y-1.0 Z0.0 F1200
G01 A682.079 F2000
G01 X1.714 Y-1.0 Z0.0 F6000
G01 X1.714 Y23.0 Z5.0 F1200
G01 X1.714 Y-1.0 Z0.0 F1200
G01 X2.703 Y-1.0 Z0.0 F6000
G01 X2.703 Y23.0 Z5.0 F1200
G01 X2.703 Y-1.0 Z0.0 F1200
G01 A691.552 F2000
G01 X3.049 Y-1.0 Z0.0 F6000
G01 X3.049 Y23.0 Z5.0 F1200
G01 X3.049 Y-1.0 Z0.0 F1200
G01 X2.217 Y-1.0 Z0.0 F6000
G01 X2.217 Y23.0 Z5.0 F1200
G01 X2.217 Y-1.0 Z0.0 F1200
G01 A701.024 F2000
G01 X2.101 Y-1.0 Z0.0 F6000
G01 X2.101 Y23.0 Z5.0 F1200
G01 X2.101 Y-1.0 Z0.0 F1200
G01 X3.386 Y-1.0 Z0.0 F6000
G01 X3.386 Y23.0 Z5.0 F1200
G01 X3.386 Y-1.0 Z0.0 F1200
G01 A710.497 F2000
G01 X3.35 Y-1.0 Z0.0 F6000
G01 X3.35 Y23.0 Z5.0 F1200
G01 X3.35 Y-1.0 Z0.0 F1200
G01 X2.366 Y-1.0 Z0.0 F6000
G01 X2.366 Y23.0 Z5.0 F1200
G01 X2.366 Y-1.0 Z0.0 F1200
G01 A720.0 F2000
G01 X3.917 Y-2.0 Z0.0 F6000
G01 X3.917 Y22.0 Z5.0 F1200
G01 X3.917 Y-2.0 Z0.0 F1200
G01 X5.18 Y-2.0 Z0.0 F6000
G01 X5.18 Y22.0 Z5.0 F1200
G01 X5.18 Y-2.0 Z0.0 F1200
G01 A728.185 F2000
G01 X5.785 Y-2.0 Z0.0 F6000
G01 X5.785 Y22.0 Z5.0 F1200
G01 X5.785 Y-2.0 Z0.0 F1200
G01 X4.941 Y-2.0 Z0.0 F6000
G01 X4.941 Y22.0 Z5.0 F1200
G01 X4.941 Y-2.0 Z0.0 F1200
G01 A736.37 F2000
G01 X3.876 Y-2.0 Z0.0 F6000
G01 X3.876 Y22.0 Z5.0 F1200
G01 X3.876 Y-2.0 Z0.0 F1200
G01 X5.207 Y-2.0 Z0.0 F6000
G01 X5.207 Y22.0 Z5.0 F1200
G01 X5.207 Y-2.0 Z0.0 F1200
G01 A744.555 F2000
G01 X5.342 Y-2.0 Z0.0 F6000
G01 X5.342 Y22.0 Z5.0 F1200
G01 X5.342 Y-2.0 Z0.0 F1200
G01 X4.824 Y-2.0 Z0.0 F6000
G01 X4.824 Y22.0 Z5.0 F1200
G01 X4.824 Y-2.0 Z0.0 F1200
G01 A752.74 F2000
G01 X3.731 Y-2.0 Z0.0 F6000
G01 X3.731 Y22.0 Z5.0 F1200
G01 X3.731 Y-2.0 Z0.0 F1200
G01 X5.371 Y-2.0 Z0.0 F6000
G01 X5.371 Y22.0 Z5.0 F1200
G01 X5.371 Y-2.0 Z0.0 F1200
G01 A760.926 F2000
G01 X5.505 Y-2.0 Z0.0 F6000
G01 X5.505 Y22.0 Z5.0 F1200
G01 X5.505 Y-2.0 Z0.0 F1200
G01 X4.725 Y-2.0 Z0.0 F6000
G01 X4.725 Y22.0 Z5.0 F1200
G01 X4.725 Y-2.0 Z0.0 F1200
G01 A769.111 F2000
G01 X4.035 Y-2.0 Z0.0 F6000
G01 X4.035 Y22.0 Z5.0 F1200
G01 X4.035 Y-2.0 Z0.0 F1200
G01 X4.816 Y-2.0 Z0.0 F6000
G01 X4.816 Y22.0 Z5.0 F1200
G01 X4.816 Y-2.0 Z0.0 F1200
G01 A777.296 F2000
G01 X5.494 Y-2.0 Z0.0 F6000
G01 X5.494 Y22.0 Z5.0 F1200
G01 X5.494 Y-2.0 Z0.0 F1200
G01 X4.05 Y-2.0 Z0.0 F6000
G01 X4.05 Y22.0 Z5.0 F1200
G01 X4.05 Y-2.0 Z0.0 F1200
G01 A785.481 F2000
G01 X3.543 Y-2.0 Z0.0 F6000
G01 X3.543 Y22.0 Z5.0 F1200
G01 X3.543 Y-2.0 Z0.0 F1200
G01 X5.03 Y-2.0 Z0.0 F6000
G01 X5.03 Y22.0 Z5.0 F1200
G01 X5.03 Y-2.0 Z0.0 F1200
G01 A793.666 F2000
G01 X5.477 Y-2.0 Z0.0 F6000
G01 X5.477 Y22.0 Z5.0 F1200
G01 X5.477 Y-2.0 Z0.0 F1200
G01 X4.833 Y-2.0 Z0.0 F6000
G01 X4.833 Y22.0 Z5.0 F1200
G01 X4.833 Y-2.0 Z0.0 F1200
G01 A801.851 F2000
G01 X3.52 Y-2.0 Z0.0 F6000
G01 X3.52 Y22.0 Z5.0 F1200
G01 X3.52 Y-2.0 Z0.0 F1200
G01 X5.057 Y-2.0 Z0.0 F6000
G01 X5.057 Y22.0 Z5.0 F1200
G01 X5.057 Y-2.0 Z0.0 F1200
G01 A810.036 F2000
G01 X5.491 Y-2.0 Z0.0 F6000
G01 X5.491 Y22.0 Z5.0 F1200
G01 X5.491 Y-2.0 Z0.0 F1200
G01 X4.598 Y-2.0 Z0.0 F6000
G01 X4.598 Y22.0 Z5.0 F1200
G01 X4.598 Y-2.0 Z0.0 F1200
G01 A818.221 F2000
G01 X4.23 Y-2.0 Z0.0 F6000
G01 X4.23 Y22.0 Z5.0 F1200
G01 X4.23 Y-2.0 Z0.0 F1200
G01 X5.025 Y-2.0 Z0.0 F6000
G01 X5.025 Y22.0 Z5.0 F1200
G01 X5.025 Y-2.0 Z0.0 F1200
G01 A826.406 F2000
G01 X5.563 Y-2.0 Z0.0 F6000
G01 X5.563 Y22.0 Z5.0 F1200
G01 X5.563 Y-2.0 Z0.0 F1200
G01 X4.492 Y-2.0 Z0.0 F6000
G01 X4.492 Y22.0 Z5.0 F1200
G01 X4.492 Y-2.0 Z0.0 F1200
G01 A834.592 F2000
G01 X4.115 Y-2.0 Z0.0 F6000
G01 X4.115 Y22.0 Z5.0 F1200
G01 X4.115 Y-2.0 Z0.0 F1200
G01 X4.748 Y-2.0 Z0.0 F6000
G01 X4.748 Y22.0 Z5.0 F1200
G01 X4.748 Y-2.0 Z0.0 F1200
G01 A842.777 F2000
G01 X5.553 Y-2.0 Z0.0 F6000
G01 X5.553 Y22.0 Z5.0 F1200
G01 X5.553 Y-2.0 Z0.0 F1200
G01 X4.672 Y-2.0 Z0.0 F6000
G01 X4.672 Y22.0 Z5.0 F1200
G01 X4.672 Y-2.0 Z0.0 F1200
G01 A850.962 F2000
G01 X3.691 Y-2.0 Z0.0 F6000
G01 X3.691 Y22.0 Z5.0 F1200
G01 X3.691 Y-2.0 Z0.0 F1200
G01 X5.49 Y-2.0 Z0.0 F6000
G01 X5.49 Y22.0 Z5.0 F1200
G01 X5.49 Y-2.0 Z0.0 F1200
G01 A859.147 F2000
G01 X5.746 Y-2.0 Z0.0 F6000
G01 X5.746 Y22.0 Z5.0 F1200
G01 X5.746 Y-2.0 Z0.0 F1200
G01 X4.955 Y-2.0 Z0.0 F6000
G01 X4.955 Y22.0 Z5.0 F1200
G01 X4.955 Y-2.0 Z0.0 F1200
G01 A867.332 F2000
G01 X3.794 Y-2.0 Z0.0 F6000
G01 X3.794 Y22.0 Z5.0 F1200
G01 X3.794 Y-2.0 Z0.0 F1200
G01 X4.943 Y-2.0 Z0.0 F6000
G01 X4.943 Y22.0 Z5.0 F1200
G01 X4.943 Y-2.0 Z0.0 F1200
G01 A875.517 F2000
G01 X5.261 Y-2.0 Z0.0 F6000
G01 X5.261 Y22.0 Z5.0 F1200
G01 X5.261 Y-2.0 Z0.0 F1200
G01 X4.047 Y-2.0 Z0.0 F6000
G01 X4.047 Y22.0 Z5.0 F1200
G01 X4.047 Y-2.0 Z0.0 F1200
G01 A883.702 F2000
G01 X3.517 Y-2.0 Z0.0 F6000
G01 X3.517 Y22.0 Z5.0 F1200
G01 X3.517 Y-2.0 Z0.0 F1200
G01 X4.747 Y-2.0 Z0.0 F6000
G01 X4.747 Y22.0 Z5.0 F1200
G01 X4.747 Y-2.0 Z0.0 F1200
G01 A891.887 F2000
G01 X5.861 Y-2.0 Z0.0 F6000
G01 X5.861 Y22.0 Z5.0 F1200
G01 X5.861 Y-2.0 Z0.0 F1200
G01 X4.164 Y-2.0 Z0.0 F6000
G01 X4.164 Y22.0 Z5.0 F1200
G01 X4.164 Y-2.0 Z0.0 F1200
G01 A900.072 F2000
G01 X4.19 Y-2.0 Z0.0 F6000
G01 X4.19 Y22.0 Z5.0 F1200
G01 X4.19 Y-2.0 Z0.0 F1200
G01 X4.749 Y-2.0 Z0.0 F6000
G01 X4.749 Y22.0 Z5.0 F1200
G01 X4.749 Y-2.0 Z0.0 F1200
G01 A908.258 F2000
G01 X5.066 Y-2.0 Z0.0 F6000
G01 X5.066 Y22.0 Z5.0 F1200
G01 X5.066 Y-2.0 Z0.0 F1200
G01 X4.192 Y-2.0 Z0.0 F6000
G01 X4.192 Y22.0 Z5.0 F1200
G01 X4.192 Y-2.0 Z0.0 F1200
G01 A916.443 F2000
G01 X4.178 Y-2.0 Z0.0 F6000
G01 X4.178 Y22.0 Z5.0 F1200
G01 X4.178 Y-2.0 Z0.0 F1200
G01 X5.002 Y-2.0 Z0.0 F6000
G01 X5.002 Y22.0 Z5.0 F1200
G01 X5.002 Y-2.0 Z0.0 F1200
G01 A924.628 F2000
G01 X5.549 Y-2.0 Z0.0 F6000
G01 X5.549 Y22.0 Z5.0 F1200
G01 X5.549 Y-2.0 Z0.0 F1200
G01 X4.453 Y-2.0 Z0.0 F6000
G01 X4.453 Y22.0 Z5.0 F1200
G01 X4.453 Y-2.0 Z0.0 F1200
G01 A932.813 F2000
G01 X3.774 Y-2.0 Z0.0 F6000
G01 X3.774 Y22.0 Z5.0 F1200
G01 X3.774 Y-2.0 Z0.0 F1200
G01 X4.988 Y-2.0 Z0.0 F6000
G01 X4.988 Y22.0 Z5.0 F1200
G01 X4.988 Y-2.0 Z0.0 F1200
G01 A940.998 F2000
G01 X5.922 Y-2.0 Z0.0 F6000
G01 X5.922 Y22.0 Z5.0 F1200
G01 X5.922 Y-2.0 Z0.0 F1200
G01 X4.201 Y-2.0 Z0.0 F6000
G01 X4.201 Y22.0 Z5.0 F1200
G01 X4.201 Y-2.0 Z0.0 F1200
G01 A949.183 F2000
G01 X4.233 Y-2.0 Z0.0 F6000
G01 X4.233 Y22.0 Z5.0 F1200
G01 X4.233 Y-2.0 Z0.0 F1200
G01 X4.751 Y-2.0 Z0.0 F6000
G01 X4.751 Y22.0 Z5.0 F1200
G01 X4.751 Y-2.0 Z0.0 F1200
G01 A957.368 F2000
G01 X5.193 Y-2.0 Z0.0 F6000
G01 X5.193 Y22.0 Z5.0 F1200
G01 X5.193 Y-2.0 Z0.0 F1200
G01 X4.324 Y-2.0 Z0.0 F6000
G01 X4.324 Y22.0 Z5.0 F1200
G01 X4.324 Y-2.0 Z0.0 F1200
G01 A965.553 F2000
G01 X3.593 Y-2.0 Z0.0 F6000
G01 X3.593 Y22.0 Z5.0 F1200
G01 X3.593 Y-2.0 Z0.0 F1200
G01 X5.435 Y-2.0 Z0.0 F6000
G01 X5.435 Y22.0 Z5.0 F1200
G01 X5.435 Y-2.0 Z0.0 F1200
G01 A973.738 F2000
G01 X5.365 Y-2.0 Z0.0 F6000
G01 X5.365 Y22.0 Z5.0 F1200
G01 X5.365 Y-2.0 Z0.0 F1200
G01 X4.176 Y-2.0 Z0.0 F6000
G01 X4.176 Y22.0 Z5.0 F1200
G01 X4.176 Y-2.0 Z0.0 F1200
G01 A981.924 F2000
G01 X3.5 Y-2.0 Z0.0 F6000
G01 X3.5 Y22.0 Z5.0 F1200
G01 X3.5 Y-2.0 Z0.0 F1200
G01 X4.56 Y-2.0 Z0.0 F6000
G01 X4.56 Y22.0 Z5.0 F1200
G01 X4.56 Y-2.0 Z0.0 F1200
G01 A990.109 F2000
G01 X5.215 Y-2.0 Z0.0 F6000
G01 X5.215 Y22.0 Z5.0 F1200
G01 X5.215 Y-2.0 Z0.0 F1200
G01 X4.418 Y-2.0 Z0.0 F6000
G01 X4.418 Y22.0 Z5.0 F1200
G01 X4.418 Y-2.0 Z0.0 F1200
G01 A998.294 F2000
G01 X4.102 Y-2.0 Z0.0 F6000
G01 X4.102 Y22.0 Z5.0 F1200
G01 X4.102 Y-2.0 Z0.0 F1200
G01 X5.481 Y-2.0 Z0.0 F6000
G01 X5.481 Y22.0 Z5.0 F1200
G01 X5.481 Y-2.0 Z0.0 F1200
G01 A1006.479 F2000
G01 X5.89 Y-2.0 Z0.0 F6000
G01 X5.89 Y22.0 Z5.0 F1200
G01 X5.89 Y-2.0 Z0.0 F1200
G01 X4.242 Y-2.0 Z0.0 F6000
G01 X4.242 Y22.0 Z5.0 F1200
G01 X4.242 Y-2.0 Z0.0 F1200
G01 A1014.664 F2000
G01 X4.112 Y-2.0 Z0.0 F6000
G01 X4.112 Y22.0 Z5.0 F1200
G01 X4.112 Y-2.0 Z0.0 F1200
G01 X5.422 Y-2.0 Z0.0 F6000
G01 X5.422 Y22.0 Z5.0 F1200
G01 X5.422 Y-2.0 Z0.0 F1200
G01 A1022.849 F2000
G01 X5.102 Y-2.0 Z0.0 F6000
G01 X5.102 Y22.0 Z5.0 F1200
G01 X5.102 Y-2.0 Z0.0 F1200
G01 X4.854 Y-2.0 Z0.0 F6000
G01 X4.854 Y22.0 Z5.0 F1200
G01 X4.854 Y-2.0 Z0.0 F1200
G01 A1031.034 F2000
G01 X3.896 Y-2.0 Z0.0 F6000
G01 X3.896 Y22.0 Z5.0 F1200
G01 X3.896 Y-2.0 Z0.0 F1200
G01 X5.282 Y-2.0 Z0.0 F6000
G01 X5.282 Y22.0 Z5.0 F1200
G01 X5.282 Y-2.0 Z0.0 F1200
G01 A1039.219 F2000
G01 X5.323 Y-2.0 Z0.0 F6000
G01 X5.323 Y22.0 Z5.0 F1200
G01 X5.323 Y-2.0 Z0.0 F1200
G01 X4.626 Y-2.0 Z0.0 F6000
G01 X4.626 Y22.0 Z5.0 F1200
G01 X4.626 Y-2.0 Z0.0 F1200
G01 A1047.404 F2000
G01 X4.007 Y-2.0 Z0.0 F6000
G01 X4.007 Y22.0 Z5.0 F1200
G01 X4.007 Y-2.0 Z0.0 F1200
G01 X4.604 Y-2.0 Z0.0 F6000
G01 X4.604 Y22.0 Z5.0 F1200
G01 X4.604 Y-2.0 Z0.0 F1200
G01 A1055.59 F2000
G01 X5.76 Y-2.0 Z0.0 F6000
G01 X5.76 Y22.0 Z5.0 F1200
G01 X5.76 Y-2.0 Z0.0 F1200
G01 X4.823 Y-2.0 Z0.0 F6000
G01 X4.823 Y22.0 Z5.0 F1200
G01 X4.823 Y-2.0 Z0.0 F1200
G01 A1063.775 F2000
G01 X3.983 Y-2.0 Z0.0 F6000
G01 X3.983 Y22.0 Z5.0 F1200
G01 X3.983 Y-2.0 Z0.0 F1200
G01 X4.888 Y-2.0 Z0.0 F6000
G01 X4.888 Y22.0 Z5.0 F1200
G01 X4.888 Y-2.0 Z0.0 F1200
G01 A1071.96 F2000
G01 X5.947 Y-2.0 Z0.0 F6000
G01 X5.947 Y22.0 Z5.0 F1200
G01 X5.947 Y-2.0 Z0.0 F1200
G01 X4.374 Y-2.0 Z0.0 F6000
G01 X4.374 Y22.0 Z5.0 F1200
G01 X4.374 Y-2.0 Z0.0 F1200
G01 A1080.0 F2000
G01 X6.38 Y-3.0 Z0.0 F6000
G01 X6.38 Y21.0 Z5.0 F1200
G01 X6.38 Y-3.0 Z0.0 F1200
G01 X6.919 Y-3.0 Z0.0 F6000
G01 X6.919 Y21.0 Z5.0 F1200
G01 X6.919 Y-3.0 Z0.0 F1200
G01 A1087.198 F2000
G01 X7.374 Y-3.0 Z0.0 F6000
G01 X7.374 Y21.0 Z5.0 F1200
G01 X7.374 Y-3.0 Z0.0 F1200
G01 X6.361 Y-3.0 Z0.0 F6000
G01 X6.361 Y21.0 Z5.0 F1200
G01 X6.361 Y-3.0 Z0.0 F1200
G01 A1094.396 F2000
G01 X5.56 Y-3.0 Z0.0 F6000
G01 X5.56 Y21.0 Z5.0 F1200
G01 X5.56 Y-3.0 Z0.0 F1200
G01 X6.777 Y-3.0 Z0.0 F6000
G01 X6.777 Y21.0 Z5.0 F1200
G01 X6.777 Y-3.0 Z0.0 F1200
G01 A1101.593 F2000
G01 X7.229 Y-3.0 Z0.0 F6000
G01 X7.229 Y21.0 Z5.0 F1200
G01 X7.229 Y-3.0 Z0.0 F1200
G01 X6.062 Y-3.0 Z0.0 F6000
G01 X6.062 Y21.0 Z5.0 F1200
G01 X6.062 Y-3.0 Z0.0 F1200
G01 A1108.791 F2000
G01 X6.042 Y-3.0 Z0.0 F6000
G01 X6.042 Y21.0 Z5.0 F1200
G01 X6.042 Y-3.0 Z0.0 F1200
G01 X6.942 Y-3.0 Z0.0 F6000
G01 X6.942 Y21.0 Z5.0 F1200
G01 X6.942 Y-3.0 Z0.0 F1200
G01 A1115.989 F2000
G01 X7.025 Y-3.0 Z0.0 F6000
G01 X7.025 Y21.0 Z5.0 F1200
G01 X7.025 Y-3.0 Z0.0 F1200
G01 X6.156 Y-3.0 Z0.0 F6000
G01 X6.156 Y21.0 Z5.0 F1200
G01 X6.156 Y-3.0 Z0.0 F1200
G01 A1123.187 F2000
G01 X6.419 Y-3.0 Z0.0 F6000
G01 X6.419 Y21.0 Z5.0 F1200
G01 X6.419 Y-3.0 Z0.0 F1200
G01 X6.634 Y-3.0 Z0.0 F6000
G01 X6.634 Y21.0 Z5.0 F1200
G01 X6.634 Y-3.0 Z0.0 F1200
G01 A1130.384 F2000
G01 X7.373 Y-3.0 Z0.0 F6000
G01 X7.373 Y21.0 Z5.0 F1200
G01 X7.373 Y-3.0 Z0.0 F1200
G01 X6.951 Y-3.0 Z0.0 F6000
G01 X6.951 Y21.0 Z5.0 F1200
G01 X6.951 Y-3.0 Z0.0 F1200
G01 A1137.582 F2000
G01 X5.613 Y-3.0 Z0.0 F6000
G01 X5.613 Y21.0 Z5.0 F1200
G01 X5.613 Y-3.0 Z0.0 F1200
G01 X6.91 Y-3.0 Z0.0 F6000
G01 X6.91 Y21.0 Z5.0 F1200
G01 X6.91 Y-3.0 Z0.0 F1200
G01 A1144.78 F2000
G01 X7.801 Y-3.0 Z0.0 F6000
G01 X7.801 Y21.0 Z5.0 F1200
G01 X7.801 Y-3.0 Z0.0 F1200
G01 X6.019 Y-3.0 Z0.0 F6000
G01 X6.019 Y21.0 Z5.0 F1200
G01 X6.019 Y-3.0 Z0.0 F1200
G01 A1151.978 F2000
G01 X5.568 Y-3.0 Z0.0 F6000
G01 X5.568 Y21.0 Z5.0 F1200
G01 X5.568 Y-3.0 Z0.0 F1200
G01 X7.43 Y-3.0 Z0.0 F6000
G01 X7.43 Y21.0 Z5.0 F1200
G01 X7.43 Y-3.0 Z0.0 F1200
G01 A1159.176 F2000
G01 X7.684 Y-3.0 Z0.0 F6000
G01 X7.684 Y21.0 Z5.0 F1200
G01 X7.684 Y-3.0 Z0.0 F1200
G01 X6.261 Y-3.0 Z0.0 F6000
G01 X6.261 Y21.0 Z5.0 F1200
G01 X6.261 Y-3.0 Z0.0 F1200
G01 A1166.373 F2000
G01 X5.98 Y-3.0 Z0.0 F6000
G01 X5.98 Y21.0 Z5.0 F1200
G01 X5.98 Y-3.0 Z0.0 F1200
G01 X6.749 Y-3.0 Z0.0 F6000
G01 X6.749 Y21.0 Z5.0 F1200
G01 X6.749 Y-3.0 Z0.0 F1200
G01 A1173.571 F2000
G01 X7.892 Y-3.0 Z0.0 F6000
G01 X7.892 Y21.0 Z5.0 F1200
G01 X7.892 Y-3.0 Z0.0 F1200
G01 X6.95 Y-3.0 Z0.0 F6000
G01 X6.95 Y21.0 Z5.0 F1200
G01 X6.95 Y-3.0 Z0.0 F1200
G01 A1180.769 F2000
G01 X5.571 Y-3.0 Z0.0 F6000
G01 X5.571 Y21.0 Z5.0 F1200
G01 X5.571 Y-3.0 Z0.0 F1200
G01 X7.024 Y-3.0 Z0.0 F6000
G01 X7.024 Y21.0 Z5.0 F1200
G01 X7.024 Y-3.0 Z0.0 F1200
G01 A1187.967 F2000
G01 X7.184 Y-3.0 Z0.0 F6000
G01 X7.184 Y21.0 Z5.0 F1200
G01 X7.184 Y-3.0 Z0.0 F1200
G01 X6.404 Y-3.0 Z0.0 F6000
G01 X6.404 Y21.0 Z5.0 F1200
G01 X6.404 Y-3.0 Z0.0 F1200
G01 A1195.165 F2000
G01 X6.241 Y-3.0 Z0.0 F6000
G01 X6.241 Y21.0 Z5.0 F1200
G01 X6.241 Y-3.0 Z0.0 F1200
G01 X7.213 Y-3.0 Z0.0 F6000
G01 X7.213 Y21.0 Z5.0 F1200
G01 X7.213 Y-3.0 Z0.0 F1200
G01 A1202.362 F2000
G01 X7.19 Y-3.0 Z0.0 F6000
G01 X7.19 Y21.0 Z5.0 F1200
G01 X7.19 Y-3.0 Z0.0 F1200
G01 X6.332 Y-3.0 Z0.0 F6000
G01 X6.332 Y21.0 Z5.0 F1200
G01 X6.332 Y-3.0 Z0.0 F1200
G01 A1209.56 F2000
G01 X5.925 Y-3.0 Z0.0 F6000
G01 X5.925 Y21.0 Z5.0 F1200
G01 X5.925 Y-3.0 Z0.0 F1200
G01 X6.886 Y-3.0 Z0.0 F6000
G01 X6.886 Y21.0 Z5.0 F1200
G01 X6.886 Y-3.0 Z0.0 F1200
G01 A1216.758 F2000
G01 X7.682 Y-3.0 Z0.0 F6000
G01 X7.682 Y21.0 Z5.0 F1200
G01 X7.682 Y-3.0 Z0.0 F1200
G01 X6.788 Y-3.0 Z0.0 F6000
G01 X6.788 Y21.0 Z5.0 F1200
G01 X6.788 Y-3.0 Z0.0 F1200
G01 A1223.956 F2000
G01 X5.835 Y-3.0 Z0.0 F6000
G01 X5.835 Y21.0 Z5.0 F1200
G01 X5.835 Y-3.0 Z0.0 F1200
G01 X6.941 Y-3.0 Z0.0 F6000
G01 X6.941 Y21.0 Z5.0 F1200
G01 X6.941 Y-3.0 Z0.0 F1200
G01 A1231.153 F2000
G01 X7.067 Y-3.0 Z0.0 F6000
G01 X7.067 Y21.0 Z5.0 F1200
G01 X7.067 Y-3.0 Z0.0 F1200
G01 X6.367 Y-3.0 Z0.0 F6000
G01 X6.367 Y21.0 Z5.0 F1200
G01 X6.367 Y-3.0 Z0.0 F1200
G01 A1238.351 F2000
G01 X6.447 Y-3.0 Z0.0 F6000
G01 X6.447 Y21.0 Z5.0 F1200
G01 X6.447 Y-3.0 Z0.0 F1200
G01 X7.002 Y-3.0 Z0.0 F6000
G01 X7.002 Y21.0 Z5.0 F1200
G01 X7.002 Y-3.0 Z0.0 F1200
G01 A1245.549 F2000
G01 X7.557 Y-3.0 Z0.0 F6000
G01 X7.557 Y21.0 Z5.0 F1200
G01 X7.557 Y-3.0 Z0.0 F1200
G01 X6.606 Y-3.0 Z0.0 F6000
G01 X6.606 Y21.0 Z5.0 F1200
G01 X6.606 Y-3.0 Z0.0 F1200
G01 A1252.747 F2000
G01 X6.067 Y-3.0 Z0.0 F6000
G01 X6.067 Y21.0 Z5.0 F1200
G01 X6.067 Y-3.0 Z0.0 F1200
G01 X7.304 Y-3.0 Z0.0 F6000
G01 X7.304 Y21.0 Z5.0 F1200
G01 X7.304 Y-3.0 Z0.0 F1200
G01 A1259.945 F2000
G01 X7.26 Y-3.0 Z0.0 F6000
G01 X7.26 Y21.0 Z5.0 F1200
G01 X7.26 Y-3.0 Z0.0 F1200
G01 X6.317 Y-3.0 Z0.0 F6000
G01 X6.317 Y21.0 Z5.0 F1200
G01 X6.317 Y-3.0 Z0.0 F1200
G01 A1267.142 F2000
G01 X6.387 Y-3.0 Z0.0 F6000
G01 X6.387 Y21.0 Z5.0 F1200
G01 X6.387 Y-3.0 Z0.0 F1200
G01 X7.0 Y-3.0 Z0.0 F6000
G01 X7.0 Y21.0 Z5.0 F1200
G01 X7.0 Y-3.0 Z0.0 F1200
G01 A1274.34 F2000
G01 X7.96 Y-3.0 Z0.0 F6000
G01 X7.96 Y21.0 Z5.0 F1200
G01 X7.96 Y-3.0 Z0.0 F1200
G01 X6.139 Y-3.0 Z0.0 F6000
G01 X6.139 Y21.0 Z5.0 F1200
G01 X6.139 Y-3.0 Z0.0 F1200
G01 A1281.538 F2000
G01 X6.283 Y-3.0 Z0.0 F6000
G01 X6.283 Y21.0 Z5.0 F1200
G01 X6.283 Y-3.0 Z0.0 F1200
G01 X6.973 Y-3.0 Z0.0 F6000
G01 X6.973 Y21.0 Z5.0 F1200
G01 X6.973 Y-3.0 Z0.0 F1200
G01 A1288.736 F2000
G01 X7.474 Y-3.0 Z0.0 F6000
G01 X7.474 Y21.0 Z5.0 F1200
G01 X7.474 Y-3.0 Z0.0 F1200
G01 X6.881 Y-3.0 Z0.0 F6000
G01 X6.881 Y21.0 Z5.0 F1200
G01 X6.881 Y-3.0 Z0.0 F1200
G01 A1295.933 F2000
G01 X5.631 Y-3.0 Z0.0 F6000
G01 X5.631 Y21.0 Z5.0 F1200
G01 X5.631 Y-3.0 Z0.0 F1200
G01 X7.014 Y-3.0 Z0.0 F6000
G01 X7.014 Y21.0 Z5.0 F1200
G01 X7.014 Y-3.0 Z0.0 F1200
G01 A1303.131 F2000
G01 X7.25 Y-3.0 Z0.0 F6000
G01 X7.25 Y21.0 Z5.0 F1200
G01 X7.25 Y-3.0 Z0.0 F1200
G01 X6.343 Y-3.0 Z0.0 F6000
G01 X6.343 Y21.0 Z5.0 F1200
G01 X6.343 Y-3.0 Z0.0 F1200
G01 A1310.329 F2000
G01 X6.317 Y-3.0 Z0.0 F6000
G01 X6.317 Y21.0 Z5.0 F1200
G01 X6.317 Y-3.0 Z0.0 F1200
G01 X6.898 Y-3.0 Z0.0 F6000
G01 X6.898 Y21.0 Z5.0 F1200
G01 X6.898 Y-3.0 Z0.0 F1200
G01 A1317.527 F2000
G01 X7.784 Y-3.0 Z0.0 F6000
G01 X7.784 Y21.0 Z5.0 F1200
G01 X7.784 Y-3.0 Z0.0 F1200
G01 X6.013 Y-3.0 Z0.0 F6000
G01 X6.013 Y21.0 Z5.0 F1200
G01 X6.013 Y-3.0 Z0.0 F1200
G01 A1324.725 F2000
G01 X6.499 Y-3.0 Z0.0 F6000
G01 X6.499 Y21.0 Z5.0 F1200
G01 X6.499 Y-3.0 Z0.0 F1200
G01 X7.455 Y-3.0 Z0.0 F6000
G01 X7.455 Y21.0 Z5.0 F1200
G01 X7.455 Y-3.0 Z0.0 F1200
G01 A1331.922 F2000
G01 X7.679 Y-3.0 Z0.0 F6000
G01 X7.679 Y21.0 Z5.0 F1200
G01 X7.679 Y-3.0 Z0.0 F1200
G01 X6.197 Y-3.0 Z0.0 F6000
G01 X6.197 Y21.0 Z5.0 F1200
G01 X6.197 Y-3.0 Z0.0 F1200
G01 A1339.12 F2000
G01 X6.157 Y-3.0 Z0.0 F6000
G01 X6.157 Y21.0 Z5.0 F1200
G01 X6.157 Y-3.0 Z0.0 F1200
G01 X6.69 Y-3.0 Z0.0 F6000
G01 X6.69 Y21.0 Z5.0 F1200
G01 X6.69 Y-3.0 Z0.0 F1200
G01 A1346.318 F2000
G01 X7.373 Y-3.0 Z0.0 F6000
G01 X7.373 Y21.0 Z5.0 F1200
G01 X7.373 Y-3.0 Z0.0 F1200
G01 X6.035 Y-3.0 Z0.0 F6000
G01 X6.035 Y21.0 Z5.0 F1200
G01 X6.035 Y-3.0 Z0.0 F1200
G01 A1353.516 F2000
G01 X5.57 Y-3.0 Z0.0 F6000
G01 X5.57 Y21.0 Z5.0 F1200
G01 X5.57 Y-3.0 Z0.0 F1200
G01 X6.658 Y-3.0 Z0.0 F6000
G01 X6.658 Y21.0 Z5.0 F1200
G01 X6.658 Y-3.0 Z0.0 F1200
G01 A1360.714 F2000
G01 X7.182 Y-3.0 Z0.0 F6000
G01 X7.182 Y21.0 Z5.0 F1200
G01 X7.182 Y-3.0 Z0.0 F1200
G01 X6.838 Y-3.0 Z0.0 F6000
G01 X6.838 Y21.0 Z5.0 F1200
G01 X6.838 Y-3.0 Z0.0 F1200
G01 A1367.911 F2000
G01 X5.744 Y-3.0 Z0.0 F6000
G01 X5.744 Y21.0 Z5.0 F1200
G01 X5.744 Y-3.0 Z0.0 F1200
G01 X7.325 Y-3.0 Z0.0 F6000
G01 X7.325 Y21.0 Z5.0 F1200
G01 X7.325 Y-3.0 Z0.0 F1200
G01 A1375.109 F2000
G01 X7.006 Y-3.0 Z0.0 F6000
G01 X7.006 Y21.0 Z5.0 F1200
G01 X7.006 Y-3.0 Z0.0 F1200
G01 X6.058 Y-3.0 Z0.0 F6000
G01 X6.058 Y21.0 Z5.0 F1200
G01 X6.058 Y-3.0 Z0.0 F1200
G01 A1382.307 F2000
G01 X5.561 Y-3.0 Z0.0 F6000
G01 X5.561 Y21.0 Z5.0 F1200
G01 X5.561 Y-3.0 Z0.0 F1200
G01 X7.432 Y-3.0 Z0.0 F6000
G01 X7.432 Y21.0 Z5.0 F1200
G01 X7.432 Y-3.0 Z0.0 F1200
G01 A1389.505 F2000
G01 X7.817 Y-3.0 Z0.0 F6000
G01 X7.817 Y21.0 Z5.0 F1200
G01 X7.817 Y-3.0 Z0.0 F1200
G01 X6.016 Y-3.0 Z0.0 F6000
G01 X6.016 Y21.0 Z5.0 F1200
G01 X6.016 Y-3.0 Z0.0 F1200
G01 A1396.702 F2000
G01 X6.432 Y-3.0 Z0.0 F6000
G01 X6.432 Y21.0 Z5.0 F1200
G01 X6.432 Y-3.0 Z0.0 F1200
G01 X6.727 Y-3.0 Z0.0 F6000
G01 X6.727 Y21.0 Z5.0 F1200
G01 X6.727 Y-3.0 Z0.0 F1200
G01 A1403.9 F2000
G01 X7.265 Y-3.0 Z0.0 F6000
G01 X7.265 Y21.0 Z5.0 F1200
G01 X7.265 Y-3.0 Z0.0 F1200
G01 X6.584 Y-3.0 Z0.0 F6000
G01 X6.584 Y21.0 Z5.0 F1200
G01 X6.584 Y-3.0 Z0.0 F1200
G01 A1411.098 F2000
G01 X5.705 Y-3.0 Z0.0 F6000
G01 X5.705 Y21.0 Z5.0 F1200
G01 X5.705 Y-3.0 Z0.0 F1200
G01 X7.475 Y-3.0 Z0.0 F6000
G01 X7.475 Y21.0 Z5.0 F1200
G01 X7.475 Y-3.0 Z0.0 F1200
G01 A1418.296 F2000
G01 X7.366 Y-3.0 Z0.0 F6000
G01 X7.366 Y21.0 Z5.0 F1200
G01 X7.366 Y-3.0 Z0.0 F1200
G01 X6.571 Y-3.0 Z0.0 F6000
G01 X6.571 Y21.0 Z5.0 F1200
G01 X6.571 Y-3.0 Z0.0 F1200
G01 A1425.494 F2000
G01 X6.072 Y-3.0 Z0.0 F6000
G01 X6.072 Y21.0 Z5.0 F1200
G01 X6.072 Y-3.0 Z0.0 F1200
G01 X6.782 Y-3.0 Z0.0 F6000
G01 X6.782 Y21.0 Z5.0 F1200
G01 X6.782 Y-3.0 Z0.0 F1200
G01 A1432.691 F2000
G01 X7.735 Y-3.0 Z0.0 F6000
G01 X7.735 Y21.0 Z5.0 F1200
G01 X7.735 Y-3.0 Z0.0 F1200
G01 X6.992 Y-3.0 Z0.0 F6000
G01 X6.992 Y21.0 Z5.0 F1200
G01 X6.992 Y-3.0 Z0.0 F1200
G01 A1440.0 F2000
G01 X0.096 Y-4.0 Z0.0 F6000
G01 X0.096 Y20.0 Z5.0 F1200
G01 X0.096 Y-4.0 Z0.0 F1200
G01 X0.584 Y-4.0 Z0.0 F6000
G01 X0.584 Y20.0 Z5.0 F1200
G01 X0.584 Y-4.0 Z0.0 F1200
G01 A1446.43 F2000
G01 X1.808 Y-4.0 Z0.0 F6000
G01 X1.808 Y20.0 Z5.0 F1200
G01 X1.808 Y-4.0 Z0.0 F1200
G01 X0.667 Y-4.0 Z0.0 F6000
G01 X0.667 Y20.0 Z5.0 F1200
G01 X0.667 Y-4.0 Z0.0 F1200
G01 A1452.86 F2000
G01 X-0.01 Y-4.0 Z0.0 F6000
G01 X-0.01 Y20.0 Z5.0 F1200
G01 X-0.01 Y-4.0 Z0.0 F1200
G01 X1.154 Y-4.0 Z0.0 F6000
G01 X1.154 Y20.0 Z5.0 F1200
G01 X1.154 Y-4.0 Z0.0 F1200
G01 A1459.29 F2000
G01 X1.261 Y-4.0 Z0.0 F6000
G01 X1.261 Y20.0 Z5.0 F1200
G01 X1.261 Y-4.0 Z0.0 F1200
G01 X0.304 Y-4.0 Z0.0 F6000
G01 X0.304 Y20.0 Z5.0 F1200
G01 X0.304 Y-4.0 Z0.0 F1200
G01 A1465.719 F2000
G01 X0.015 Y-4.0 Z0.0 F6000
G01 X0.015 Y20.0 Z5.0 F1200
G01 X0.015 Y-4.0 Z0.0 F1200
G01 X0.568 Y-4.0 Z0.0 F6000
G01 X0.568 Y20.0 Z5.0 F1200
G01 X0.568 Y-4.0 Z0.0 F1200
G01 A1472.149 F2000
G01 X1.588 Y-4.0 Z0.0 F6000
G01 X1.588 Y20.0 Z5.0 F1200
G01 X1.588 Y-4.0 Z0.0 F1200
G01 X0.182 Y-4.0 Z0.0 F6000
G01 X0.182 Y20.0 Z5.0 F1200
G01 X0.182 Y-4.0 Z0.0 F1200
G01 A1478.579 F2000
G01 X-0.246 Y-4.0 Z0.0 F6000
G01 X-0.246 Y20.0 Z5.0 F1200
G01 X-0.246 Y-4.0 Z0.0 F1200
G01 X1.4 Y-4.0 Z0.0 F6000
G01 X1.4 Y20.0 Z5.0 F1200
G01 X1.4 Y-4.0 Z0.0 F1200
G01 A1485.009 F2000
G01 X1.588 Y-4.0 Z0.0 F6000
G01 X1.588 Y20.0 Z5.0 F1200
G01 X1.588 Y-4.0 Z0.0 F1200
G01 X0.244 Y-4.0 Z0.0 F6000
G01 X0.244 Y20.0 Z5.0 F1200
G01 X0.244 Y-4.0 Z0.0 F1200
G01 A1491.439 F2000
G01 X0.199 Y-4.0 Z0.0 F6000
G01 X0.199 Y20.0 Z5.0 F1200
G01 X0.199 Y-4.0 Z0.0 F1200
G01 X1.497 Y-4.0 Z0.0 F6000
G01 X1.497 Y20.0 Z5.0 F1200
G01 X1.497 Y-4.0 Z0.0 F1200
G01 A1497.869 F2000
G01 X1.898 Y-4.0 Z0.0 F6000
G01 X1.898 Y20.0 Z5.0 F1200
G01 X1.898 Y-4.0 Z0.0 F1200
G01 X0.799 Y-4.0 Z0.0 F6000
G01 X0.799 Y20.0 Z5.0 F1200
G01 X0.799 Y-4.0 Z0.0 F1200
G01 A1504.299 F2000
G01 X-0.167 Y-4.0 Z0.0 F6000
G01 X-0.167 Y20.0 Z5.0 F1200
G01 X-0.167 Y-4.0 Z0.0 F1200
G01 X1.083 Y-4.0 Z0.0 F6000
G01 X1.083 Y20.0 Z5.0 F1200
G01 X1.083 Y-4.0 Z0.0 F1200
G01 A1510.728 F2000
G01 X1.585 Y-4.0 Z0.0 F6000
G01 X1.585 Y20.0 Z5.0 F1200
G01 X1.585 Y-4.0 Z0.0 F1200
G01 X0.088 Y-4.0 Z0.0 F6000
G01 X0.088 Y20.0 Z5.0 F1200
G01 X0.088 Y-4.0 Z0.0 F1200
G01 A1517.158 F2000
G01 X0.193 Y-4.0 Z0.0 F6000
G01 X0.193 Y20.0 Z5.0 F1200
G01 X0.193 Y-4.0 Z0.0 F1200
G01 X1.021 Y-4.0 Z0.0 F6000
G01 X1.021 Y20.0 Z5.0 F1200
G01 X1.021 Y-4.0 Z0.0 F1200
G01 A1523.588 F2000
G01 X1.522 Y-4.0 Z0.0 F6000
G01 X1.522 Y20.0 Z5.0 F1200
G01 X1.522 Y-4.0 Z0.0 F1200
G01 X0.737 Y-4.0 Z0.0 F6000
G01 X0.737 Y20.0 Z5.0 F1200
G01 X0.737 Y-4.0 Z0.0 F1200
G01 A1530.018 F2000
G01 X-0.423 Y-4.0 Z0.0 F6000
G01 X-0.423 Y20.0 Z5.0 F1200
G01 X-0.423 Y-4.0 Z0.0 F1200
G01 X0.713 Y-4.0 Z0.0 F6000
G01 X0.713 Y20.0 Z5.0 F1200
G01 X0.713 Y-4.0 Z0.0 F1200
G01 A1536.448 F2000
G01 X1.988 Y-4.0 Z0.0 F6000
G01 X1.988 Y20.0 Z5.0 F1200
G01 X1.988 Y-4.0 Z0.0 F1200
G01 X0.3 Y-4.0 Z0.0 F6000
G01 X0.3 Y20.0 Z5.0 F1200
G01 X0.3 Y-4.0 Z0.0 F1200
G01 A1542.878 F2000
G01 X-0.245 Y-4.0 Z0.0 F6000
G01 X-0.245 Y20.0 Z5.0 F1200
G01 X-0.245 Y-4.0 Z0.0 F1200
G01 X0.572 Y-4.0 Z0.0 F6000
G01 X0.572 Y20.0 Z5.0 F1200
G01 X0.572 Y-4.0 Z0.0 F1200
G01 A1549.308 F2000
G01 X1.312 Y-4.0 Z0.0 F6000
G01 X1.312 Y20.0 Z5.0 F1200
G01 X1.312 Y-4.0 Z0.0 F1200
G01 X0.561 Y-4.0 Z0.0 F6000
G01 X0.561 Y20.0 Z5.0 F1200
G01 X0.561 Y-4.0 Z0.0 F1200
G01 A1555.737 F2000
G01 X-0.461 Y-4.0 Z0.0 F6000
G01 X-0.461 Y20.0 Z5.0 F1200
G01 X-0.461 Y-4.0 Z0.0 F1200
G01 X0.789 Y-4.0 Z0.0 F6000
G01 X0.789 Y20.0 Z5.0 F1200
G01 X0.789 Y-4.0 Z0.0 F1200
G01 A1562.167 F2000
G01 X1.256 Y-4.0 Z0.0 F6000
G01 X1.256 Y20.0 Z5.0 F1200
G01 X1.256 Y-4.0 Z0.0 F1200
G01 X0.154 Y-4.0 Z0.0 F6000
G01 X0.154 Y20.0 Z5.0 F1200
G01 X0.154 Y-4.0 Z0.0 F1200
G01 A1568.597 F2000
G01 X0.292 Y-4.0 Z0.0 F6000
G01 X0.292 Y20.0 Z5.0 F1200
G01 X0.292 Y-4.0 Z0.0 F1200
G01 X1.462 Y-4.0 Z0.0 F6000
G01 X1.462 Y20.0 Z5.0 F1200
G01 X1.462 Y-4.0 Z0.0 F1200
G01 A1575.027 F2000
G01 X1.916 Y-4.0 Z0.0 F6000
G01 X1.916 Y20.0 Z5.0 F1200
G01 X1.916 Y-4.0 Z0.0 F1200
G01 X0.441 Y-4.0 Z0.0 F6000
G01 X0.441 Y20.0 Z5.0 F1200
G01 X0.441 Y-4.0 Z0.0 F1200
G01 A1581.457 F2000
G01 X-0.434 Y-4.0 Z0.0 F6000
G01 X-0.434 Y20.0 Z5.0 F1200
G01 X-0.434 Y-4.0 Z0.0 F1200
G01 X0.849 Y-4.0 Z0.0 F6000
G01 X0.849 Y20.0 Z5.0 F1200
G01 X0.849 Y-4.0 Z0.0 F1200
G01 A1587.887 F2000
G01 X1.525 Y-4.0 Z0.0 F6000
G01 X1.525 Y20.0 Z5.0 F1200
G01 X1.525 Y-4.0 Z0.0 F1200
G01 X0.38 Y-4.0 Z0.0 F6000
G01 X0.38 Y20.0 Z5.0 F1200
G01 X0.38 Y-4.0 Z0.0 F1200
G01 A1594.317 F2000
G01 X0.231 Y-4.0 Z0.0 F6000
G01 X0.231 Y20.0 Z5.0 F1200
G01 X0.231 Y-4.0 Z0.0 F1200
G01 X1.243 Y-4.0 Z0.0 F6000
G01 X1.243 Y20.0 Z5.0 F1200
G01 X1.243 Y-4.0 Z0.0 F1200
G01 A1600.746 F2000
G01 X1.897 Y-4.0 Z0.0 F6000
G01 X1.897 Y20.0 Z5.0 F1200
G01 X1.897 Y-4.0 Z0.0 F1200
G01 X0.469 Y-4.0 Z0.0 F6000
G01 X0.469 Y20.0 Z5.0 F1200
G01 X0.469 Y-4.0 Z0.0 F1200
G01 A1607.176 F2000
G01 X-0.262 Y-4.0 Z0.0 F6000
G01 X-0.262 Y20.0 Z5.0 F1200
G01 X-0.262 Y-4.0 Z0.0 F1200
G01 X1.411 Y-4.0 Z0.0 F6000
G01 X1.411 Y20.0 Z5.0 F1200
G01 X1.411 Y-4.0 Z0.0 F1200
G01 A1613.606 F2000
G01 X1.884 Y-4.0 Z0.0 F6000
G01 X1.884 Y20.0 Z5.0 F1200
G01 X1.884 Y-4.0 Z0.0 F1200
G01 X0.127 Y-4.0 Z0.0 F6000
G01 X0.127 Y20.0 Z5.0 F1200
G01 X0.127 Y-4.0 Z0.0 F1200
G01 A1620.036 F2000
G01 X-0.289 Y-4.0 Z0.0 F6000
G01 X-0.289 Y20.0 Z5.0 F1200
G01 X-0.289 Y-4.0 Z0.0 F1200
G01 X1.16 Y-4.0 Z0.0 F6000
G01 X1.16 Y20.0 Z5.0 F1200
G01 X1.16 Y-4.0 Z0.0 F1200
G01 A1626.466 F2000
G01 X1.821 Y-4.0 Z0.0 F6000
G01 X1.821 Y20.0 Z5.0 F1200
G01 X1.821 Y-4.0 Z0.0 F1200
G01 X0.96 Y-4.0 Z0.0 F6000
G01 X0.96 Y20.0 Z5.0 F1200
G01 X0.96 Y-4.0 Z0.0 F1200
G01 A1632.896 F2000
G01 X-0.479 Y-4.0 Z0.0 F6000
G01 X-0.479 Y20.0 Z5.0 F1200
G01 X-0.479 Y-4.0 Z0.0 F1200
G01 X0.689 Y-4.0 Z0.0 F6000
G01 X0.689 Y20.0 Z5.0 F1200
G01 X0.689 Y-4.0 Z0.0 F1200
G01 A1639.326 F2000
G01 X1.423 Y-4.0 Z0.0 F6000
G01 X1.423 Y20.0 Z5.0 F1200
G01 X1.423 Y-4.0 Z0.0 F1200
G01 X0.551 Y-4.0 Z0.0 F6000
G01 X0.551 Y20.0 Z5.0 F1200
G01 X0.551 Y-4.0 Z0.0 F1200
G01 A1645.756 F2000
G01 X0.278 Y-4.0 Z0.0 F6000
G01 X0.278 Y20.0 Z5.0 F1200
G01 X0.278 Y-4.0 Z0.0 F1200
G01 X1.057 Y-4.0 Z0.0 F6000
G01 X1.057 Y20.0 Z5.0 F1200
G01 X1.057 Y-4.0 Z0.0 F1200
G01 A1652.185 F2000
G01 X1.519 Y-4.0 Z0.0 F6000
G01 X1.519 Y20.0 Z5.0 F1200
G01 X1.519 Y-4.0 Z0.0 F1200
G01 X0.239 Y-4.0 Z0.0 F6000
G01 X0.239 Y20.0 Z5.0 F1200
G01 X0.239 Y-4.0 Z0.0 F1200
G01 A1658.615 F2000
G01 X0.15 Y-4.0 Z0.0 F6000
G01 X0.15 Y20.0 Z5.0 F1200
G01 X0.15 Y-4.0 Z0.0 F1200
G01 X1.082 Y-4.0 Z0.0 F6000
G01 X1.082 Y20.0 Z5.0 F1200
G01 X1.082 Y-4.0 Z0.0 F1200
G01 A1665.045 F2000
G01 X1.946 Y-4.0 Z0.0 F6000
G01 X1.946 Y20.0 Z5.0 F1200
G01 X1.946 Y-4.0 Z0.0 F1200
G01 X0.19 Y-4.0 Z0.0 F6000
G01 X0.19 Y20.0 Z5.0 F1200
G01 X0.19 Y-4.0 Z0.0 F1200
G01 A1671.475 F2000
G01 X-0.375 Y-4.0 Z0.0 F6000
G01 X-0.375 Y20.0 Z5.0 F1200
G01 X-0.375 Y-4.0 Z0.0 F1200
G01 X0.854 Y-4.0 Z0.0 F6000
G01 X0.854 Y20.0 Z5.0 F1200
G01 X0.854 Y-4.0 Z0.0 F1200
G01 A1677.905 F2000
G01 X1.326 Y-4.0 Z0.0 F6000
G01 X1.326 Y20.0 Z5.0 F1200
G01 X1.326 Y-4.0 Z0.0 F1200
G01 X0.453 Y-4.0 Z0.0 F6000
G01 X0.453 Y20.0 Z5.0 F1200
G01 X0.453 Y-4.0 Z0.0 F1200
G01 A1684.335 F2000
G01 X-0.328 Y-4.0 Z0.0 F6000
G01 X-0.328 Y20.0 Z5.0 F1200
G01 X-0.328 Y-4.0 Z0.0 F1200
G01 X1.207 Y-4.0 Z0.0 F6000
G01 X1.207 Y20.0 Z5.0 F1200
G01 X1.207 Y-4.0 Z0.0 F1200
G01 A1690.765 F2000
G01 X1.823 Y-4.0 Z0.0 F6000
G01 X1.823 Y20.0 Z5.0 F1200
G01 X1.823 Y-4.0 Z0.0 F1200
G01 X0.006 Y-4.0 Z0.0 F6000
G01 X0.006 Y20.0 Z5.0 F1200
G01 X0.006 Y-4.0 Z0.0 F1200
G01 A1697.194 F2000
G01 X0.41 Y-4.0 Z0.0 F6000
G01 X0.41 Y20.0 Z5.0 F1200
G01 X0.41 Y-4.0 Z0.0 F1200
G01 X0.591 Y-4.0 Z0.0 F6000
G01 X0.591 Y20.0 Z5.0 F1200
G01 X0.591 Y-4.0 Z0.0 F1200
G01 A1703.624 F2000
G01 X1.306 Y-4.0 Z0.0 F6000
G01 X1.306 Y20.0 Z5.0 F1200
G01 X1.306 Y-4.0 Z0.0 F1200
G01 X0.486 Y-4.0 Z0.0 F6000
G01 X0.486 Y20.0 Z5.0 F1200
G01 X0.486 Y-4.0 Z0.0 F1200
G01 A1710.054 F2000
G01 X-0.076 Y-4.0 Z0.0 F6000
G01 X-0.076 Y20.0 Z5.0 F1200
G01 X-0.076 Y-4.0 Z0.0 F1200
G01 X0.715 Y-4.0 Z0.0 F6000
G01 X0.715 Y20.0 Z5.0 F1200
G01 X0.715 Y-4.0 Z0.0 F1200
G01 A1716.484 F2000
G01 X1.729 Y-4.0 Z0.0 F6000
G01 X1.729 Y20.0 Z5.0 F1200
G01 X1.729 Y-4.0 Z0.0 F1200
G01 X0.839 Y-4.0 Z0.0 F6000
G01 X0.839 Y20.0 Z5.0 F1200
G01 X0.839 Y-4.0 Z0.0 F1200
G01 A1722.914 F2000
G01 X-0.272 Y-4.0 Z0.0 F6000
G01 X-0.272 Y20.0 Z5.0 F1200
G01 X-0.272 Y-4.0 Z0.0 F1200
G01 X0.665 Y-4.0 Z0.0 F6000
G01 X0.665 Y20.0 Z5.0 F1200
G01 X0.665 Y-4.0 Z0.0 F1200
G01 A1729.344 F2000
G01 X1.519 Y-4.0 Z0.0 F6000
G01 X1.519 Y20.0 Z5.0 F1200
G01 X1.519 Y-4.0 Z0.0 F1200
G01 X0.149 Y-4.0 Z0.0 F6000
G01 X0.149 Y20.0 Z5.0 F1200
G01 X0.149 Y-4.0 Z0.0 F1200
G01 A1735.774 F2000
G01 X0.44 Y-4.0 Z0.0 F6000
G01 X0.44 Y20.0 Z5.0 F1200
G01 X0.44 Y-4.0 Z0.0 F1200
G01 X1.351 Y-4.0 Z0.0 F6000
G01 X1.351 Y20.0 Z5.0 F1200
G01 X1.351 Y-4.0 Z0.0 F1200
G01 A1742.203 F2000
G01 X1.835 Y-4.0 Z0.0 F6000
G01 X1.835 Y20.0 Z5.0 F1200
G01 X1.835 Y-4.0 Z0.0 F1200
G01 X0.412 Y-4.0 Z0.0 F6000
G01 X0.412 Y20.0 Z5.0 F1200
G01 X0.412 Y-4.0 Z0.0 F1200
G01 A1748.633 F2000
G01 X0.287 Y-4.0 Z0.0 F6000
G01 X0.287 Y20.0 Z5.0 F1200
G01 X0.287 Y-4.0 Z0.0 F1200
G01 X0.892 Y-4.0 Z0.0 F6000
G01 X0.892 Y20.0 Z5.0 F1200
G01 X0.892 Y-4.0 Z0.0 F1200
G01 A1755.063 F2000
G01 X1.458 Y-4.0 Z0.0 F6000
G01 X1.458 Y20.0 Z5.0 F1200
G01 X1.458 Y-4.0 Z0.0 F1200
G01 X0.106 Y-4.0 Z0.0 F6000
G01 X0.106 Y20.0 Z5.0 F1200
G01 X0.106 Y-4.0 Z0.0 F1200
G01 A1761.493 F2000
G01 X-0.463 Y-4.0 Z0.0 F6000
G01 X-0.463 Y20.0 Z5.0 F1200
G01 X-0.463 Y-4.0 Z0.0 F1200
G01 X1.17 Y-4.0 Z0.0 F6000
G01 X1.17 Y20.0 Z5.0 F1200
G01 X1.17 Y-4.0 Z0.0 F1200
G01 A1767.923 F2000
G01 X1.193 Y-4.0 Z0.0 F6000
G01 X1.193 Y20.0 Z5.0 F1200
G01 X1.193 Y-4.0 Z0.0 F1200
G01 X0.956 Y-4.0 Z0.0 F6000
G01 X0.956 Y20.0 Z5.0 F1200
G01 X0.956 Y-4.0 Z0.0 F1200
G01 A1774.353 F2000
G01 X0.065 Y-4.0 Z0.0 F6000
G01 X0.065 Y20.0 Z5.0 F1200
G01 X0.065 Y-4.0 Z0.0 F1200
G01 X1.076 Y-4.0 Z0.0 F6000
G01 X1.076 Y20.0 Z5.0 F1200
G01 X1.076 Y-4.0 Z0.0 F1200
G01 A1780.783 F2000
G01 X1.895 Y-4.0 Z0.0 F6000
G01 X1.895 Y20.0 Z5.0 F1200
G01 X1.895 Y-4.0 Z0.0 F1200
G01 X0.298 Y-4.0 Z0.0 F6000
G01 X0.298 Y20.0 Z5.0 F1200
G01 X0.298 Y-4.0 Z0.0 F1200
G01 A1787.212 F2000
G01 X-0.489 Y-4.0 Z0.0 F6000
G01 X-0.489 Y20.0 Z5.0 F1200
G01 X-0.489 Y-4.0 Z0.0 F1200
G01 X0.72 Y-4.0 Z0.0 F6000
G01 X0.72 Y20.0 Z5.0 F1200
G01 X0.72 Y-4.0 Z0.0 F1200
G01 A1793.642 F2000
G01 X1.458 Y-4.0 Z0.0 F6000
G01 X1.458 Y20.0 Z5.0 F1200
G01 X1.458 Y-4.0 Z0.0 F1200
G01 X0.152 Y-4.0 Z0.0 F6000
G01 X0.152 Y20.0 Z5.0 F1200
G01 X0.152 Y-4.0 Z0.0 F1200
G01 A1800.0 F2000
G01 X1.781 Y-5.0 Z0.0 F6000
G01 X1.781 Y19.0 Z5.0 F1200
G01 X1.781 Y-5.0 Z0.0 F1200
G01 X3.238 Y-5.0 Z0.0 F6000
G01 X3.238 Y19.0 Z5.0 F1200
G01 X3.238 Y-5.0 Z0.0 F1200
G01 A1805.804 F2000
G01 X3.377 Y-5.0 Z0.0 F6000
G01 X3.377 Y19.0 Z5.0 F1200
G01 X3.377 Y-5.0 Z0.0 F1200
G01 X2.342 Y-5.0 Z0.0 F6000
G01 X2.342 Y19.0 Z5.0 F1200
G01 X2.342 Y-5.0 Z0.0 F1200
G01 A1811.608 F2000
G01 X1.734 Y-5.0 Z0.0 F6000
G01 X1.734 Y19.0 Z5.0 F1200
G01 X1.734 Y-5.0 Z0.0 F1200
G01 X3.032 Y-5.0 Z0.0 F6000
G01 X3.032 Y19.0 Z5.0 F1200
G01 X3.032 Y-5.0 Z0.0 F1200
G01 A1817.412 F2000
G01 X3.995 Y-5.0 Z0.0 F6000
G01 X3.995 Y19.0 Z5.0 F1200
G01 X3.995 Y-5.0 Z0.0 F1200
G01 X2.169 Y-5.0 Z0.0 F6000
G01 X2.169 Y19.0 Z5.0 F1200
G01 X2.169 Y-5.0 Z0.0 F1200
G01 A1823.216 F2000
G01 X2.344 Y-5.0 Z0.0 F6000
G01 X2.344 Y19.0 Z5.0 F1200
G01 X2.344 Y-5.0 Z0.0 F1200
G01 X3.275 Y-5.0 Z0.0 F6000
G01 X3.275 Y19.0 Z5.0 F1200
G01 X3.275 Y-5.0 Z0.0 F1200
G01 A1829.02 F2000
G01 X3.601 Y-5.0 Z0.0 F6000
G01 X3.601 Y19.0 Z5.0 F1200
G01 X3.601 Y-5.0 Z0.0 F1200
G01 X2.543 Y-5.0 Z0.0 F6000
G01 X2.543 Y19.0 Z5.0 F1200
G01 X2.543 Y-5.0 Z0.0 F1200
G01 A1834.824 F2000
G01 X2.02 Y-5.0 Z0.0 F6000
G01 X2.02 Y19.0 Z5.0 F1200
G01 X2.02 Y-5.0 Z0.0 F1200
G01 X2.603 Y-5.0 Z0.0 F6000
G01 X2.603 Y19.0 Z5.0 F1200
G01 X2.603 Y-5.0 Z0.0 F1200
G01 A1840.628 F2000
G01 X3.569 Y-5.0 Z0.0 F6000
G01 X3.569 Y19.0 Z5.0 F1200
G01 X3.569 Y-5.0 Z0.0 F1200
G01 X2.989 Y-5.0 Z0.0 F6000
G01 X2.989 Y19.0 Z5.0 F1200
G01 X2.989 Y-5.0 Z0.0 F1200
G01 A1846.432 F2000
G01 X2.229 Y-5.0 Z0.0 F6000
G01 X2.229 Y19.0 Z5.0 F1200
G01 X2.229 Y-5.0 Z0.0 F1200
G01 X2.967 Y-5.0 Z0.0 F6000
G01 X2.967 Y19.0 Z5.0 F1200
G01 X2.967 Y-5.0 Z0.0 F1200
G01 A1852.237 F2000
G01 X3.443 Y-5.0 Z0.0 F6000
G01 X3.443 Y19.0 Z5.0 F1200
G01 X3.443 Y-5.0 Z0.0 F1200
G01 X2.87 Y-5.0 Z0.0 F6000
G01 X2.87 Y19.0 Z5.0 F1200
G01 X2.87 Y-5.0 Z0.0 F1200
G01 A1858.041 F2000
G01 X1.506 Y-5.0 Z0.0 F6000
G01 X1.506 Y19.0 Z5.0 F1200
G01 X1.506 Y-5.0 Z0.0 F1200
G01 X2.7 Y-5.0 Z0.0 F6000
G01 X2.7 Y19.0 Z5.0 F1200
G01 X2.7 Y-5.0 Z0.0 F1200
G01 A1863.845 F2000
G01 X3.957 Y-5.0 Z0.0 F6000
G01 X3.957 Y19.0 Z5.0 F1200
G01 X3.957 Y-5.0 Z0.0 F1200
G01 X2.654 Y-5.0 Z0.0 F6000
G01 X2.654 Y19.0 Z5.0 F1200
G01 X2.654 Y-5.0 Z0.0 F1200
G01 A1869.649 F2000
G01 X2.328 Y-5.0 Z0.0 F6000
G01 X2.328 Y19.0 Z5.0 F1200
G01 X2.328 Y-5.0 Z0.0 F1200
G01 X3.034 Y-5.0 Z0.0 F6000
G01 X3.034 Y19.0 Z5.0 F1200
G01 X3.034 Y-5.0 Z0.0 F1200
G01 A1875.453 F2000
G01 X3.041 Y-5.0 Z0.0 F6000
G01 X3.041 Y19.0 Z5.0 F1200
G01 X3.041 Y-5.0 Z0.0 F1200
G01 X2.536 Y-5.0 Z0.0 F6000
G01 X2.536 Y19.0 Z5.0 F1200
G01 X2.536 Y-5.0 Z0.0 F1200
G01 A1881.257 F2000
G01 X2.13 Y-5.0 Z0.0 F6000
G01 X2.13 Y19.0 Z5.0 F1200
G01 X2.13 Y-5.0 Z0.0 F1200
G01 X2.588 Y-5.0 Z0.0 F6000
G01 X2.588 Y19.0 Z5.0 F1200
G01 X2.588 Y-5.0 Z0.0 F1200
G01 A1887.061 F2000
G01 X3.481 Y-5.0 Z0.0 F6000
G01 X3.481 Y19.0 Z5.0 F1200
G01 X3.481 Y-5.0 Z0.0 F1200
G01 X2.943 Y-5.0 Z0.0 F6000
G01 X2.943 Y19.0 Z5.0 F1200
G01 X2.943 Y-5.0 Z0.0 F1200
G01 A1892.865 F2000
G01 X1.562 Y-5.0 Z0.0 F6000
G01 X1.562 Y19.0 Z5.0 F1200
G01 X1.562 Y-5.0 Z0.0 F1200
G01 X2.546 Y-5.0 Z0.0 F6000
G01 X2.546 Y19.0 Z5.0 F1200
G01 X2.546 Y-5.0 Z0.0 F1200
G01 A1898.669 F2000
G01 X3.103 Y-5.0 Z0.0 F6000
G01 X3.103 Y19.0 Z5.0 F1200
G01 X3.103 Y-5.0 Z0.0 F1200
G01 X2.682 Y-5.0 Z0.0 F6000
G01 X2.682 Y19.0 Z5.0 F1200
G01 X2.682 Y-5.0 Z0.0 F1200
G01 A1904.473 F2000
G01 X2.393 Y-5.0 Z0.0 F6000
G01 X2.393 Y19.0 Z5.0 F1200
G01 X2.393 Y-5.0 Z0.0 F1200
G01 X2.656 Y-5.0 Z0.0 F6000
G01 X2.656 Y19.0 Z5.0 F1200
G01 X2.656 Y-5.0 Z0.0 F1200
G01 A1910.277 F2000
G01 X3.845 Y-5.0 Z0.0 F6000
G01 X3.845 Y19.0 Z5.0 F1200
G01 X3.845 Y-5.0 Z0.0 F1200
G01 X2.222 Y-5.0 Z0.0 F6000
G01 X2.222 Y19.0 Z5.0 F1200
G01 X2.222 Y-5.0 Z0.0 F1200
G01 A1916.081 F2000
G01 X2.038 Y-5.0 Z0.0 F6000
G01 X2.038 Y19.0 Z5.0 F1200
G01 X2.038 Y-5.0 Z0.0 F1200
G01 X3.264 Y-5.0 Z0.0 F6000
G01 X3.264 Y19.0 Z5.0 F1200
G01 X3.264 Y-5.0 Z0.0 F1200
G01 A1921.885 F2000
G01 X3.118 Y-5.0 Z0.0 F6000
G01 X3.118 Y19.0 Z5.0 F1200
G01 X3.118 Y-5.0 Z0.0 F1200
G01 X2.477 Y-5.0 Z0.0 F6000
G01 X2.477 Y19.0 Z5.0 F1200
G01 X2.477 Y-5.0 Z0.0 F1200
G01 A1927.689 F2000
G01 X2.367 Y-5.0 Z0.0 F6000
G01 X2.367 Y19.0 Z5.0 F1200
G01 X2.367 Y-5.0 Z0.0 F1200
G01 X2.855 Y-5.0 Z0.0 F6000
G01 X2.855 Y19.0 Z5.0 F1200
G01 X2.855 Y-5.0 Z0.0 F1200
G01 A1933.493 F2000
G01 X3.797 Y-5.0 Z0.0 F6000
G01 X3.797 Y19.0 Z5.0 F1200
G01 X3.797 Y-5.0 Z0.0 F1200
G01 X2.454 Y-5.0 Z0.0 F6000
G01 X2.454 Y19.0 Z5.0 F1200
G01 X2.454 Y-5.0 Z0.0 F1200
G01 A1939.297 F2000
G01 X2.443 Y-5.0 Z0.0 F6000
G01 X2.443 Y19.0 Z5.0 F1200
G01 X2.443 Y-5.0 Z0.0 F1200
G01 X2.901 Y-5.0 Z0.0 F6000
G01 X2.901 Y19.0 Z5.0 F1200
G01 X2.901 Y-5.0 Z0.0 F1200
G01 A1945.102 F2000
G01 X3.823 Y-5.0 Z0.0 F6000
G01 X3.823 Y19.0 Z5.0 F1200
G01 X3.823 Y-5.0 Z0.0 F1200
G01 X2.076 Y-5.0 Z0.0 F6000
G01 X2.076 Y19.0 Z5.0 F1200
G01 X2.076 Y-5.0 Z0.0 F1200
G01 A1950.906 F2000
G01 X1.839 Y-5.0 Z0.0 F6000
G01 X1.839 Y19.0 Z5.0 F1200
G01 X1.839 Y-5.0 Z0.0 F1200
G01 X2.646 Y-5.0 Z0.0 F6000
G01 X2.646 Y19.0 Z5.0 F1200
G01 X2.646 Y-5.0 Z0.0 F1200
G01 A1956.71 F2000
G01 X3.404 Y-5.0 Z0.0 F6000
G01 X3.404 Y19.0 Z5.0 F1200
G01 X3.404 Y-5.0 Z0.0 F1200
G01 X2.405 Y-5.0 Z0.0 F6000
G01 X2.405 Y19.0 Z5.0 F1200
G01 X2.405 Y-5.0 Z0.0 F1200
G01 A1962.514 F2000
G01 X1.741 Y-5.0 Z0.0 F6000
G01 X1.741 Y19.0 Z5.0 F1200
G01 X1.741 Y-5.0 Z0.0 F1200
G01 X2.919 Y-5.0 Z0.0 F6000
G01 X2.919 Y19.0 Z5.0 F1200
G01 X2.919 Y-5.0 Z0.0 F1200
G01 A1968.318 F2000
G01 X3.682 Y-5.0 Z0.0 F6000
G01 X3.682 Y19.0 Z5.0 F1200
G01 X3.682 Y-5.0 Z0.0 F1200
G01 X2.578 Y-5.0 Z0.0 F6000
G01 X2.578 Y19.0 Z5.0 F1200
G01 X2.578 Y-5.0 Z0.0 F1200
G01 A1974.122 F2000
G01 X1.743 Y-5.0 Z0.0 F6000
G01 X1.743 Y19.0 Z5.0 F1200
G01 X1.743 Y-5.0 Z0.0 F1200
G01 X3.211 Y-5.0 Z0.0 F6000
G01 X3.211 Y19.0 Z5.0 F1200
G01 X3.211 Y-5.0 Z0.0 F1200
G01 A1979.926 F2000
G01 X3.709 Y-5.0 Z0.0 F6000
G01 X3.709 Y19.0 Z5.0 F1200
G01 X3.709 Y-5.0 Z0.0 F1200
G01 X2.422 Y-5.0 Z0.0 F6000
G01 X2.422 Y19.0 Z5.0 F1200
G01 X2.422 Y-5.0 Z0.0 F1200
G01 A1985.73 F2000
G01 X1.959 Y-5.0 Z0.0 F6000
G01 X1.959 Y19.0 Z5.0 F1200
G01 X1.959 Y-5.0 Z0.0 F1200
G01 X2.673 Y-5.0 Z0.0 F6000
G01 X2.673 Y19.0 Z5.0 F1200
G01 X2.673 Y-5.0 Z0.0 F1200
G01 A1991.534 F2000
G01 X3.835 Y-5.0 Z0.0 F6000
G01 X3.835 Y19.0 Z5.0 F1200
G01 X3.835 Y-5.0 Z0.0 F1200
G01 X2.357 Y-5.0 Z0.0 F6000
G01 X2.357 Y19.0 Z5.0 F1200
G01 X2.357 Y-5.0 Z0.0 F1200
G01 A1997.338 F2000
G01 X1.793 Y-5.0 Z0.0 F6000
G01 X1.793 Y19.0 Z5.0 F1200
G01 X1.793 Y-5.0 Z0.0 F1200
G01 X3.429 Y-5.0 Z0.0 F6000
G01 X3.429 Y19.0 Z5.0 F1200
G01 X3.429 Y-5.0 Z0.0 F1200
G01 A2003.142 F2000
G01 X3.305 Y-5.0 Z0.0 F6000
G01 X3.305 Y19.0 Z5.0 F1200
G01 X3.305 Y-5.0 Z0.0 F1200
G01 X2.198 Y-5.0 Z0.0 F6000
G01 X2.198 Y19.0 Z5.0 F1200
G01 X2.198 Y-5.0 Z0.0 F1200
G01 A2008.946 F2000
G01 X1.882 Y-5.0 Z0.0 F6000
G01 X1.882 Y19.0 Z5.0 F1200
G01 X1.882 Y-5.0 Z0.0 F1200
G01 X3.016 Y-5.0 Z0.0 F6000
G01 X3.016 Y19.0 Z5.0 F1200
G01 X3.016 Y-5.0 Z0.0 F1200
G01 A2014.75 F2000
G01 X3.614 Y-5.0 Z0.0 F6000
G01 X3.614 Y19.0 Z5.0 F1200
G01 X3.614 Y-5.0 Z0.0 F1200
G01 X2.398 Y-5.0 Z0.0 F6000
G01 X2.398 Y19.0 Z5.0 F1200
G01 X2.398 Y-5.0 Z0.0 F1200
G01 A2020.554 F2000
G01 X2.184 Y-5.0 Z0.0 F6000
G01 X2.184 Y19.0 Z5.0 F1200
G01 X2.184 Y-5.0 Z0.0 F1200
G01 X2.523 Y-5.0 Z0.0 F6000
G01 X2.523 Y19.0 Z5.0 F1200
G01 X2.523 Y-5.0 Z0.0 F1200
G01 A2026.358 F2000
G01 X3.927 Y-5.0 Z0.0 F6000
G01 X3.927 Y19.0 Z5.0 F1200
G01 X3.927 Y-5.0 Z0.0 F1200
G01 X2.461 Y-5.0 Z0.0 F6000
G01 X2.461 Y19.0 Z5.0 F1200
G01 X2.461 Y-5.0 Z0.0 F1200
G01 A2032.162 F2000
G01 X1.949 Y-5.0 Z0.0 F6000
G01 X1.949 Y19.0 Z5.0 F1200
G01 X1.949 Y-5.0 Z0.0 F1200
G01 X2.947 Y-5.0 Z0.0 F6000
G01 X2.947 Y19.0 Z5.0 F1200
G01 X2.947 Y-5.0 Z0.0 F1200
G01 A2037.967 F2000
G01 X3.276 Y-5.0 Z0.0 F6000
G01 X3.276 Y19.0 Z5.0 F1200
G01 X3.276 Y-5.0 Z0.0 F1200
G01 X2.815 Y-5.0 Z0.0 F6000
G01 X2.815 Y19.0 Z5.0 F1200
G01 X2.815 Y-5.0 Z0.0 F1200
G01 A2043.771 F2000
G01 X1.953 Y-5.0 Z0.0 F6000
G01 X1.953 Y19.0 Z5.0 F1200
G01 X1.953 Y-5.0 Z0.0 F1200
G01 X2.596 Y-5.0 Z0.0 F6000
G01 X2.596 Y19.0 Z5.0 F1200
G01 X2.596 Y-5.0 Z0.0 F1200
G01 A2049.575 F2000
G01 X3.35 Y-5.0 Z0.0 F6000
G01 X3.35 Y19.0 Z5.0 F1200
G01 X3.35 Y-5.0 Z0.0 F1200
G01 X2.485 Y-5.0 Z0.0 F6000
G01 X2.485 Y19.0 Z5.0 F1200
G01 X2.485 Y-5.0 Z0.0 F1200
G01 A2055.379 F2000
G01 X1.86 Y-5.0 Z0.0 F6000
G01 X1.86 Y19.0 Z5.0 F1200
G01 X1.86 Y-5.0 Z0.0 F1200
G01 X2.603 Y-5.0 Z0.0 F6000
G01 X2.603 Y19.0 Z5.0 F1200
G01 X2.603 Y-5.0 Z0.0 F1200
G01 A2061.183 F2000
G01 X3.889 Y-5.0 Z0.0 F6000
G01 X3.889 Y19.0 Z5.0 F1200
G01 X3.889 Y-5.0 Z0.0 F1200
G01 X2.151 Y-5.0 Z0.0 F6000
G01 X2.151 Y19.0 Z5.0 F1200
G01 X2.151 Y-5.0 Z0.0 F1200
G01 A2066.987 F2000
G01 X2.229 Y-5.0 Z0.0 F6000
G01 X2.229 Y19.0 Z5.0 F1200
G01 X2.229 Y-5.0 Z0.0 F1200
G01 X2.924 Y-5.0 Z0.0 F6000
G01 X2.924 Y19.0 Z5.0 F1200
G01 X2.924 Y-5.0 Z0.0 F1200
G01 A2072.791 F2000
G01 X3.495 Y-5.0 Z0.0 F6000
G01 X3.495 Y19.0 Z5.0 F1200
G01 X3.495 Y-5.0 Z0.0 F1200
G01 X2.677 Y-5.0 Z0.0 F6000
G01 X2.677 Y19.0 Z5.0 F1200
G01 X2.677 Y-5.0 Z0.0 F1200
G01 A2078.595 F2000
G01 X1.517 Y-5.0 Z0.0 F6000
G01 X1.517 Y19.0 Z5.0 F1200
G01 X1.517 Y-5.0 Z0.0 F1200
G01 X2.99 Y-5.0 Z0.0 F6000
G01 X2.99 Y19.0 Z5.0 F1200
G01 X2.99 Y-5.0 Z0.0 F1200
G01 A2084.399 F2000
G01 X3.459 Y-5.0 Z0.0 F6000
G01 X3.459 Y19.0 Z5.0 F1200
G01 X3.459 Y-5.0 Z0.0 F1200
G01 X2.429 Y-5.0 Z0.0 F6000
G01 X2.429 Y19.0 Z5.0 F1200
G01 X2.429 Y-5.0 Z0.0 F1200
G01 A2090.203 F2000
G01 X1.501 Y-5.0 Z0.0 F6000
G01 X1.501 Y19.0 Z5.0 F1200
G01 X1.501 Y-5.0 Z0.0 F1200
G01 X2.511 Y-5.0 Z0.0 F6000
G01 X2.511 Y19.0 Z5.0 F1200
G01 X2.511 Y-5.0 Z0.0 F1200
G01 A2096.007 F2000
G01 X3.49 Y-5.0 Z0.0 F6000
G01 X3.49 Y19.0 Z5.0 F1200
G01 X3.49 Y-5.0 Z0.0 F1200
G01 X2.456 Y-5.0 Z0.0 F6000
G01 X2.456 Y19.0 Z5.0 F1200
G01 X2.456 Y-5.0 Z0.0 F1200
G01 A2101.811 F2000
G01 X1.835 Y-5.0 Z0.0 F6000
G01 X1.835 Y19.0 Z5.0 F1200
G01 X1.835 Y-5.0 Z0.0 F1200
G01 X2.616 Y-5.0 Z0.0 F6000
G01 X2.616 Y19.0 Z5.0 F1200
G01 X2.616 Y-5.0 Z0.0 F1200
G01 A2107.615 F2000
G01 X3.364 Y-5.0 Z0.0 F6000
G01 X3.364 Y19.0 Z5.0 F1200
G01 X3.364 Y-5.0 Z0.0 F1200
G01 X2.673 Y-5.0 Z0.0 F6000
G01 X2.673 Y19.0 Z5.0 F1200
G01 X2.673 Y-5.0 Z0.0 F1200
G01 A2113.419 F2000
G01 X2.32 Y-5.0 Z0.0 F6000
G01 X2.32 Y19.0 Z5.0 F1200
G01 X2.32 Y-5.0 Z0.0 F1200
G01 X3.264 Y-5.0 Z0.0 F6000
G01 X3.264 Y19.0 Z5.0 F1200
G01 X3.264 Y-5.0 Z0.0 F1200
G01 A2119.223 F2000
G01 X3.002 Y-5.0 Z0.0 F6000
G01 X3.002 Y19.0 Z5.0 F1200
G01 X3.002 Y-5.0 Z0.0 F1200
G01 X2.339 Y-5.0 Z0.0 F6000
G01 X2.339 Y19.0 Z5.0 F1200
G01 X2.339 Y-5.0 Z0.0 F1200
G01 A2125.027 F2000
G01 X1.989 Y-5.0 Z0.0 F6000
G01 X1.989 Y19.0 Z5.0 F1200
G01 X1.989 Y-5.0 Z0.0 F1200
G01 X3.314 Y-5.0 Z0.0 F6000
G01 X3.314 Y19.0 Z5.0 F1200
G01 X3.314 Y-5.0 Z0.0 F1200
G01 A2130.832 F2000
G01 X3.565 Y-5.0 Z0.0 F6000
G01 X3.565 Y19.0 Z5.0 F1200
G01 X3.565 Y-5.0 Z0.0 F1200
G01 X2.802 Y-5.0 Z0.0 F6000
G01 X2.802 Y19.0 Z5.0 F1200
G01 X2.802 Y-5.0 Z0.0 F1200
G01 A2136.636 F2000
G01 X2.189 Y-5.0 Z0.0 F6000
G01 X2.189 Y19.0 Z5.0 F1200
G01 X2.189 Y-5.0 Z0.0 F1200
G01 X2.572 Y-5.0 Z0.0 F6000
G01 X2.572 Y19.0 Z5.0 F1200
G01 X2.572 Y-5.0 Z0.0 F1200
G01 A2142.44 F2000
G01 X3.981 Y-5.0 Z0.0 F6000
G01 X3.981 Y19.0 Z5.0 F1200
G01 X3.981 Y-5.0 Z0.0 F1200
G01 X2.558 Y-5.0 Z0.0 F6000
G01 X2.558 Y19.0 Z5.0 F1200
G01 X2.558 Y-5.0 Z0.0 F1200
G01 A2148.244 F2000
G01 X2.104 Y-5.0 Z0.0 F6000
G01 X2.104 Y19.0 Z5.0 F1200
G01 X2.104 Y-5.0 Z0.0 F1200
G01 X2.759 Y-5.0 Z0.0 F6000
G01 X2.759 Y19.0 Z5.0 F1200
G01 X2.759 Y-5.0 Z0.0 F1200
G01 A2154.048 F2000
G01 X3.903 Y-5.0 Z0.0 F6000
G01 X3.903 Y19.0 Z5.0 F1200
G01 X3.903 Y-5.0 Z0.0 F1200
G01 X2.998 Y-5.0 Z0.0 F6000
G01 X2.998 Y19.0 Z5.0 F1200
G01 X2.998 Y-5.0 Z0.0 F1200
G01 A2160.0 F2000
G01 X3.843 Y-6.0 Z0.0 F6000
G01 X3.843 Y18.0 Z5.0 F1200
G01 X3.843 Y-6.0 Z0.0 F1200
G01 X4.989 Y-6.0 Z0.0 F6000
G01 X4.989 Y18.0 Z5.0 F1200
G01 X4.989 Y-6.0 Z0.0 F1200
G01 A2165.141 F2000
G01 X5.063 Y-6.0 Z0.0 F6000
G01 X5.063 Y18.0 Z5.0 F1200
G01 X5.063 Y-6.0 Z0.0 F1200
G01 X4.763 Y-6.0 Z0.0 F6000
G01 X4.763 Y18.0 Z5.0 F1200
G01 X4.763 Y-6.0 Z0.0 F1200
G01 A2170.282 F2000
G01 X4.143 Y-6.0 Z0.0 F6000
G01 X4.143 Y18.0 Z5.0 F1200
G01 X4.143 Y-6.0 Z0.0 F1200
G01 X4.734 Y-6.0 Z0.0 F6000
G01 X4.734 Y18.0 Z5.0 F1200
G01 X4.734 Y-6.0 Z0.0 F1200
G01 A2175.423 F2000
G01 X5.83 Y-6.0 Z0.0 F6000
G01 X5.83 Y18.0 Z5.0 F1200
G01 X5.83 Y-6.0 Z0.0 F1200
G01 X4.547 Y-6.0 Z0.0 F6000
G01 X4.547 Y18.0 Z5.0 F1200
G01 X4.547 Y-6.0 Z0.0 F1200
G01 A2180.564 F2000
G01 X4.429 Y-6.0 Z0.0 F6000
G01 X4.429 Y18.0 Z5.0 F1200
G01 X4.429 Y-6.0 Z0.0 F1200
G01 X5.32 Y-6.0 Z0.0 F6000
G01 X5.32 Y18.0 Z5.0 F1200
G01 X5.32 Y-6.0 Z0.0 F1200
G01 A2185.705 F2000
G01 X5.101 Y-6.0 Z0.0 F6000
G01 X5.101 Y18.0 Z5.0 F1200
G01 X5.101 Y-6.0 Z0.0 F1200
G01 X4.237 Y-6.0 Z0.0 F6000
G01 X4.237 Y18.0 Z5.0 F1200
G01 X4.237 Y-6.0 Z0.0 F1200
G01 A2190.846 F2000
G01 X4.348 Y-6.0 Z0.0 F6000
G01 X4.348 Y18.0 Z5.0 F1200
G01 X4.348 Y-6.0 Z0.0 F1200
G01 X4.532 Y-6.0 Z0.0 F6000
G01 X4.532 Y18.0 Z5.0 F1200
G01 X4.532 Y-6.0 Z0.0 F1200
G01 A2195.987 F2000
G01 X5.13 Y-6.0 Z0.0 F6000
G01 X5.13 Y18.0 Z5.0 F1200
G01 X5.13 Y-6.0 Z0.0 F1200
G01 X4.919 Y-6.0 Z0.0 F6000
G01 X4.919 Y18.0 Z5.0 F1200
G01 X4.919 Y-6.0 Z0.0 F1200
G01 A2201.128 F2000
G01 X4.311 Y-6.0 Z0.0 F6000
G01 X4.311 Y18.0 Z5.0 F1200
G01 X4.311 Y-6.0 Z0.0 F1200
G01 X4.755 Y-6.0 Z0.0 F6000
G01 X4.755 Y18.0 Z5.0 F1200
G01 X4.755 Y-6.0 Z0.0 F1200
G01 A2206.269 F2000
G01 X5.339 Y-6.0 Z0.0 F6000
G01 X5.339 Y18.0 Z5.0 F1200
G01 X5.339 Y-6.0 Z0.0 F1200
G01 X4.038 Y-6.0 Z0.0 F6000
G01 X4.038 Y18.0 Z5.0 F1200
G01 X4.038 Y-6.0 Z0.0 F1200
G01 A2211.41 F2000
G01 X3.627 Y-6.0 Z0.0 F6000
G01 X3.627 Y18.0 Z5.0 F1200
G01 X3.627 Y-6.0 Z0.0 F1200
G01 X4.511 Y-6.0 Z0.0 F6000
G01 X4.511 Y18.0 Z5.0 F1200
G01 X4.511 Y-6.0 Z0.0 F1200
G01 A2216.551 F2000
G01 X5.587 Y-6.0 Z0.0 F6000
G01 X5.587 Y18.0 Z5.0 F1200
G01 X5.587 Y-6.0 Z0.0 F1200
G01 X4.611 Y-6.0 Z0.0 F6000
G01 X4.611 Y18.0 Z5.0 F1200
G01 X4.611 Y-6.0 Z0.0 F1200
G01 A2221.692 F2000
G01 X3.644 Y-6.0 Z0.0 F6000
G01 X3.644 Y18.0 Z5.0 F1200
G01 X3.644 Y-6.0 Z0.0 F1200
G01 X5.333 Y-6.0 Z0.0 F6000
G01 X5.333 Y18.0 Z5.0 F1200
G01 X5.333 Y-6.0 Z0.0 F1200
G01 A2226.833 F2000
G01 X5.487 Y-6.0 Z0.0 F6000
G01 X5.487 Y18.0 Z5.0 F1200
G01 X5.487 Y-6.0 Z0.0 F1200
G01 X4.599 Y-6.0 Z0.0 F6000
G01 X4.599 Y18.0 Z5.0 F1200
G01 X4.599 Y-6.0 Z0.0 F1200
G01 A2231.974 F2000
G01 X4.162 Y-6.0 Z0.0 F6000
G01 X4.162 Y18.0 Z5.0 F1200
G01 X4.162 Y-6.0 Z0.0 F1200
G01 X4.705 Y-6.0 Z0.0 F6000
G01 X4.705 Y18.0 Z5.0 F1200
G01 X4.705 Y-6.0 Z0.0 F1200
G01 A2237.115 F2000
G01 X5.804 Y-6.0 Z0.0 F6000
G01 X5.804 Y18.0 Z5.0 F1200
G01 X5.804 Y-6.0 Z0.0 F1200
G01 X4.411 Y-6.0 Z0.0 F6000
G01 X4.411 Y18.0 Z5.0 F1200
G01 X4.411 Y-6.0 Z0.0 F1200
G01 A2242.256 F2000
G01 X3.998 Y-6.0 Z0.0 F6000
G01 X3.998 Y18.0 Z5.0 F1200
G01 X3.998 Y-6.0 Z0.0 F1200
G01 X4.626 Y-6.0 Z0.0 F6000
G01 X4.626 Y18.0 Z5.0 F1200
G01 X4.626 Y-6.0 Z0.0 F1200
G01 A2247.397 F2000
G01 X5.255 Y-6.0 Z0.0 F6000
G01 X5.255 Y18.0 Z5.0 F1200
G01 X5.255 Y-6.0 Z0.0 F1200
G01 X4.455 Y-6.0 Z0.0 F6000
G01 X4.455 Y18.0 Z5.0 F1200
G01 X4.455 Y-6.0 Z0.0 F1200
G01 A2252.538 F2000
G01 X4.224 Y-6.0 Z0.0 F6000
G01 X4.224 Y18.0 Z5.0 F1200
G01 X4.224 Y-6.0 Z0.0 F1200
G01 X4.958 Y-6.0 Z0.0 F6000
G01 X4.958 Y18.0 Z5.0 F1200
G01 X4.958 Y-6.0 Z0.0 F1200
G01 A2257.679 F2000
G01 X5.56 Y-6.0 Z0.0 F6000
G01 X5.56 Y18.0 Z5.0 F1200
G01 X5.56 Y-6.0 Z0.0 F1200
G01 X4.757 Y-6.0 Z0.0 F6000
G01 X4.757 Y18.0 Z5.0 F1200
G01 X4.757 Y-6.0 Z0.0 F1200
G01 A2262.82 F2000
G01 X3.903 Y-6.0 Z0.0 F6000
G01 X3.903 Y18.0 Z5.0 F1200
G01 X3.903 Y-6.0 Z0.0 F1200
G01 X4.516 Y-6.0 Z0.0 F6000
G01 X4.516 Y18.0 Z5.0 F1200
G01 X4.516 Y-6.0 Z0.0 F1200
G01 A2267.961 F2000
G01 X5.562 Y-6.0 Z0.0 F6000
G01 X5.562 Y18.0 Z5.0 F1200
G01 X5.562 Y-6.0 Z0.0 F1200
G01 X4.944 Y-6.0 Z0.0 F6000
G01 X4.944 Y18.0 Z5.0 F1200
G01 X4.944 Y-6.0 Z0.0 F1200
G01 A2273.102 F2000
G01 X3.538 Y-6.0 Z0.0 F6000
G01 X3.538 Y18.0 Z5.0 F1200
G01 X3.538 Y-6.0 Z0.0 F1200
G01 X4.963 Y-6.0 Z0.0 F6000
G01 X4.963 Y18.0 Z5.0 F1200
G01 X4.963 Y-6.0 Z0.0 F1200
G01 A2278.243 F2000
G01 X5.654 Y-6.0 Z0.0 F6000
G01 X5.654 Y18.0 Z5.0 F1200
G01 X5.654 Y-6.0 Z0.0 F1200
G01 X4.489 Y-6.0 Z0.0 F6000
G01 X4.489 Y18.0 Z5.0 F1200
G01 X4.489 Y-6.0 Z0.0 F1200
G01 A2283.384 F2000
G01 X3.603 Y-6.0 Z0.0 F6000
G01 X3.603 Y18.0 Z5.0 F1200
G01 X3.603 Y-6.0 Z0.0 F1200
G01 X5.014 Y-6.0 Z0.0 F6000
G01 X5.014 Y18.0 Z5.0 F1200
G01 X5.014 Y-6.0 Z0.0 F1200
G01 A2288.525 F2000
G01 X5.08 Y-6.0 Z0.0 F6000
G01 X5.08 Y18.0 Z5.0 F1200
G01 X5.08 Y-6.0 Z0.0 F1200
G01 X4.07 Y-6.0 Z0.0 F6000
G01 X4.07 Y18.0 Z5.0 F1200
G01 X4.07 Y-6.0 Z0.0 F1200
G01 A2293.666 F2000
G01 X3.838 Y-6.0 Z0.0 F6000
G01 X3.838 Y18.0 Z5.0 F1200
G01 X3.838 Y-6.0 Z0.0 F1200
G01 X4.677 Y-6.0 Z0.0 F6000
G01 X4.677 Y18.0 Z5.0 F1200
G01 X4.677 Y-6.0 Z0.0 F1200
G01 A2298.807 F2000
G01 X5.504 Y-6.0 Z0.0 F6000
G01 X5.504 Y18.0 Z5.0 F1200
G01 X5.504 Y-6.0 Z0.0 F1200
G01 X4.945 Y-6.0 Z0.0 F6000
G01 X4.945 Y18.0 Z5.0 F1200
G01 X4.945 Y-6.0 Z0.0 F1200
G01 A2303.948 F2000
G01 X3.715 Y-6.0 Z0.0 F6000
G01 X3.715 Y18.0 Z5.0 F1200
G01 X3.715 Y-6.0 Z0.0 F1200
G01 X5.489 Y-6.0 Z0.0 F6000
G01 X5.489 Y18.0 Z5.0 F1200
G01 X5.489 Y-6.0 Z0.0 F1200
G01 A2309.089 F2000
G01 X5.349 Y-6.0 Z0.0 F6000
G01 X5.349 Y18.0 Z5.0 F1200
G01 X5.349 Y-6.0 Z0.0 F1200
G01 X4.836 Y-6.0 Z0.0 F6000
G01 X4.836 Y18.0 Z5.0 F1200
G01 X4.836 Y-6.0 Z0.0 F1200
G01 A2314.23 F2000
G01 X4.023 Y-6.0 Z0.0 F6000
G01 X4.023 Y18.0 Z5.0 F1200
G01 X4.023 Y-6.0 Z0.0 F1200
G01 X5.281 Y-6.0 Z0.0 F6000
G01 X5.281 Y18.0 Z5.0 F1200
G01 X5.281 Y-6.0 Z0.0 F1200
G01 A2319.371 F2000
G01 X5.865 Y-6.0 Z0.0 F6000
G01 X5.865 Y18.0 Z5.0 F1200
G01 X5.865 Y-6.0 Z0.0 F1200
G01 X4.842 Y-6.0 Z0.0 F6000
G01 X4.842 Y18.0 Z5.0 F1200
G01 X4.842 Y-6.0 Z0.0 F1200
G01 A2324.512 F2000
G01 X3.648 Y-6.0 Z0.0 F6000
G01 X3.648 Y18.0 Z5.0 F1200
G01 X3.648 Y-6.0 Z0.0 F1200
G01 X5.391 Y-6.0 Z0.0 F6000
G01 X5.391 Y18.0 Z5.0 F1200
G01 X5.391 Y-6.0 Z0.0 F1200
G01 A2329.653 F2000
G01 X5.12 Y-6.0 Z0.0 F6000
G01 X5.12 Y18.0 Z5.0 F1200
G01 X5.12 Y-6.0 Z0.0 F1200
G01 X4.734 Y-6.0 Z0.0 F6000
G01 X4.734 Y18.0 Z5.0 F1200
G01 X4.734 Y-6.0 Z0.0 F1200
G01 A2334.794 F2000
G01 X3.546 Y-6.0 Z0.0 F6000
G01 X3.546 Y18.0 Z5.0 F1200
G01 X3.546 Y-6.0 Z0.0 F1200
G01 X4.8 Y-6.0 Z0.0 F6000
G01 X4.8 Y18.0 Z5.0 F1200
G01 X4.8 Y-6.0 Z0.0 F1200
G01 A2339.935 F2000
G01 X5.132 Y-6.0 Z0.0 F6000
G01 X5.132 Y18.0 Z5.0 F1200
G01 X5.132 Y-6.0 Z0.0 F1200
G01 X4.622 Y-6.0 Z0.0 F6000
G01 X4.622 Y18.0 Z5.0 F1200
G01 X4.622 Y-6.0 Z0.0 F1200
G01 A2345.076 F2000
G01 X3.815 Y-6.0 Z0.0 F6000
G01 X3.815 Y18.0 Z5.0 F1200
G01 X3.815 Y-6.0 Z0.0 F1200
G01 X5.066 Y-6.0 Z0.0 F6000
G01 X5.066 Y18.0 Z5.0 F1200
G01 X5.066 Y-6.0 Z0.0 F1200
G01 A2350.217 F2000
G01 X5.218 Y-6.0 Z0.0 F6000
G01 X5.218 Y18.0 Z5.0 F1200
G01 X5.218 Y-6.0 Z0.0 F1200
G01 X4.399 Y-6.0 Z0.0 F6000
G01 X4.399 Y18.0 Z5.0 F1200
G01 X4.399 Y-6.0 Z0.0 F1200
G01 A2355.358 F2000
G01 X4.401 Y-6.0 Z0.0 F6000
G01 X4.401 Y18.0 Z5.0 F1200
G01 X4.401 Y-6.0 Z0.0 F1200
G01 X5.097 Y-6.0 Z0.0 F6000
G01 X5.097 Y18.0 Z5.0 F1200
G01 X5.097 Y-6.0 Z0.0 F1200
G01 A2360.499 F2000
G01 X5.487 Y-6.0 Z0.0 F6000
G01 X5.487 Y18.0 Z5.0 F1200
G01 X5.487 Y-6.0 Z0.0 F1200
G01 X4.726 Y-6.0 Z0.0 F6000
G01 X4.726 Y18.0 Z5.0 F1200
G01 X4.726 Y-6.0 Z0.0 F1200
G01 A2365.64 F2000
G01 X4.493 Y-6.0 Z0.0 F6000
G01 X4.493 Y18.0 Z5.0 F1200
G01 X4.493 Y-6.0 Z0.0 F1200
G01 X4.834 Y-6.0 Z0.0 F6000
G01 X4.834 Y18.0 Z5.0 F1200
G01 X4.834 Y-6.0 Z0.0 F1200
G01 A2370.781 F2000
G01 X5.11 Y-6.0 Z0.0 F6000
G01 X5.11 Y18.0 Z5.0 F1200
G01 X5.11 Y-6.0 Z0.0 F1200
G01 X4.241 Y-6.0 Z0.0 F6000
G01 X4.241 Y18.0 Z5.0 F1200
G01 X4.241 Y-6.0 Z0.0 F1200
G01 A2375.922 F2000
G01 X3.656 Y-6.0 Z0.0 F6000
G01 X3.656 Y18.0 Z5.0 F1200
G01 X3.656 Y-6.0 Z0.0 F1200
G01 X4.905 Y-6.0 Z0.0 F6000
G01 X4.905 Y18.0 Z5.0 F1200
G01 X4.905 Y-6.0 Z0.0 F1200
G01 A2381.063 F2000
G01 X5.742 Y-6.0 Z0.0 F6000
G01 X5.742 Y18.0 Z5.0 F1200
G01 X5.742 Y-6.0 Z0.0 F1200
G01 X4.766 Y-6.0 Z0.0 F6000
G01 X4.766 Y18.0 Z5.0 F1200
G01 X4.766 Y-6.0 Z0.0 F1200
G01 A2386.204 F2000
G01 X3.608 Y-6.0 Z0.0 F6000
G01 X3.608 Y18.0 Z5.0 F1200
G01 X3.608 Y-6.0 Z0.0 F1200
G01 X4.662 Y-6.0 Z0.0 F6000
G01 X4.662 Y18.0 Z5.0 F1200
G01 X4.662 Y-6.0 Z0.0 F1200
G01 A2391.345 F2000
G01 X5.36 Y-6.0 Z0.0 F6000
G01 X5.36 Y18.0 Z5.0 F1200
G01 X5.36 Y-6.0 Z0.0 F1200
G01 X4.844 Y-6.0 Z0.0 F6000
G01 X4.844 Y18.0 Z5.0 F1200
G01 X4.844 Y-6.0 Z0.0 F1200
G01 A2396.486 F2000
G01 X3.984 Y-6.0 Z0.0 F6000
G01 X3.984 Y18.0 Z5.0 F1200
G01 X3.984 Y-6.0 Z0.0 F1200
G01 X5.039 Y-6.0 Z0.0 F6000
G01 X5.039 Y18.0 Z5.0 F1200
G01 X5.039 Y-6.0 Z0.0 F1200
G01 A2401.627 F2000
G01 X5.291 Y-6.0 Z0.0 F6000
G01 X5.291 Y18.0 Z5.0 F1200
G01 X5.291 Y-6.0 Z0.0 F1200
G01 X4.55 Y-6.0 Z0.0 F6000
G01 X4.55 Y18.0 Z5.0 F1200
G01 X4.55 Y-6.0 Z0.0 F1200
G01 A2406.768 F2000
G01 X4.105 Y-6.0 Z0.0 F6000
G01 X4.105 Y18.0 Z5.0 F1200
G01 X4.105 Y-6.0 Z0.0 F1200
G01 X4.836 Y-6.0 Z0.0 F6000
G01 X4.836 Y18.0 Z5.0 F1200
G01 X4.836 Y-6.0 Z0.0 F1200
G01 A2411.909 F2000
G01 X5.602 Y-6.0 Z0.0 F6000
G01 X5.602 Y18.0 Z5.0 F1200
G01 X5.602 Y-6.0 Z0.0 F1200
G01 X4.754 Y-6.0 Z0.0 F6000
G01 X4.754 Y18.0 Z5.0 F1200
G01 X4.754 Y-6.0 Z0.0 F1200
G01 A2417.05 F2000
G01 X3.854 Y-6.0 Z0.0 F6000
G01 X3.854 Y18.0 Z5.0 F1200
G01 X3.854 Y-6.0 Z0.0 F1200
G01 X4.956 Y-6.0 Z0.0 F6000
G01 X4.956 Y18.0 Z5.0 F1200
G01 X4.956 Y-6.0 Z0.0 F1200
G01 A2422.191 F2000
G01 X5.13 Y-6.0 Z0.0 F6000
G01 X5.13 Y18.0 Z5.0 F1200
G01 X5.13 Y-6.0 Z0.0 F1200
G01 X4.259 Y-6.0 Z0.0 F6000
G01 X4.259 Y18.0 Z5.0 F1200
G01 X4.259 Y-6.0 Z0.0 F1200
G01 A2427.332 F2000
G01 X3.541 Y-6.0 Z0.0 F6000
G01 X3.541 Y18.0 Z5.0 F1200
G01 X3.541 Y-6.0 Z0.0 F1200
G01 X4.556 Y-6.0 Z0.0 F6000
G01 X4.556 Y18.0 Z5.0 F1200
G01 X4.556 Y-6.0 Z0.0 F1200
G01 A2432.473 F2000
G01 X5.084 Y-6.0 Z0.0 F6000
G01 X5.084 Y18.0 Z5.0 F1200
G01 X5.084 Y-6.0 Z0.0 F1200
G01 X4.898 Y-6.0 Z0.0 F6000
G01 X4.898 Y18.0 Z5.0 F1200
G01 X4.898 Y-6.0 Z0.0 F1200
G01 A2437.614 F2000
G01 X4.232 Y-6.0 Z0.0 F6000
G01 X4.232 Y18.0 Z5.0 F1200
G01 X4.232 Y-6.0 Z0.0 F1200
G01 X5.085 Y-6.0 Z0.0 F6000
G01 X5.085 Y18.0 Z5.0 F1200
G01 X5.085 Y-6.0 Z0.0 F1200
G01 A2442.755 F2000
G01 X5.798 Y-6.0 Z0.0 F6000
G01 X5.798 Y18.0 Z5.0 F1200
G01 X5.798 Y-6.0 Z0.0 F1200
G01 X4.176 Y-6.0 Z0.0 F6000
G01 X4.176 Y18.0 Z5.0 F1200
G01 X4.176 Y-6.0 Z0.0 F1200
G01 A2447.896 F2000
G01 X3.852 Y-6.0 Z0.0 F6000
G01 X3.852 Y18.0 Z5.0 F1200
G01 X3.852 Y-6.0 Z0.0 F1200
G01 X5.082 Y-6.0 Z0.0 F6000
G01 X5.082 Y18.0 Z5.0 F1200
G01 X5.082 Y-6.0 Z0.0 F1200
G01 A2453.037 F2000
G01 X5.855 Y-6.0 Z0.0 F6000
G01 X5.855 Y18.0 Z5.0 F1200
G01 X5.855 Y-6.0 Z0.0 F1200
G01 X4.54 Y-6.0 Z0.0 F6000
G01 X4.54 Y18.0 Z5.0 F1200
G01 X4.54 Y-6.0 Z0.0 F1200
G01 A2458.178 F2000
G01 X3.626 Y-6.0 Z0.0 F6000
G01 X3.626 Y18.0 Z5.0 F1200
G01 X3.626 Y-6.0 Z0.0 F1200
G01 X4.544 Y-6.0 Z0.0 F6000
G01 X4.544 Y18.0 Z5.0 F1200
G01 X4.544 Y-6.0 Z0.0 F1200
G01 A2463.319 F2000
G01 X5.035 Y-6.0 Z0.0 F6000
G01 X5.035 Y18.0 Z5.0 F1200
G01 X5.035 Y-6.0 Z0.0 F1200
G01 X4.756 Y-6.0 Z0.0 F6000
G01 X4.756 Y18.0 Z5.0 F1200
G01 X4.756 Y-6.0 Z0.0 F1200
G01 A2468.46 F2000
G01 X4.394 Y-6.0 Z0.0 F6000
G01 X4.394 Y18.0 Z5.0 F1200
G01 X4.394 Y-6.0 Z0.0 F1200
G01 X4.645 Y-6.0 Z0.0 F6000
G01 X4.645 Y18.0 Z5.0 F1200
G01 X4.645 Y-6.0 Z0.0 F1200
G01 A2473.601 F2000
G01 X5.81 Y-6.0 Z0.0 F6000
G01 X5.81 Y18.0 Z5.0 F1200
G01 X5.81 Y-6.0 Z0.0 F1200
G01 X4.042 Y-6.0 Z0.0 F6000
G01 X4.042 Y18.0 Z5.0 F1200
G01 X4.042 Y-6.0 Z0.0 F1200
G01 A2478.742 F2000
G01 X4.335 Y-6.0 Z0.0 F6000
G01 X4.335 Y18.0 Z5.0 F1200
G01 X4.335 Y-6.0 Z0.0 F1200
G01 X5.202 Y-6.0 Z0.0 F6000
G01 X5.202 Y18.0 Z5.0 F1200
G01 X5.202 Y-6.0 Z0.0 F1200
G01 A2483.883 F2000
G01 X5.473 Y-6.0 Z0.0 F6000
G01 X5.473 Y18.0 Z5.0 F1200
G01 X5.473 Y-6.0 Z0.0 F1200
G01 X4.477 Y-6.0 Z0.0 F6000
G01 X4.477 Y18.0 Z5.0 F1200
G01 X4.477 Y-6.0 Z0.0 F1200
G01 A2489.024 F2000
G01 X3.719 Y-6.0 Z0.0 F6000
G01 X3.719 Y18.0 Z5.0 F1200
G01 X3.719 Y-6.0 Z0.0 F1200
G01 X5.431 Y-6.0 Z0.0 F6000
G01 X5.431 Y18.0 Z5.0 F1200
G01 X5.431 Y-6.0 Z0.0 F1200
G01 A2494.165 F2000
G01 X5.272 Y-6.0 Z0.0 F6000
G01 X5.272 Y18.0 Z5.0 F1200
G01 X5.272 Y-6.0 Z0.0 F1200
G01 X4.265 Y-6.0 Z0.0 F6000
G01 X4.265 Y18.0 Z5.0 F1200
G01 X4.265 Y-6.0 Z0.0 F1200
G01 A2499.306 F2000
G01 X4.271 Y-6.0 Z0.0 F6000
G01 X4.271 Y18.0 Z5.0 F1200
G01 X4.271 Y-6.0 Z0.0 F1200
G01 X5.077 Y-6.0 Z0.0 F6000
G01 X5.077 Y18.0 Z5.0 F1200
G01 X5.077 Y-6.0 Z0.0 F1200
G01 A2504.447 F2000
G01 X5.517 Y-6.0 Z0.0 F6000
G01 X5.517 Y18.0 Z5.0 F1200
G01 X5.517 Y-6.0 Z0.0 F1200
G01 X4.571 Y-6.0 Z0.0 F6000
G01 X4.571 Y18.0 Z5.0 F1200
G01 X4.571 Y-6.0 Z0.0 F1200
G01 A2509.588 F2000
G01 X3.61 Y-6.0 Z0.0 F6000
G01 X3.61 Y18.0 Z5.0 F1200
G01 X3.61 Y-6.0 Z0.0 F1200
G01 X4.609 Y-6.0 Z0.0 F6000
G01 X4.609 Y18.0 Z5.0 F1200
G01 X4.609 Y-6.0 Z0.0 F1200
G01 A2514.729 F2000
G01 X5.979 Y-6.0 Z0.0 F6000
G01 X5.979 Y18.0 Z5.0 F1200
G01 X5.979 Y-6.0 Z0.0 F1200
G01 X4.703 Y-6.0 Z0.0 F6000
G01 X4.703 Y18.0 Z5.0 F1200
G01 X4.703 Y-6.0 Z0.0 F1200
G01 A2520.0 F2000
G01 X6.115 Y-7.0 Z0.0 F6000
G01 X6.115 Y17.0 Z5.0 F1200
G01 X6.115 Y-7.0 Z0.0 F1200
G01 X7.061 Y-7.0 Z0.0 F6000
G01 X7.061 Y17.0 Z5.0 F1200
G01 X7.061 Y-7.0 Z0.0 F1200
G01 A2524.736 F2000
G01 X7.235 Y-7.0 Z0.0 F6000
G01 X7.235 Y17.0 Z5.0 F1200
G01 X7.235 Y-7.0 Z0.0 F1200
G01 X6.157 Y-7.0 Z0.0 F6000
G01 X6.157 Y17.0 Z5.0 F1200
G01 X6.157 Y-7.0 Z0.0 F1200
G01 A2529.473 F2000
G01 X6.084 Y-7.0 Z0.0 F6000
G01 X6.084 Y17.0 Z5.0 F1200
G01 X6.084 Y-7.0 Z0.0 F1200
G01 X6.51 Y-7.0 Z0.0 F6000
G01 X6.51 Y17.0 Z5.0 F1200
G01 X6.51 Y-7.0 Z0.0 F1200
G01 A2534.209 F2000
G01 X7.028 Y-7.0 Z0.0 F6000
G01 X7.028 Y17.0 Z5.0 F1200
G01 X7.028 Y-7.0 Z0.0 F1200
G01 X6.343 Y-7.0 Z0.0 F6000
G01 X6.343 Y17.0 Z5.0 F1200
G01 X6.343 Y-7.0 Z0.0 F1200
G01 A2538.946 F2000
G01 X6.086 Y-7.0 Z0.0 F6000
G01 X6.086 Y17.0 Z5.0 F1200
G01 X6.086 Y-7.0 Z0.0 F1200
G01 X7.43 Y-7.0 Z0.0 F6000
G01 X7.43 Y17.0 Z5.0 F1200
G01 X7.43 Y-7.0 Z0.0 F1200
G01 A2543.682 F2000
G01 X7.453 Y-7.0 Z0.0 F6000
G01 X7.453 Y17.0 Z5.0 F1200
G01 X7.453 Y-7.0 Z0.0 F1200
G01 X6.306 Y-7.0 Z0.0 F6000
G01 X6.306 Y17.0 Z5.0 F1200
G01 X6.306 Y-7.0 Z0.0 F1200
G01 A2548.419 F2000
G01 X6.455 Y-7.0 Z0.0 F6000
G01 X6.455 Y17.0 Z5.0 F1200
G01 X6.455 Y-7.0 Z0.0 F1200
G01 X6.797 Y-7.0 Z0.0 F6000
G01 X6.797 Y17.0 Z5.0 F1200
G01 X6.797 Y-7.0 Z0.0 F1200
G01 A2553.155 F2000
G01 X7.481 Y-7.0 Z0.0 F6000
G01 X7.481 Y17.0 Z5.0 F1200
G01 X7.481 Y-7.0 Z0.0 F1200
G01 X6.477 Y-7.0 Z0.0 F6000
G01 X6.477 Y17.0 Z5.0 F1200
G01 X6.477 Y-7.0 Z0.0 F1200
G01 A2557.892 F2000
G01 X5.544 Y-7.0 Z0.0 F6000
G01 X5.544 Y17.0 Z5.0 F1200
G01 X5.544 Y-7.0 Z0.0 F1200
G01 X6.606 Y-7.0 Z0.0 F6000
G01 X6.606 Y17.0 Z5.0 F1200
G01 X6.606 Y-7.0 Z0.0 F1200
G01 A2562.628 F2000
G01 X7.008 Y-7.0 Z0.0 F6000
G01 X7.008 Y17.0 Z5.0 F1200
G01 X7.008 Y-7.0 Z0.0 F1200
G01 X6.794 Y-7.0 Z0.0 F6000
G01 X6.794 Y17.0 Z5.0 F1200
G01 X6.794 Y-7.0 Z0.0 F1200
G01 A2567.365 F2000
G01 X5.88 Y-7.0 Z0.0 F6000
G01 X5.88 Y17.0 Z5.0 F1200
G01 X5.88 Y-7.0 Z0.0 F1200
G01 X7.181 Y-7.0 Z0.0 F6000
G01 X7.181 Y17.0 Z5.0 F1200
G01 X7.181 Y-7.0 Z0.0 F1200
G01 A2572.101 F2000
G01 X7.446 Y-7.0 Z0.0 F6000
G01 X7.446 Y17.0 Z5.0 F1200
G01 X7.446 Y-7.0 Z0.0 F1200
G01 X6.495 Y-7.0 Z0.0 F6000
G01 X6.495 Y17.0 Z5.0 F1200
G01 X6.495 Y-7.0 Z0.0 F1200
G01 A2576.837 F2000
G01 X6.364 Y-7.0 Z0.0 F6000
G01 X6.364 Y17.0 Z5.0 F1200
G01 X6.364 Y-7.0 Z0.0 F1200
G01 X6.894 Y-7.0 Z0.0 F6000
G01 X6.894 Y17.0 Z5.0 F1200
G01 X6.894 Y-7.0 Z0.0 F1200
G01 A2581.574 F2000
G01 X7.102 Y-7.0 Z0.0 F6000
G01 X7.102 Y17.0 Z5.0 F1200
G01 X7.102 Y-7.0 Z0.0 F1200
G01 X6.669 Y-7.0 Z0.0 F6000
G01 X6.669 Y17.0 Z5.0 F1200
G01 X6.669 Y-7.0 Z0.0 F1200
G01 A2586.31 F2000
G01 X5.53 Y-7.0 Z0.0 F6000
G01 X5.53 Y17.0 Z5.0 F1200
G01 X5.53 Y-7.0 Z0.0 F1200
G01 X7.016 Y-7.0 Z0.0 F6000
G01 X7.016 Y17.0 Z5.0 F1200
G01 X7.016 Y-7.0 Z0.0 F1200
G01 A2591.047 F2000
G01 X7.369 Y-7.0 Z0.0 F6000
G01 X7.369 Y17.0 Z5.0 F1200
G01 X7.369 Y-7.0 Z0.0 F1200
G01 X6.427 Y-7.0 Z0.0 F6000
G01 X6.427 Y17.0 Z5.0 F1200
G01 X6.427 Y-7.0 Z0.0 F1200
G01 A2595.783 F2000
G01 X6.228 Y-7.0 Z0.0 F6000
G01 X6.228 Y17.0 Z5.0 F1200
G01 X6.228 Y-7.0 Z0.0 F1200
G01 X7.339 Y-7.0 Z0.0 F6000
G01 X7.339 Y17.0 Z5.0 F1200
G01 X7.339 Y-7.0 Z0.0 F1200
G01 A2600.52 F2000
G01 X7.963 Y-7.0 Z0.0 F6000
G01 X7.963 Y17.0 Z5.0 F1200
G01 X7.963 Y-7.0 Z0.0 F1200
G01 X6.78 Y-7.0 Z0.0 F6000
G01 X6.78 Y17.0 Z5.0 F1200
G01 X6.78 Y-7.0 Z0.0 F1200
G01 A2605.256 F2000
G01 X6.32 Y-7.0 Z0.0 F6000
G01 X6.32 Y17.0 Z5.0 F1200
G01 X6.32 Y-7.0 Z0.0 F1200
G01 X7.437 Y-7.0 Z0.0 F6000
G01 X7.437 Y17.0 Z5.0 F1200
G01 X7.437 Y-7.0 Z0.0 F1200
G01 A2609.993 F2000
G01 X7.385 Y-7.0 Z0.0 F6000
G01 X7.385 Y17.0 Z5.0 F1200
G01 X7.385 Y-7.0 Z0.0 F1200
G01 X6.343 Y-7.0 Z0.0 F6000
G01 X6.343 Y17.0 Z5.0 F1200
G01 X6.343 Y-7.0 Z0.0 F1200
G01 A2614.729 F2000
G01 X5.528 Y-7.0 Z0.0 F6000
G01 X5.528 Y17.0 Z5.0 F1200
G01 X5.528 Y-7.0 Z0.0 F1200
G01 X6.954 Y-7.0 Z0.0 F6000
G01 X6.954 Y17.0 Z5.0 F1200
G01 X6.954 Y-7.0 Z0.0 F1200
G01 A2619.465 F2000
G01 X7.057 Y-7.0 Z0.0 F6000
G01 X7.057 Y17.0 Z5.0 F1200
G01 X7.057 Y-7.0 Z0.0 F1200
G01 X6.214 Y-7.0 Z0.0 F6000
G01 X6.214 Y17.0 Z5.0 F1200
G01 X6.214 Y-7.0 Z0.0 F1200
G01 A2624.202 F2000
G01 X5.913 Y-7.0 Z0.0 F6000
G01 X5.913 Y17.0 Z5.0 F1200
G01 X5.913 Y-7.0 Z0.0 F1200
G01 X6.912 Y-7.0 Z0.0 F6000
G01 X6.912 Y17.0 Z5.0 F1200
G01 X6.912 Y-7.0 Z0.0 F1200
G01 A2628.938 F2000
G01 X7.765 Y-7.0 Z0.0 F6000
G01 X7.765 Y17.0 Z5.0 F1200
G01 X7.765 Y-7.0 Z0.0 F1200
G01 X6.464 Y-7.0 Z0.0 F6000
G01 X6.464 Y17.0 Z5.0 F1200
G01 X6.464 Y-7.0 Z0.0 F1200
G01 A2633.675 F2000
G01 X6.207 Y-7.0 Z0.0 F6000
G01 X6.207 Y17.0 Z5.0 F1200
G01 X6.207 Y-7.0 Z0.0 F1200
G01 X6.523 Y-7.0 Z0.0 F6000
G01 X6.523 Y17.0 Z5.0 F1200
G01 X6.523 Y-7.0 Z0.0 F1200
G01 A2638.411 F2000
G01 X7.721 Y-7.0 Z0.0 F6000
G01 X7.721 Y17.0 Z5.0 F1200
G01 X7.721 Y-7.0 Z0.0 F1200
G01 X6.762 Y-7.0 Z0.0 F6000
G01 X6.762 Y17.0 Z5.0 F1200
G01 X6.762 Y-7.0 Z0.0 F1200
G01 A2643.148 F2000
G01 X5.513 Y-7.0 Z0.0 F6000
G01 X5.513 Y17.0 Z5.0 F1200
G01 X5.513 Y-7.0 Z0.0 F1200
G01 X6.851 Y-7.0 Z0.0 F6000
G01 X6.851 Y17.0 Z5.0 F1200
G01 X6.851 Y-7.0 Z0.0 F1200
G01 A2647.884 F2000
G01 X7.636 Y-7.0 Z0.0 F6000
G01 X7.636 Y17.0 Z5.0 F1200
G01 X7.636 Y-7.0 Z0.0 F1200
G01 X6.137 Y-7.0 Z0.0 F6000
G01 X6.137 Y17.0 Z5.0 F1200
G01 X6.137 Y-7.0 Z0.0 F1200
G01 A2652.621 F2000
G01 X6.306 Y-7.0 Z0.0 F6000
G01 X6.306 Y17.0 Z5.0 F1200
G01 X6.306 Y-7.0 Z0.0 F1200
G01 X7.473 Y-7.0 Z0.0 F6000
G01 X7.473 Y17.0 Z5.0 F1200
G01 X7.473 Y-7.0 Z0.0 F1200
G01 A2657.357 F2000
G01 X7.784 Y-7.0 Z0.0 F6000
G01 X7.784 Y17.0 Z5.0 F1200
G01 X7.784 Y-7.0 Z0.0 F1200
G01 X6.62 Y-7.0 Z0.0 F6000
G01 X6.62 Y17.0 Z5.0 F1200
G01 X6.62 Y-7.0 Z0.0 F1200
G01 A2662.094 F2000
G01 X6.284 Y-7.0 Z0.0 F6000
G01 X6.284 Y17.0 Z5.0 F1200
G01 X6.284 Y-7.0 Z0.0 F1200
G01 X7.438 Y-7.0 Z0.0 F6000
G01 X7.438 Y17.0 Z5.0 F1200
G01 X7.438 Y-7.0 Z0.0 F1200
G01 A2666.83 F2000
G01 X7.955 Y-7.0 Z0.0 F6000
G01 X7.955 Y17.0 Z5.0 F1200
G01 X7.955 Y-7.0 Z0.0 F1200
G01 X6.333 Y-7.0 Z0.0 F6000
G01 X6.333 Y17.0 Z5.0 F1200
G01 X6.333 Y-7.0 Z0.0 F1200
G01 A2671.566 F2000
G01 X6.147 Y-7.0 Z0.0 F6000
G01 X6.147 Y17.0 Z5.0 F1200
G01 X6.147 Y-7.0 Z0.0 F1200
G01 X6.594 Y-7.0 Z0.0 F6000
G01 X6.594 Y17.0 Z5.0 F1200
G01 X6.594 Y-7.0 Z0.0 F1200
G01 A2676.303 F2000
G01 X7.915 Y-7.0 Z0.0 F6000
G01 X7.915 Y17.0 Z5.0 F1200
G01 X7.915 Y-7.0 Z0.0 F1200
G01 X6.058 Y-7.0 Z0.0 F6000
G01 X6.058 Y17.0 Z5.0 F1200
G01 X6.058 Y-7.0 Z0.0 F1200
G01 A2681.039 F2000
G01 X5.787 Y-7.0 Z0.0 F6000
G01 X5.787 Y17.0 Z5.0 F1200
G01 X5.787 Y-7.0 Z0.0 F1200
G01 X7.073 Y-7.0 Z0.0 F6000
G01 X7.073 Y17.0 Z5.0 F1200
G01 X7.073 Y-7.0 Z0.0 F1200
G01 A2685.776 F2000
G01 X7.223 Y-7.0 Z0.0 F6000
G01 X7.223 Y17.0 Z5.0 F1200
G01 X7.223 Y-7.0 Z0.0 F1200
G01 X6.421 Y-7.0 Z0.0 F6000
G01 X6.421 Y17.0 Z5.0 F1200
G01 X6.421 Y-7.0 Z0.0 F1200
G01 A2690.512 F2000
G01 X5.851 Y-7.0 Z0.0 F6000
G01 X5.851 Y17.0 Z5.0 F1200
G01 X5.851 Y-7.0 Z0.0 F1200
G01 X7.167 Y-7.0 Z0.0 F6000
G01 X7.167 Y17.0 Z5.0 F1200
G01 X7.167 Y-7.0 Z0.0 F1200
G01 A2695.249 F2000
G01 X7.518 Y-7.0 Z0.0 F6000
G01 X7.518 Y17.0 Z5.0 F1200
G01 X7.518 Y-7.0 Z0.0 F1200
G01 X6.83 Y-7.0 Z0.0 F6000
G01 X6.83 Y17.0 Z5.0 F1200
G01 X6.83 Y-7.0 Z0.0 F1200
G01 A2699.985 F2000
G01 X6.121 Y-7.0 Z0.0 F6000
G01 X6.121 Y17.0 Z5.0 F1200
G01 X6.121 Y-7.0 Z0.0 F1200
G01 X7.221 Y-7.0 Z0.0 F6000
G01 X7.221 Y17.0 Z5.0 F1200
G01 X7.221 Y-7.0 Z0.0 F1200
G01 A2704.722 F2000
G01 X7.016 Y-7.0 Z0.0 F6000
G01 X7.016 Y17.0 Z5.0 F1200
G01 X7.016 Y-7.0 Z0.0 F1200
G01 X6.676 Y-7.0 Z0.0 F6000
G01 X6.676 Y17.0 Z5.0 F1200
G01 X6.676 Y-7.0 Z0.0 F1200
G01 A2709.458 F2000
G01 X6.41 Y-7.0 Z0.0 F6000
G01 X6.41 Y17.0 Z5.0 F1200
G01 X6.41 Y-7.0 Z0.0 F1200
G01 X6.636 Y-7.0 Z0.0 F6000
G01 X6.636 Y17.0 Z5.0 F1200
G01 X6.636 Y-7.0 Z0.0 F1200
G01 A2714.194 F2000
G01 X7.783 Y-7.0 Z0.0 F6000
G01 X7.783 Y17.0 Z5.0 F1200
G01 X7.783 Y-7.0 Z0.0 F1200
G01 X6.785 Y-7.0 Z0.0 F6000
G01 X6.785 Y17.0 Z5.0 F1200
G01 X6.785 Y-7.0 Z0.0 F1200
G01 A2718.931 F2000
G01 X5.583 Y-7.0 Z0.0 F6000
G01 X5.583 Y17.0 Z5.0 F1200
G01 X5.583 Y-7.0 Z0.0 F1200
G01 X7.115 Y-7.0 Z0.0 F6000
G01 X7.115 Y17.0 Z5.0 F1200
G01 X7.115 Y-7.0 Z0.0 F1200
G01 A2723.667 F2000
G01 X7.311 Y-7.0 Z0.0 F6000
G01 X7.311 Y17.0 Z5.0 F1200
G01 X7.311 Y-7.0 Z0.0 F1200
G01 X6.37 Y-7.0 Z0.0 F6000
G01 X6.37 Y17.0 Z5.0 F1200
G01 X6.37 Y-7.0 Z0.0 F1200
G01 A2728.404 F2000
G01 X6.494 Y-7.0 Z0.0 F6000
G01 X6.494 Y17.0 Z5.0 F1200
G01 X6.494 Y-7.0 Z0.0 F1200
G01 X7.071 Y-7.0 Z0.0 F6000
G01 X7.071 Y17.0 Z5.0 F1200
G01 X7.071 Y-7.0 Z0.0 F1200
G01 A2733.14 F2000
G01 X7.477 Y-7.0 Z0.0 F6000
G01 X7.477 Y17.0 Z5.0 F1200
G01 X7.477 Y-7.0 Z0.0 F1200
G01 X6.797 Y-7.0 Z0.0 F6000
G01 X6.797 Y17.0 Z5.0 F1200
G01 X6.797 Y-7.0 Z0.0 F1200
G01 A2737.877 F2000
G01 X5.891 Y-7.0 Z0.0 F6000
G01 X5.891 Y17.0 Z5.0 F1200
G01 X5.891 Y-7.0 Z0.0 F1200
G01 X6.63 Y-7.0 Z0.0 F6000
G01 X6.63 Y17.0 Z5.0 F1200
G01 X6.63 Y-7.0 Z0.0 F1200
G01 A2742.613 F2000
G01 X7.98 Y-7.0 Z0.0 F6000
G01 X7.98 Y17.0 Z5.0 F1200
G01 X7.98 Y-7.0 Z0.0 F1200
G01 X6.161 Y-7.0 Z0.0 F6000
G01 X6.161 Y17.0 Z5.0 F1200
G01 X6.161 Y-7.0 Z0.0 F1200
G01 A2747.35 F2000
G01 X6.401 Y-7.0 Z0.0 F6000
G01 X6.401 Y17.0 Z5.0 F1200
G01 X6.401 Y-7.0 Z0.0 F1200
G01 X7.477 Y-7.0 Z0.0 F6000
G01 X7.477 Y17.0 Z5.0 F1200
G01 X7.477 Y-7.0 Z0.0 F1200
G01 A2752.086 F2000
G01 X7.469 Y-7.0 Z0.0 F6000
G01 X7.469 Y17.0 Z5.0 F1200
G01 X7.469 Y-7.0 Z0.0 F1200
G01 X6.12 Y-7.0 Z0.0 F6000
G01 X6.12 Y17.0 Z5.0 F1200
G01 X6.12 Y-7.0 Z0.0 F1200
G01 A2756.823 F2000
G01 X5.96 Y-7.0 Z0.0 F6000
G01 X5.96 Y17.0 Z5.0 F1200
G01 X5.96 Y-7.0 Z0.0 F1200
G01 X7.043 Y-7.0 Z0.0 F6000
G01 X7.043 Y17.0 Z5.0 F1200
G01 X7.043 Y-7.0 Z0.0 F1200
G01 A2761.559 F2000
G01 X7.787 Y-7.0 Z0.0 F6000
G01 X7.787 Y17.0 Z5.0 F1200
G01 X7.787 Y-7.0 Z0.0 F1200
G01 X6.999 Y-7.0 Z0.0 F6000
G01 X6.999 Y17.0 Z5.0 F1200
G01 X6.999 Y-7.0 Z0.0 F1200
G01 A2766.295 F2000
G01 X5.745 Y-7.0 Z0.0 F6000
G01 X5.745 Y17.0 Z5.0 F1200
G01 X5.745 Y-7.0 Z0.0 F1200
G01 X6.534 Y-7.0 Z0.0 F6000
G01 X6.534 Y17.0 Z5.0 F1200
G01 X6.534 Y-7.0 Z0.0 F1200
G01 A2771.032 F2000
G01 X7.982 Y-7.0 Z0.0 F6000
G01 X7.982 Y17.0 Z5.0 F1200
G01 X7.982 Y-7.0 Z0.0 F1200
G01 X6.002 Y-7.0 Z0.0 F6000
G01 X6.002 Y17.0 Z5.0 F1200
G01 X6.002 Y-7.0 Z0.0 F1200
G01 A2775.768 F2000
G01 X6.463 Y-7.0 Z0.0 F6000
G01 X6.463 Y17.0 Z5.0 F1200
G01 X6.463 Y-7.0 Z0.0 F1200
G01 X7.393 Y-7.0 Z0.0 F6000
G01 X7.393 Y17.0 Z5.0 F1200
G01 X7.393 Y-7.0 Z0.0 F1200
G01 A2780.505 F2000
G01 X7.9 Y-7.0 Z0.0 F6000
G01 X7.9 Y17.0 Z5.0 F1200
G01 X7.9 Y-7.0 Z0.0 F1200
G01 X6.402 Y-7.0 Z0.0 F6000
G01 X6.402 Y17.0 Z5.0 F1200
G01 X6.402 Y-7.0 Z0.0 F1200
G01 A2785.241 F2000
G01 X5.7 Y-7.0 Z0.0 F6000
G01 X5.7 Y17.0 Z5.0 F1200
G01 X5.7 Y-7.0 Z0.0 F1200
G01 X7.098 Y-7.0 Z0.0 F6000
G01 X7.098 Y17.0 Z5.0 F1200
G01 X7.098 Y-7.0 Z0.0 F1200
G01 A2789.978 F2000
G01 X7.433 Y-7.0 Z0.0 F6000
G01 X7.433 Y17.0 Z5.0 F1200
G01 X7.433 Y-7.0 Z0.0 F1200
G01 X6.71 Y-7.0 Z0.0 F6000
G01 X6.71 Y17.0 Z5.0 F1200
G01 X6.71 Y-7.0 Z0.0 F1200
G01 A2794.714 F2000
G01 X5.692 Y-7.0 Z0.0 F6000
G01 X5.692 Y17.0 Z5.0 F1200
G01 X5.692 Y-7.0 Z0.0 F1200
G01 X6.97 Y-7.0 Z0.0 F6000
G01 X6.97 Y17.0 Z5.0 F1200
G01 X6.97 Y-7.0 Z0.0 F1200
G01 A2799.451 F2000
G01 X7.913 Y-7.0 Z0.0 F6000
G01 X7.913 Y17.0 Z5.0 F1200
G01 X7.913 Y-7.0 Z0.0 F1200
G01 X6.589 Y-7.0 Z0.0 F6000
G01 X6.589 Y17.0 Z5.0 F1200
G01 X6.589 Y-7.0 Z0.0 F1200
G01 A2804.187 F2000
G01 X6.428 Y-7.0 Z0.0 F6000
G01 X6.428 Y17.0 Z5.0 F1200
G01 X6.428 Y-7.0 Z0.0 F1200
G01 X7.25 Y-7.0 Z0.0 F6000
G01 X7.25 Y17.0 Z5.0 F1200
G01 X7.25 Y-7.0 Z0.0 F1200
G01 A2808.924 F2000
G01 X7.134 Y-7.0 Z0.0 F6000
G01 X7.134 Y17.0 Z5.0 F1200
G01 X7.134 Y-7.0 Z0.0 F1200
G01 X6.645 Y-7.0 Z0.0 F6000
G01 X6.645 Y17.0 Z5.0 F1200
G01 X6.645 Y-7.0 Z0.0 F1200
G01 A2813.66 F2000
G01 X5.685 Y-7.0 Z0.0 F6000
G01 X5.685 Y17.0 Z5.0 F1200
G01 X5.685 Y-7.0 Z0.0 F1200
G01 X6.571 Y-7.0 Z0.0 F6000
G01 X6.571 Y17.0 Z5.0 F1200
G01 X6.571 Y-7.0 Z0.0 F1200
G01 A2818.396 F2000
G01 X7.604 Y-7.0 Z0.0 F6000
G01 X7.604 Y17.0 Z5.0 F1200
G01 X7.604 Y-7.0 Z0.0 F1200
G01 X6.009 Y-7.0 Z0.0 F6000
G01 X6.009 Y17.0 Z5.0 F1200
G01 X6.009 Y-7.0 Z0.0 F1200
G01 A2823.133 F2000
G01 X5.553 Y-7.0 Z0.0 F6000
G01 X5.553 Y17.0 Z5.0 F1200
G01 X5.553 Y-7.0 Z0.0 F1200
G01 X6.891 Y-7.0 Z0.0 F6000
G01 X6.891 Y17.0 Z5.0 F1200
G01 X6.891 Y-7.0 Z0.0 F1200
G01 A2827.869 F2000
G01 X7.181 Y-7.0 Z0.0 F6000
G01 X7.181 Y17.0 Z5.0 F1200
G01 X7.181 Y-7.0 Z0.0 F1200
G01 X6.665 Y-7.0 Z0.0 F6000
G01 X6.665 Y17.0 Z5.0 F1200
G01 X6.665 Y-7.0 Z0.0 F1200
G01 A2832.606 F2000
G01 X5.778 Y-7.0 Z0.0 F6000
G01 X5.778 Y17.0 Z5.0 F1200
G01 X5.778 Y-7.0 Z0.0 F1200
G01 X6.742 Y-7.0 Z0.0 F6000
G01 X6.742 Y17.0 Z5.0 F1200
G01 X6.742 Y-7.0 Z0.0 F1200
G01 A2837.342 F2000
G01 X7.552 Y-7.0 Z0.0 F6000
G01 X7.552 Y17.0 Z5.0 F1200
G01 X7.552 Y-7.0 Z0.0 F1200
G01 X6.525 Y-7.0 Z0.0 F6000
G01 X6.525 Y17.0 Z5.0 F1200
G01 X6.525 Y-7.0 Z0.0 F1200
G01 A2842.079 F2000
G01 X6.346 Y-7.0 Z0.0 F6000
G01 X6.346 Y17.0 Z5.0 F1200
G01 X6.346 Y-7.0 Z0.0 F1200
G01 X7.321 Y-7.0 Z0.0 F6000
G01 X7.321 Y17.0 Z5.0 F1200
G01 X7.321 Y-7.0 Z0.0 F1200
G01 A2846.815 F2000
G01 X7.934 Y-7.0 Z0.0 F6000
G01 X7.934 Y17.0 Z5.0 F1200
G01 X7.934 Y-7.0 Z0.0 F1200
G01 X6.111 Y-7.0 Z0.0 F6000
G01 X6.111 Y17.0 Z5.0 F1200
G01 X6.111 Y-7.0 Z0.0 F1200
G01 A2851.552 F2000
G01 X5.556 Y-7.0 Z0.0 F6000
G01 X5.556 Y17.0 Z5.0 F1200
G01 X5.556 Y-7.0 Z0.0 F1200
G01 X7.252 Y-7.0 Z0.0 F6000
G01 X7.252 Y17.0 Z5.0 F1200
G01 X7.252 Y-7.0 Z0.0 F1200
G01 A2856.288 F2000
G01 X7.4 Y-7.0 Z0.0 F6000
G01 X7.4 Y17.0 Z5.0 F1200
G01 X7.4 Y-7.0 Z0.0 F1200
G01 X6.053 Y-7.0 Z0.0 F6000
G01 X6.053 Y17.0 Z5.0 F1200
G01 X6.053 Y-7.0 Z0.0 F1200
G01 A2861.024 F2000
G01 X6.03 Y-7.0 Z0.0 F6000
G01 X6.03 Y17.0 Z5.0 F1200
G01 X6.03 Y-7.0 Z0.0 F1200
G01 X6.82 Y-7.0 Z0.0 F6000
G01 X6.82 Y17.0 Z5.0 F1200
G01 X6.82 Y-7.0 Z0.0 F1200
G01 A2865.761 F2000
G01 X7.214 Y-7.0 Z0.0 F6000
G01 X7.214 Y17.0 Z5.0 F1200
G01 X7.214 Y-7.0 Z0.0 F1200
G01 X6.665 Y-7.0 Z0.0 F6000
G01 X6.665 Y17.0 Z5.0 F1200
G01 X6.665 Y-7.0 Z0.0 F1200
G01 A2870.497 F2000
G01 X6.234 Y-7.0 Z0.0 F6000
G01 X6.234 Y17.0 Z5.0 F1200
G01 X6.234 Y-7.0 Z0.0 F1200
G01 X6.76 Y-7.0 Z0.0 F6000
G01 X6.76 Y17.0 Z5.0 F1200
G01 X6.76 Y-7.0 Z0.0 F1200
G01 A2875.234 F2000
G01 X7.666 Y-7.0 Z0.0 F6000
G01 X7.666 Y17.0 Z5.0 F1200
G01 X7.666 Y-7.0 Z0.0 F1200
G01 X6.226 Y-7.0 Z0.0 F6000
G01 X6.226 Y17.0 Z5.0 F1200
G01 X6.226 Y-7.0 Z0.0 F1200
G01 A2880.0 F2000
G01 X0.386 Y-8.0 Z0.0 F6000
G01 X0.386 Y16.0 Z5.0 F1200
G01 X0.386 Y-8.0 Z0.0 F1200
G01 X0.898 Y-8.0 Z0.0 F6000
G01 X0.898 Y16.0 Z5.0 F1200
G01 X0.898 Y-8.0 Z0.0 F1200
G01 A2884.39 F2000
G01 X1.473 Y-8.0 Z0.0 F6000
G01 X1.473 Y16.0 Z5.0 F1200
G01 X1.473 Y-8.0 Z0.0 F1200
G01 X0.168 Y-8.0 Z0.0 F6000
G01 X0.168 Y16.0 Z5.0 F1200
G01 X0.168 Y-8.0 Z0.0 F1200
G01 A2888.779 F2000
G01 X-0.036 Y-8.0 Z0.0 F6000
G01 X-0.036 Y16.0 Z5.0 F1200
G01 X-0.036 Y-8.0 Z0.0 F1200
G01 X0.777 Y-8.0 Z0.0 F6000
G01 X0.777 Y16.0 Z5.0 F1200
G01 X0.777 Y-8.0 Z0.0 F1200
G01 A2893.169 F2000
G01 X1.784 Y-8.0 Z0.0 F6000
G01 X1.784 Y16.0 Z5.0 F1200
G01 X1.784 Y-8.0 Z0.0 F1200
G01 X0.135 Y-8.0 Z0.0 F6000
G01 X0.135 Y16.0 Z5.0 F1200
G01 X0.135 Y-8.0 Z0.0 F1200
G01 A2897.559 F2000
G01 X0.034 Y-8.0 Z0.0 F6000
G01 X0.034 Y16.0 Z5.0 F1200
G01 X0.034 Y-8.0 Z0.0 F1200
G01 X0.904 Y-8.0 Z0.0 F6000
G01 X0.904 Y16.0 Z5.0 F1200
G01 X0.904 Y-8.0 Z0.0 F1200
G01 A2901.949 F2000
G01 X1.913 Y-8.0 Z0.0 F6000
G01 X1.913 Y16.0 Z5.0 F1200
G01 X1.913 Y-8.0 Z0.0 F1200
G01 X0.655 Y-8.0 Z0.0 F6000
G01 X0.655 Y16.0 Z5.0 F1200
G01 X0.655 Y-8.0 Z0.0 F1200
G01 A2906.338 F2000
G01 X0.063 Y-8.0 Z0.0 F6000
G01 X0.063 Y16.0 Z5.0 F1200
G01 X0.063 Y-8.0 Z0.0 F1200
G01 X0.646 Y-8.0 Z0.0 F6000
G01 X0.646 Y16.0 Z5.0 F1200
G01 X0.646 Y-8.0 Z0.0 F1200
G01 A2910.728 F2000
G01 X1.104 Y-8.0 Z0.0 F6000
G01 X1.104 Y16.0 Z5.0 F1200
G01 X1.104 Y-8.0 Z0.0 F1200
G01 X0.605 Y-8.0 Z0.0 F6000
G01 X0.605 Y16.0 Z5.0 F1200
G01 X0.605 Y-8.0 Z0.0 F1200
G01 A2915.118 F2000
G01 X0.42 Y-8.0 Z0.0 F6000
G01 X0.42 Y16.0 Z5.0 F1200
G01 X0.42 Y-8.0 Z0.0 F1200
G01 X0.582 Y-8.0 Z0.0 F6000
G01 X0.582 Y16.0 Z5.0 F1200
G01 X0.582 Y-8.0 Z0.0 F1200
G01 A2919.508 F2000
G01 X1.422 Y-8.0 Z0.0 F6000
G01 X1.422 Y16.0 Z5.0 F1200
G01 X1.422 Y-8.0 Z0.0 F1200
G01 X0.37 Y-8.0 Z0.0 F6000
G01 X0.37 Y16.0 Z5.0 F1200
G01 X0.37 Y-8.0 Z0.0 F1200
G01 A2923.897 F2000
G01 X-0.478 Y-8.0 Z0.0 F6000
G01 X-0.478 Y16.0 Z5.0 F1200
G01 X-0.478 Y-8.0 Z0.0 F1200
G01 X1.124 Y-8.0 Z0.0 F6000
G01 X1.124 Y16.0 Z5.0 F1200
G01 X1.124 Y-8.0 Z0.0 F1200
G01 A2928.287 F2000
G01 X1.463 Y-8.0 Z0.0 F6000
G01 X1.463 Y16.0 Z5.0 F1200
G01 X1.463 Y-8.0 Z0.0 F1200
G01 X0.482 Y-8.0 Z0.0 F6000
G01 X0.482 Y16.0 Z5.0 F1200
G01 X0.482 Y-8.0 Z0.0 F1200
G01 A2932.677 F2000
G01 X0.33 Y-8.0 Z0.0 F6000
G01 X0.33 Y16.0 Z5.0 F1200
G01 X0.33 Y-8.0 Z0.0 F1200
G01 X1.123 Y-8.0 Z0.0 F6000
G01 X1.123 Y16.0 Z5.0 F1200
G01 X1.123 Y-8.0 Z0.0 F1200
G01 A2937.067 F2000
G01 X1.24 Y-8.0 Z0.0 F6000
G01 X1.24 Y16.0 Z5.0 F1200
G01 X1.24 Y-8.0 Z0.0 F1200
G01 X0.961 Y-8.0 Z0.0 F6000
G01 X0.961 Y16.0 Z5.0 F1200
G01 X0.961 Y-8.0 Z0.0 F1200
G01 A2941.456 F2000
G01 X0.424 Y-8.0 Z0.0 F6000
G01 X0.424 Y16.0 Z5.0 F1200
G01 X0.424 Y-8.0 Z0.0 F1200
G01 X1.193 Y-8.0 Z0.0 F6000
G01 X1.193 Y16.0 Z5.0 F1200
G01 X1.193 Y-8.0 Z0.0 F1200
G01 A2945.846 F2000
G01 X1.122 Y-8.0 Z0.0 F6000
G01 X1.122 Y16.0 Z5.0 F1200
G01 X1.122 Y-8.0 Z0.0 F1200
G01 X0.633 Y-8.0 Z0.0 F6000
G01 X0.633 Y16.0 Z5.0 F1200
G01 X0.633 Y-8.0 Z0.0 F1200
G01 A2950.236 F2000
G01 X-0.498 Y-8.0 Z0.0 F6000
G01 X-0.498 Y16.0 Z5.0 F1200
G01 X-0.498 Y-8.0 Z0.0 F1200
G01 X0.786 Y-8.0 Z0.0 F6000
G01 X0.786 Y16.0 Z5.0 F1200
G01 X0.786 Y-8.0 Z0.0 F1200
G01 A2954.626 F2000
G01 X1.435 Y-8.0 Z0.0 F6000
G01 X1.435 Y16.0 Z5.0 F1200
G01 X1.435 Y-8.0 Z0.0 F1200
G01 X0.461 Y-8.0 Z0.0 F6000
G01 X0.461 Y16.0 Z5.0 F1200
G01 X0.461 Y-8.0 Z0.0 F1200
G01 A2959.015 F2000
G01 X0.288 Y-8.0 Z0.0 F6000
G01 X0.288 Y16.0 Z5.0 F1200
G01 X0.288 Y-8.0 Z0.0 F1200
G01 X1.059 Y-8.0 Z0.0 F6000
G01 X1.059 Y16.0 Z5.0 F1200
G01 X1.059 Y-8.0 Z0.0 F1200
G01 A2963.405 F2000
G01 X1.648 Y-8.0 Z0.0 F6000
G01 X1.648 Y16.0 Z5.0 F1200
G01 X1.648 Y-8.0 Z0.0 F1200
G01 X0.45 Y-8.0 Z0.0 F6000
G01 X0.45 Y16.0 Z5.0 F1200
G01 X0.45 Y-8.0 Z0.0 F1200
G01 A2967.795 F2000
G01 X0.231 Y-8.0 Z0.0 F6000
G01 X0.231 Y16.0 Z5.0 F1200
G01 X0.231 Y-8.0 Z0.0 F1200
G01 X0.687 Y-8.0 Z0.0 F6000
G01 X0.687 Y16.0 Z5.0 F1200
G01 X0.687 Y-8.0 Z0.0 F1200
G01 A2972.185 F2000
G01 X1.898 Y-8.0 Z0.0 F6000
G01 X1.898 Y16.0 Z5.0 F1200
G01 X1.898 Y-8.0 Z0.0 F1200
G01 X0.84 Y-8.0 Z0.0 F6000
G01 X0.84 Y16.0 Z5.0 F1200
G01 X0.84 Y-8.0 Z0.0 F1200
G01 A2976.574 F2000
G01 X0.413 Y-8.0 Z0.0 F6000
G01 X0.413 Y16.0 Z5.0 F1200
G01 X0.413 Y-8.0 Z0.0 F1200
G01 X1.451 Y-8.0 Z0.0 F6000
G01 X1.451 Y16.0 Z5.0 F1200
G01 X1.451 Y-8.0 Z0.0 F1200
G01 A2980.964 F2000
G01 X1.783 Y-8.0 Z0.0 F6000
G01 X1.783 Y16.0 Z5.0 F1200
G01 X1.783 Y-8.0 Z0.0 F1200
G01 X0.29 Y-8.0 Z0.0 F6000
G01 X0.29 Y16.0 Z5.0 F1200
G01 X0.29 Y-8.0 Z0.0 F1200
G01 A2985.354 F2000
G01 X0.415 Y-8.0 Z0.0 F6000
G01 X0.415 Y16.0 Z5.0 F1200
G01 X0.415 Y-8.0 Z0.0 F1200
G01 X1.311 Y-8.0 Z0.0 F6000
G01 X1.311 Y16.0 Z5.0 F1200
G01 X1.311 Y-8.0 Z0.0 F1200
G01 A2989.743 F2000
G01 X1.472 Y-8.0 Z0.0 F6000
G01 X1.472 Y16.0 Z5.0 F1200
G01 X1.472 Y-8.0 Z0.0 F1200
G01 X0.098 Y-8.0 Z0.0 F6000
G01 X0.098 Y16.0 Z5.0 F1200
G01 X0.098 Y-8.0 Z0.0 F1200
G01 A2994.133 F2000
G01 X0.475 Y-8.0 Z0.0 F6000
G01 X0.475 Y16.0 Z5.0 F1200
G01 X0.475 Y-8.0 Z0.0 F1200
G01 X0.714 Y-8.0 Z0.0 F6000
G01 X0.714 Y16.0 Z5.0 F1200
G01 X0.714 Y-8.0 Z0.0 F1200
G01 A2998.523 F2000
G01 X1.173 Y-8.0 Z0.0 F6000
G01 X1.173 Y16.0 Z5.0 F1200
G01 X1.173 Y-8.0 Z0.0 F1200
G01 X0.554 Y-8.0 Z0.0 F6000
G01 X0.554 Y16.0 Z5.0 F1200
G01 X0.554 Y-8.0 Z0.0 F1200
G01 A3002.913 F2000
G01 X0.36 Y-8.0 Z0.0 F6000
G01 X0.36 Y16.0 Z5.0 F1200
G01 X0.36 Y-8.0 Z0.0 F1200
G01 X0.77 Y-8.0 Z0.0 F6000
G01 X0.77 Y16.0 Z5.0 F1200
G01 X0.77 Y-8.0 Z0.0 F1200
G01 A3007.302 F2000
G01 X1.209 Y-8.0 Z0.0 F6000
G01 X1.209 Y16.0 Z5.0 F1200
G01 X1.209 Y-8.0 Z0.0 F1200
G01 X0.785 Y-8.0 Z0.0 F6000
G01 X0.785 Y16.0 Z5.0 F1200
G01 X0.785 Y-8.0 Z0.0 F1200
G01 A3011.692 F2000
G01 X0.066 Y-8.0 Z0.0 F6000
G01 X0.066 Y16.0 Z5.0 F1200
G01 X0.066 Y-8.0 Z0.0 F1200
G01 X1.068 Y-8.0 Z0.0 F6000
G01 X1.068 Y16.0 Z5.0 F1200
G01 X1.068 Y-8.0 Z0.0 F1200
G01 A3016.082 F2000
G01 X1.595 Y-8.0 Z0.0 F6000
G01 X1.595 Y16.0 Z5.0 F1200
G01 X1.595 Y-8.0 Z0.0 F1200
G01 X0.809 Y-8.0 Z0.0 F6000
G01 X0.809 Y16.0 Z5.0 F1200
G01 X0.809 Y-8.0 Z0.0 F1200
G01 A3020.472 F2000
G01 X0.28 Y-8.0 Z0.0 F6000
G01 X0.28 Y16.0 Z5.0 F1200
G01 X0.28 Y-8.0 Z0.0 F1200
G01 X0.765 Y-8.0 Z0.0 F6000
G01 X0.765 Y16.0 Z5.0 F1200
G01 X0.765 Y-8.0 Z0.0 F1200
G01 A3024.861 F2000
G01 X1.363 Y-8.0 Z0.0 F6000
G01 X1.363 Y16.0 Z5.0 F1200
G01 X1.363 Y-8.0 Z0.0 F1200
G01 X0.998 Y-8.0 Z0.0 F6000
G01 X0.998 Y16.0 Z5.0 F1200
G01 X0.998 Y-8.0 Z0.0 F1200
G01 A3029.251 F2000
G01 X0.338 Y-8.0 Z0.0 F6000
G01 X0.338 Y16.0 Z5.0 F1200
G01 X0.338 Y-8.0 Z0.0 F1200
G01 X1.04 Y-8.0 Z0.0 F6000
G01 X1.04 Y16.0 Z5.0 F1200
G01 X1.04 Y-8.0 Z0.0 F1200
G01 A3033.641 F2000
G01 X1.32 Y-8.0 Z0.0 F6000
G01 X1.32 Y16.0 Z5.0 F1200
G01 X1.32 Y-8.0 Z0.0 F1200
G01 X0.9 Y-8.0 Z0.0 F6000
G01 X0.9 Y16.0 Z5.0 F1200
G01 X0.9 Y-8.0 Z0.0 F1200
G01 A3038.031 F2000
G01 X-0.217 Y-8.0 Z0.0 F6000
G01 X-0.217 Y16.0 Z5.0 F1200
G01 X-0.217 Y-8.0 Z0.0 F1200
G01 X0.963 Y-8.0 Z0.0 F6000
G01 X0.963 Y16.0 Z5.0 F1200
G01 X0.963 Y-8.0 Z0.0 F1200
G01 A3042.42 F2000
G01 X1.593 Y-8.0 Z0.0 F6000
G01 X1.593 Y16.0 Z5.0 F1200
G01 X1.593 Y-8.0 Z0.0 F1200
G01 X0.767 Y-8.0 Z0.0 F6000
G01 X0.767 Y16.0 Z5.0 F1200
G01 X0.767 Y-8.0 Z0.0 F1200
G01 A3046.81 F2000
G01 X0.207 Y-8.0 Z0.0 F6000
G01 X0.207 Y16.0 Z5.0 F1200
G01 X0.207 Y-8.0 Z0.0 F1200
G01 X1.187 Y-8.0 Z0.0 F6000
G01 X1.187 Y16.0 Z5.0 F1200
G01 X1.187 Y-8.0 Z0.0 F1200
G01 A3051.2 F2000
G01 X1.207 Y-8.0 Z0.0 F6000
G01 X1.207 Y16.0 Z5.0 F1200
G01 X1.207 Y-8.0 Z0.0 F1200
G01 X0.339 Y-8.0 Z0.0 F6000
G01 X0.339 Y16.0 Z5.0 F1200
G01 X0.339 Y-8.0 Z0.0 F1200
G01 A3055.59 F2000
G01 X0.25 Y-8.0 Z0.0 F6000
G01 X0.25 Y16.0 Z5.0 F1200
G01 X0.25 Y-8.0 Z0.0 F1200
G01 X1.077 Y-8.0 Z0.0 F6000
G01 X1.077 Y16.0 Z5.0 F1200
G01 X1.077 Y-8.0 Z0.0 F1200
G01 A3059.979 F2000
G01 X1.912 Y-8.0 Z0.0 F6000
G01 X1.912 Y16.0 Z5.0 F1200
G01 X1.912 Y-8.0 Z0.0 F1200
G01 X0.07 Y-8.0 Z0.0 F6000
G01 X0.07 Y16.0 Z5.0 F1200
G01 X0.07 Y-8.0 Z0.0 F1200
G01 A3064.369 F2000
G01 X0.484 Y-8.0 Z0.0 F6000
G01 X0.484 Y16.0 Z5.0 F1200
G01 X0.484 Y-8.0 Z0.0 F1200
G01 X0.994 Y-8.0 Z0.0 F6000
G01 X0.994 Y16.0 Z5.0 F1200
G01 X0.994 Y-8.0 Z0.0 F1200
G01 A3068.759 F2000
G01 X1.296 Y-8.0 Z0.0 F6000
G01 X1.296 Y16.0 Z5.0 F1200
G01 X1.296 Y-8.0 Z0.0 F1200
G01 X0.1 Y-8.0 Z0.0 F6000
G01 X0.1 Y16.0 Z5.0 F1200
G01 X0.1 Y-8.0 Z0.0 F1200
G01 A3073.148 F2000
G01 X-0.431 Y-8.0 Z0.0 F6000
G01 X-0.431 Y16.0 Z5.0 F1200
G01 X-0.431 Y-8.0 Z0.0 F1200
G01 X1.492 Y-8.0 Z0.0 F6000
G01 X1.492 Y16.0 Z5.0 F1200
G01 X1.492 Y-8.0 Z0.0 F1200
G01 A3077.538 F2000
G01 X1.787 Y-8.0 Z0.0 F6000
G01 X1.787 Y16.0 Z5.0 F1200
G01 X1.787 Y-8.0 Z0.0 F1200
G01 X0.979 Y-8.0 Z0.0 F6000
G01 X0.979 Y16.0 Z5.0 F1200
G01 X0.979 Y-8.0 Z0.0 F1200
G01 A3081.928 F2000
G01 X0.347 Y-8.0 Z0.0 F6000
G01 X0.347 Y16.0 Z5.0 F1200
G01 X0.347 Y-8.0 Z0.0 F1200
G01 X0.931 Y-8.0 Z0.0 F6000
G01 X0.931 Y16.0 Z5.0 F1200
G01 X0.931 Y-8.0 Z0.0 F1200
G01 A3086.318 F2000
G01 X1.192 Y-8.0 Z0.0 F6000
G01 X1.192 Y16.0 Z5.0 F1200
G01 X1.192 Y-8.0 Z0.0 F1200
G01 X0.537 Y-8.0 Z0.0 F6000
G01 X0.537 Y16.0 Z5.0 F1200
G01 X0.537 Y-8.0 Z0.0 F1200
G01 A3090.707 F2000
G01 X-0.261 Y-8.0 Z0.0 F6000
G01 X-0.261 Y16.0 Z5.0 F1200
G01 X-0.261 Y-8.0 Z0.0 F1200
G01 X0.659 Y-8.0 Z0.0 F6000
G01 X0.659 Y16.0 Z5.0 F1200
G01 X0.659 Y-8.0 Z0.0 F1200
G01 A3095.097 F2000
G01 X1.555 Y-8.0 Z0.0 F6000
G01 X1.555 Y16.0 Z5.0 F1200
G01 X1.555 Y-8.0 Z0.0 F1200
G01 X0.571 Y-8.0 Z0.0 F6000
G01 X0.571 Y16.0 Z5.0 F1200
G01 X0.571 Y-8.0 Z0.0 F1200
G01 A3099.487 F2000
G01 X0.484 Y-8.0 Z0.0 F6000
G01 X0.484 Y16.0 Z5.0 F1200
G01 X0.484 Y-8.0 Z0.0 F1200
G01 X1.304 Y-8.0 Z0.0 F6000
G01 X1.304 Y16.0 Z5.0 F1200
G01 X1.304 Y-8.0 Z0.0 F1200
G01 A3103.877 F2000
G01 X1.018 Y-8.0 Z0.0 F6000
G01 X1.018 Y16.0 Z5.0 F1200
G01 X1.018 Y-8.0 Z0.0 F1200
G01 X0.172 Y-8.0 Z0.0 F6000
G01 X0.172 Y16.0 Z5.0 F1200
G01 X0.172 Y-8.0 Z0.0 F1200
G01 A3108.266 F2000
G01 X0.059 Y-8.0 Z0.0 F6000
G01 X0.059 Y16.0 Z5.0 F1200
G01 X0.059 Y-8.0 Z0.0 F1200
G01 X1.207 Y-8.0 Z0.0 F6000
G01 X1.207 Y16.0 Z5.0 F1200
G01 X1.207 Y-8.0 Z0.0 F1200
G01 A3112.656 F2000
G01 X1.989 Y-8.0 Z0.0 F6000
G01 X1.989 Y16.0 Z5.0 F1200
G01 X1.989 Y-8.0 Z0.0 F1200
G01 X0.55 Y-8.0 Z0.0 F6000
G01 X0.55 Y16.0 Z5.0 F1200
G01 X0.55 Y-8.0 Z0.0 F1200
G01 A3117.046 F2000
G01 X-0.031 Y-8.0 Z0.0 F6000
G01 X-0.031 Y16.0 Z5.0 F1200
G01 X-0.031 Y-8.0 Z0.0 F1200
G01 X0.511 Y-8.0 Z0.0 F6000
G01 X0.511 Y16.0 Z5.0 F1200
G01 X0.511 Y-8.0 Z0.0 F1200
G01 A3121.436 F2000
G01 X1.435 Y-8.0 Z0.0 F6000
G01 X1.435 Y16.0 Z5.0 F1200
G01 X1.435 Y-8.0 Z0.0 F1200
G01 X0.863 Y-8.0 Z0.0 F6000
G01 X0.863 Y16.0 Z5.0 F1200
G01 X0.863 Y-8.0 Z0.0 F1200
G01 A3125.825 F2000
G01 X-0.441 Y-8.0 Z0.0 F6000
G01 X-0.441 Y16.0 Z5.0 F1200
G01 X-0.441 Y-8.0 Z0.0 F1200
G01 X1.025 Y-8.0 Z0.0 F6000
G01 X1.025 Y16.0 Z5.0 F1200
G01 X1.025 Y-8.0 Z0.0 F1200
G01 A3130.215 F2000
G01 X1.951 Y-8.0 Z0.0 F6000
G01 X1.951 Y16.0 Z5.0 F1200
G01 X1.951 Y-8.0 Z0.0 F1200
G01 X0.963 Y-8.0 Z0.0 F6000
G01 X0.963 Y16.0 Z5.0 F1200
G01 X0.963 Y-8.0 Z0.0 F1200
G01 A3134.605 F2000
G01 X-0.483 Y-8.0 Z0.0 F6000
G01 X-0.483 Y16.0 Z5.0 F1200
G01 X-0.483 Y-8.0 Z0.0 F1200
G01 X0.807 Y-8.0 Z0.0 F6000
G01 X0.807 Y16.0 Z5.0 F1200
G01 X0.807 Y-8.0 Z0.0 F1200
G01 A3138.995 F2000
G01 X1.195 Y-8.0 Z0.0 F6000
G01 X1.195 Y16.0 Z5.0 F1200
G01 X1.195 Y-8.0 Z0.0 F1200
G01 X0.982 Y-8.0 Z0.0 F6000
G01 X0.982 Y16.0 Z5.0 F1200
G01 X0.982 Y-8.0 Z0.0 F1200
G01 A3143.384 F2000
G01 X0.298 Y-8.0 Z0.0 F6000
G01 X0.298 Y16.0 Z5.0 F1200
G01 X0.298 Y-8.0 Z0.0 F1200
G01 X0.768 Y-8.0 Z0.0 F6000
G01 X0.768 Y16.0 Z5.0 F1200
G01 X0.768 Y-8.0 Z0.0 F1200
G01 A3147.774 F2000
G01 X1.386 Y-8.0 Z0.0 F6000
G01 X1.386 Y16.0 Z5.0 F1200
G01 X1.386 Y-8.0 Z0.0 F1200
G01 X0.675 Y-8.0 Z0.0 F6000
G01 X0.675 Y16.0 Z5.0 F1200
G01 X0.675 Y-8.0 Z0.0 F1200
G01 A3152.164 F2000
G01 X-0.475 Y-8.0 Z0.0 F6000
G01 X-0.475 Y16.0 Z5.0 F1200
G01 X-0.475 Y-8.0 Z0.0 F1200
G01 X0.667 Y-8.0 Z0.0 F6000
G01 X0.667 Y16.0 Z5.0 F1200
G01 X0.667 Y-8.0 Z0.0 F1200
G01 A3156.554 F2000
G01 X1.789 Y-8.0 Z0.0 F6000
G01 X1.789 Y16.0 Z5.0 F1200
G01 X1.789 Y-8.0 Z0.0 F1200
G01 X0.306 Y-8.0 Z0.0 F6000
G01 X0.306 Y16.0 Z5.0 F1200
G01 X0.306 Y-8.0 Z0.0 F1200
G01 A3160.943 F2000
G01 X-0.263 Y-8.0 Z0.0 F6000
G01 X-0.263 Y16.0 Z5.0 F1200
G01 X-0.263 Y-8.0 Z0.0 F1200
G01 X1.41 Y-8.0 Z0.0 F6000
G01 X1.41 Y16.0 Z5.0 F1200
G01 X1.41 Y-8.0 Z0.0 F1200
G01 A3165.333 F2000
G01 X1.721 Y-8.0 Z0.0 F6000
G01 X1.721 Y16.0 Z5.0 F1200
G01 X1.721 Y-8.0 Z0.0 F1200
G01 X0.858 Y-8.0 Z0.0 F6000
G01 X0.858 Y16.0 Z5.0 F1200
G01 X0.858 Y-8.0 Z0.0 F1200
G01 A3169.723 F2000
G01 X0.283 Y-8.0 Z0.0 F6000
G01 X0.283 Y16.0 Z5.0 F1200
G01 X0.283 Y-8.0 Z0.0 F1200
G01 X1.014 Y-8.0 Z0.0 F6000
G01 X1.014 Y16.0 Z5.0 F1200
G01 X1.014 Y-8.0 Z0.0 F1200
G01 A3174.112 F2000
G01 X1.185 Y-8.0 Z0.0 F6000
G01 X1.185 Y16.0 Z5.0 F1200
G01 X1.185 Y-8.0 Z0.0 F1200
G01 X0.695 Y-8.0 Z0.0 F6000
G01 X0.695 Y16.0 Z5.0 F1200
G01 X0.695 Y-8.0 Z0.0 F1200
G01 A3178.502 F2000
G01 X0.048 Y-8.0 Z0.0 F6000
G01 X0.048 Y16.0 Z5.0 F1200
G01 X0.048 Y-8.0 Z0.0 F1200
G01 X1.229 Y-8.0 Z0.0 F6000
G01 X1.229 Y16.0 Z5.0 F1200
G01 X1.229 Y-8.0 Z0.0 F1200
G01 A3182.892 F2000
G01 X1.675 Y-8.0 Z0.0 F6000
G01 X1.675 Y16.0 Z5.0 F1200
G01 X1.675 Y-8.0 Z0.0 F1200
G01 X0.789 Y-8.0 Z0.0 F6000
G01 X0.789 Y16.0 Z5.0 F1200
G01 X0.789 Y-8.0 Z0.0 F1200
G01 A3187.282 F2000
G01 X-0.445 Y-8.0 Z0.0 F6000
G01 X-0.445 Y16.0 Z5.0 F1200
G01 X-0.445 Y-8.0 Z0.0 F1200
G01 X0.665 Y-8.0 Z0.0 F6000
G01 X0.665 Y16.0 Z5.0 F1200
G01 X0.665 Y-8.0 Z0.0 F1200
G01 A3191.671 F2000
G01 X1.883 Y-8.0 Z0.0 F6000
G01 X1.883 Y16.0 Z5.0 F1200
G01 X1.883 Y-8.0 Z0.0 F1200
G01 X0.685 Y-8.0 Z0.0 F6000
G01 X0.685 Y16.0 Z5.0 F1200
G01 X0.685 Y-8.0 Z0.0 F1200
G01 A3196.061 F2000
G01 X0.367 Y-8.0 Z0.0 F6000
G01 X0.367 Y16.0 Z5.0 F1200
G01 X0.367 Y-8.0 Z0.0 F1200
G01 X0.556 Y-8.0 Z0.0 F6000
G01 X0.556 Y16.0 Z5.0 F1200
G01 X0.556 Y-8.0 Z0.0 F1200
G01 A3200.451 F2000
G01 X1.521 Y-8.0 Z0.0 F6000
G01 X1.521 Y16.0 Z5.0 F1200
G01 X1.521 Y-8.0 Z0.0 F1200
G01 X0.012 Y-8.0 Z0.0 F6000
G01 X0.012 Y16.0 Z5.0 F1200
G01 X0.012 Y-8.0 Z0.0 F1200
G01 A3204.841 F2000
G01 X-0.342 Y-8.0 Z0.0 F6000
G01 X-0.342 Y16.0 Z5.0 F1200
G01 X-0.342 Y-8.0 Z0.0 F1200
G01 X0.547 Y-8.0 Z0.0 F6000
G01 X0.547 Y16.0 Z5.0 F1200
G01 X0.547 Y-8.0 Z0.0 F1200
G01 A3209.23 F2000
G01 X1.19 Y-8.0 Z0.0 F6000
G01 X1.19 Y16.0 Z5.0 F1200
G01 X1.19 Y-8.0 Z0.0 F1200
G01 X0.257 Y-8.0 Z0.0 F6000
G01 X0.257 Y16.0 Z5.0 F1200
G01 X0.257 Y-8.0 Z0.0 F1200
G01 A3213.62 F2000
G01 X-0.428 Y-8.0 Z0.0 F6000
G01 X-0.428 Y16.0 Z5.0 F1200
G01 X-0.428 Y-8.0 Z0.0 F1200
G01 X1.149 Y-8.0 Z0.0 F6000
G01 X1.149 Y16.0 Z5.0 F1200
G01 X1.149 Y-8.0 Z0.0 F1200
G01 A3218.01 F2000
G01 X1.585 Y-8.0 Z0.0 F6000
G01 X1.585 Y16.0 Z5.0 F1200
G01 X1.585 Y-8.0 Z0.0 F1200
G01 X0.685 Y-8.0 Z0.0 F6000
G01 X0.685 Y16.0 Z5.0 F1200
G01 X0.685 Y-8.0 Z0.0 F1200
G01 A3222.4 F2000
G01 X0.477 Y-8.0 Z0.0 F6000
G01 X0.477 Y16.0 Z5.0 F1200
G01 X0.477 Y-8.0 Z0.0 F1200
G01 X0.782 Y-8.0 Z0.0 F6000
G01 X0.782 Y16.0 Z5.0 F1200
G01 X0.782 Y-8.0 Z0.0 F1200
G01 A3226.789 F2000
G01 X1.243 Y-8.0 Z0.0 F6000
G01 X1.243 Y16.0 Z5.0 F1200
G01 X1.243 Y-8.0 Z0.0 F1200
G01 X0.305 Y-8.0 Z0.0 F6000
G01 X0.305 Y16.0 Z5.0 F1200
G01 X0.305 Y-8.0 Z0.0 F1200
G01 A3231.179 F2000
G01 X0.314 Y-8.0 Z0.0 F6000
G01 X0.314 Y16.0 Z5.0 F1200
G01 X0.314 Y-8.0 Z0.0 F1200
G01 X1.154 Y-8.0 Z0.0 F6000
G01 X1.154 Y16.0 Z5.0 F1200
G01 X1.154 Y-8.0 Z0.0 F1200
G01 A3235.569 F2000
G01 X1.75 Y-8.0 Z0.0 F6000
G01 X1.75 Y16.0 Z5.0 F1200
G01 X1.75 Y-8.0 Z0.0 F1200
G01 X0.236 Y-8.0 Z0.0 F6000
G01 X0.236 Y16.0 Z5.0 F1200
G01 X0.236 Y-8.0 Z0.0 F1200
G01 A3240.0 F2000
G01 X1.634 Y-9.0 Z0.0 F6000
G01 X1.634 Y15.0 Z5.0 F1200
G01 X1.634 Y-9.0 Z0.0 F1200
G01 X2.973 Y-9.0 Z0.0 F6000
G01 X2.973 Y15.0 Z5.0 F1200
G01 X2.973 Y-9.0 Z0.0 F1200
G01 A3244.093 F2000
G01 X3.904 Y-9.0 Z0.0 F6000
G01 X3.904 Y15.0 Z5.0 F1200
G01 X3.904 Y-9.0 Z0.0 F1200
G01 X2.259 Y-9.0 Z0.0 F6000
G01 X2.259 Y15.0 Z5.0 F1200
G01 X2.259 Y-9.0 Z0.0 F1200
G01 A3248.185 F2000
G01 X2.263 Y-9.0 Z0.0 F6000
G01 X2.263 Y15.0 Z5.0 F1200
G01 X2.263 Y-9.0 Z0.0 F1200
G01 X3.202 Y-9.0 Z0.0 F6000
G01 X3.202 Y15.0 Z5.0 F1200
G01 X3.202 Y-9.0 Z0.0 F1200
G01 A3252.278 F2000
G01 X3.366 Y-9.0 Z0.0 F6000
G01 X3.366 Y15.0 Z5.0 F1200
G01 X3.366 Y-9.0 Z0.0 F1200
G01 X2.7 Y-9.0 Z0.0 F6000
G01 X2.7 Y15.0 Z5.0 F1200
G01 X2.7 Y-9.0 Z0.0 F1200
G01 A3256.37 F2000
G01 X2.421 Y-9.0 Z0.0 F6000
G01 X2.421 Y15.0 Z5.0 F1200
G01 X2.421 Y-9.0 Z0.0 F1200
G01 X2.711 Y-9.0 Z0.0 F6000
G01 X2.711 Y15.0 Z5.0 F1200
G01 X2.711 Y-9.0 Z0.0 F1200
G01 A3260.463 F2000
G01 X3.261 Y-9.0 Z0.0 F6000
G01 X3.261 Y15.0 Z5.0 F1200
G01 X3.261 Y-9.0 Z0.0 F1200
G01 X2.39 Y-9.0 Z0.0 F6000
G01 X2.39 Y15.0 Z5.0 F1200
G01 X2.39 Y-9.0 Z0.0 F1200
G01 A3264.555 F2000
G01 X1.698 Y-9.0 Z0.0 F6000
G01 X1.698 Y15.0 Z5.0 F1200
G01 X1.698 Y-9.0 Z0.0 F1200
G01 X2.901 Y-9.0 Z0.0 F6000
G01 X2.901 Y15.0 Z5.0 F1200
G01 X2.901 Y-9.0 Z0.0 F1200
G01 A3268.648 F2000
G01 X3.732 Y-9.0 Z0.0 F6000
G01 X3.732 Y15.0 Z5.0 F1200
G01 X3.732 Y-9.0 Z0.0 F1200
G01 X2.856 Y-9.0 Z0.0 F6000
G01 X2.856 Y15.0 Z5.0 F1200
G01 X2.856 Y-9.0 Z0.0 F1200
G01 A3272.74 F2000
G01 X2.164 Y-9.0 Z0.0 F6000
G01 X2.164 Y15.0 Z5.0 F1200
G01 X2.164 Y-9.0 Z0.0 F1200
G01 X3.042 Y-9.0 Z0.0 F6000
G01 X3.042 Y15.0 Z5.0 F1200
G01 X3.042 Y-9.0 Z0.0 F1200
G01 A3276.833 F2000
G01 X3.921 Y-9.0 Z0.0 F6000
G01 X3.921 Y15.0 Z5.0 F1200
G01 X3.921 Y-9.0 Z0.0 F1200
G01 X2.187 Y-9.0 Z0.0 F6000
G01 X2.187 Y15.0 Z5.0 F1200
G01 X2.187 Y-9.0 Z0.0 F1200
G01 A3280.926 F2000
G01 X2.197 Y-9.0 Z0.0 F6000
G01 X2.197 Y15.0 Z5.0 F1200
G01 X2.197 Y-9.0 Z0.0 F1200
G01 X2.88 Y-9.0 Z0.0 F6000
G01 X2.88 Y15.0 Z5.0 F1200
G01 X2.88 Y-9.0 Z0.0 F1200
G01 A3285.018 F2000
G01 X3.936 Y-9.0 Z0.0 F6000
G01 X3.936 Y15.0 Z5.0 F1200
G01 X3.936 Y-9.0 Z0.0 F1200
G01 X2.195 Y-9.0 Z0.0 F6000
G01 X2.195 Y15.0 Z5.0 F1200
G01 X2.195 Y-9.0 Z0.0 F1200
G01 A3289.111 F2000
G01 X1.755 Y-9.0 Z0.0 F6000
G01 X1.755 Y15.0 Z5.0 F1200
G01 X1.755 Y-9.0 Z0.0 F1200
G01 X2.615 Y-9.0 Z0.0 F6000
G01 X2.615 Y15.0 Z5.0 F1200
G01 X2.615 Y-9.0 Z0.0 F1200
G01 A3293.203 F2000
G01 X3.455 Y-9.0 Z0.0 F6000
G01 X3.455 Y15.0 Z5.0 F1200
G01 X3.455 Y-9.0 Z0.0 F1200
G01 X2.688 Y-9.0 Z0.0 F6000
G01 X2.688 Y15.0 Z5.0 F1200
G01 X2.688 Y-9.0 Z0.0 F1200
G01 A3297.296 F2000
G01 X1.792 Y-9.0 Z0.0 F6000
G01 X1.792 Y15.0 Z5.0 F1200
G01 X1.792 Y-9.0 Z0.0 F1200
G01 X3.397 Y-9.0 Z0.0 F6000
G01 X3.397 Y15.0 Z5.0 F1200
G01 X3.397 Y-9.0 Z0.0 F1200
G01 A3301.388 F2000
G01 X3.8 Y-9.0 Z0.0 F6000
G01 X3.8 Y15.0 Z5.0 F1200
G01 X3.8 Y-9.0 Z0.0 F1200
G01 X2.271 Y-9.0 Z0.0 F6000
G01 X2.271 Y15.0 Z5.0 F1200
G01 X2.271 Y-9.0 Z0.0 F1200
G01 A3305.481 F2000
G01 X2.104 Y-9.0 Z0.0 F6000
G01 X2.104 Y15.0 Z5.0 F1200
G01 X2.104 Y-9.0 Z0.0 F1200
G01 X3.156 Y-9.0 Z0.0 F6000
G01 X3.156 Y15.0 Z5.0 F1200
G01 X3.156 Y-9.0 Z0.0 F1200
G01 A3309.573 F2000
G01 X3.137 Y-9.0 Z0.0 F6000
G01 X3.137 Y15.0 Z5.0 F1200
G01 X3.137 Y-9.0 Z0.0 F1200
G01 X2.649 Y-9.0 Z0.0 F6000
G01 X2.649 Y15.0 Z5.0 F1200
G01 X2.649 Y-9.0 Z0.0 F1200
G01 A3313.666 F2000
G01 X2.126 Y-9.0 Z0.0 F6000
G01 X2.126 Y15.0 Z5.0 F1200
G01 X2.126 Y-9.0 Z0.0 F1200
G01 X3.371 Y-9.0 Z0.0 F6000
G01 X3.371 Y15.0 Z5.0 F1200
G01 X3.371 Y-9.0 Z0.0 F1200
G01 A3317.759 F2000
G01 X3.297 Y-9.0 Z0.0 F6000
G01 X3.297 Y15.0 Z5.0 F1200
G01 X3.297 Y-9.0 Z0.0 F1200
G01 X2.138 Y-9.0 Z0.0 F6000
G01 X2.138 Y15.0 Z5.0 F1200
G01 X2.138 Y-9.0 Z0.0 F1200
G01 A3321.851 F2000
G01 X2.044 Y-9.0 Z0.0 F6000
G01 X2.044 Y15.0 Z5.0 F1200
G01 X2.044 Y-9.0 Z0.0 F1200
