;G-code has been generated based on 
;"triangle_punch_radial_spiral_universal_cli" function
;at 11/11/2025 09:03:25
;--------------------------------------------------
;Approximate execution time:
;Part 1 => 07:38:27 (27507)
;Part 2 => 1 ะด 03:03:17 (97397)
;Total => 1 ะด 10:41:45 (124905)
;--------------------------------------------------
;Generation parameters:
;Tube length => 528
;Internal diameter => 60
;Outer diameter => 70
;Fabric thickness => 1
;Punch step => 1
;Needles step => 8
;Volumetric density => 25
;Punch head len => 264
;Punch depth => 15
;Shoe depth => 5
;Punch offset => 10
;Idling speed => 5000
;Move_speed => 1000
;Rotate_speed => 2000
;--------------------------------------------------
;Additional calculated parameters:
;Calculated diameter => 76
;Main rotation number => 8
;Fabric length => 1684
;Total punch number => 30624
;Seed for random => 5
;##################################################
G01 A0.0 F2000
G01 X0.305 Y0 Z0 F5000
G01 X0.305 Y25 Z5 F1000
G01 X0.305 Y0 Z0 F1000
G01 X1.308 Y0 Z0 F5000
G01 X1.308 Y25 Z5 F1000
G01 X1.308 Y0 Z0 F1000
G01 X264.015 Y0 Z0 F5000
G01 X264.015 Y25 Z5 F1000
G01 X264.015 Y0 Z0 F1000
G01 X264.786 Y0 Z0 F5000
G01 X264.786 Y25 Z5 F1000
G01 X264.786 Y0 Z0 F1000
G01 A1.915 F2000
G01 X265.054 Y0 Z0 F5000
G01 X265.054 Y25 Z5 F1000
G01 X265.054 Y0 Z0 F1000
G01 X264.383 Y0 Z0 F5000
G01 X264.383 Y25 Z5 F1000
G01 X264.383 Y0 Z0 F1000
G01 X1.408 Y0 Z0 F5000
G01 X1.408 Y25 Z5 F1000
G01 X1.408 Y0 Z0 F1000
G01 X0.045 Y0 Z0 F5000
G01 X0.045 Y25 Z5 F1000
G01 X0.045 Y0 Z0 F1000
G01 A3.83 F2000
G01 X-0.451 Y0 Z0 F5000
G01 X-0.451 Y25 Z5 F1000
G01 X-0.451 Y0 Z0 F1000
G01 X1.499 Y0 Z0 F5000
G01 X1.499 Y25 Z5 F1000
G01 X1.499 Y0 Z0 F1000
G01 X264.152 Y0 Z0 F5000
G01 X264.152 Y25 Z5 F1000
G01 X264.152 Y0 Z0 F1000
G01 X264.735 Y0 Z0 F5000
G01 X264.735 Y25 Z5 F1000
G01 X264.735 Y0 Z0 F1000
G01 A5.745 F2000
G01 X265.435 Y0 Z0 F5000
G01 X265.435 Y25 Z5 F1000
G01 X265.435 Y0 Z0 F1000
G01 X264.974 Y0 Z0 F5000
G01 X264.974 Y25 Z5 F1000
G01 X264.974 Y0 Z0 F1000
G01 X1.898 Y0 Z0 F5000
G01 X1.898 Y25 Z5 F1000
G01 X1.898 Y0 Z0 F1000
G01 X0.844 Y0 Z0 F5000
G01 X0.844 Y25 Z5 F1000
G01 X0.844 Y0 Z0 F1000
G01 A7.66 F2000
G01 X-0.108 Y0 Z0 F5000
G01 X-0.108 Y25 Z5 F1000
G01 X-0.108 Y0 Z0 F1000
G01 X0.993 Y0 Z0 F5000
G01 X0.993 Y25 Z5 F1000
G01 X0.993 Y0 Z0 F1000
G01 X264.177 Y0 Z0 F5000
G01 X264.177 Y25 Z5 F1000
G01 X264.177 Y0 Z0 F1000
G01 X264.561 Y0 Z0 F5000
G01 X264.561 Y25 Z5 F1000
G01 X264.561 Y0 Z0 F1000
G01 A9.574 F2000
G01 X265.556 Y0 Z0 F5000
G01 X265.556 Y25 Z5 F1000
G01 X265.556 Y0 Z0 F1000
G01 X264.271 Y0 Z0 F5000
G01 X264.271 Y25 Z5 F1000
G01 X264.271 Y0 Z0 F1000
G01 X1.88 Y0 Z0 F5000
G01 X1.88 Y25 Z5 F1000
G01 X1.88 Y0 Z0 F1000
G01 X0.064 Y0 Z0 F5000
G01 X0.064 Y25 Z5 F1000
G01 X0.064 Y0 Z0 F1000
G01 A11.489 F2000
G01 X0.179 Y0 Z0 F5000
G01 X0.179 Y25 Z5 F1000
G01 X0.179 Y0 Z0 F1000
G01 X1.37 Y0 Z0 F5000
G01 X1.37 Y25 Z5 F1000
G01 X1.37 Y0 Z0 F1000
G01 X263.727 Y0 Z0 F5000
G01 X263.727 Y25 Z5 F1000
G01 X263.727 Y0 Z0 F1000
G01 X265.395 Y0 Z0 F5000
G01 X265.395 Y25 Z5 F1000
G01 X265.395 Y0 Z0 F1000
G01 A13.404 F2000
G01 X265.872 Y0 Z0 F5000
G01 X265.872 Y25 Z5 F1000
G01 X265.872 Y0 Z0 F1000
G01 X264.019 Y0 Z0 F5000
G01 X264.019 Y25 Z5 F1000
G01 X264.019 Y0 Z0 F1000
G01 X1.707 Y0 Z0 F5000
G01 X1.707 Y25 Z5 F1000
G01 X1.707 Y0 Z0 F1000
G01 X0.001 Y0 Z0 F5000
G01 X0.001 Y25 Z5 F1000
G01 X0.001 Y0 Z0 F1000
G01 A15.319 F2000
G01 X0.003 Y0 Z0 F5000
G01 X0.003 Y25 Z5 F1000
G01 X0.003 Y0 Z0 F1000
G01 X0.937 Y0 Z0 F5000
G01 X0.937 Y25 Z5 F1000
G01 X0.937 Y0 Z0 F1000
G01 X263.703 Y0 Z0 F5000
G01 X263.703 Y25 Z5 F1000
G01 X263.703 Y0 Z0 F1000
G01 X264.825 Y0 Z0 F5000
G01 X264.825 Y25 Z5 F1000
G01 X264.825 Y0 Z0 F1000
G01 A17.234 F2000
G01 X265.806 Y0 Z0 F5000
G01 X265.806 Y25 Z5 F1000
G01 X265.806 Y0 Z0 F1000
G01 X264.316 Y0 Z0 F5000
G01 X264.316 Y25 Z5 F1000
G01 X264.316 Y0 Z0 F1000
G01 X1.149 Y0 Z0 F5000
G01 X1.149 Y25 Z5 F1000
G01 X1.149 Y0 Z0 F1000
G01 X0.699 Y0 Z0 F5000
G01 X0.699 Y25 Z5 F1000
G01 X0.699 Y0 Z0 F1000
G01 A19.149 F2000
G01 X-0.051 Y0 Z0 F5000
G01 X-0.051 Y25 Z5 F1000
G01 X-0.051 Y0 Z0 F1000
G01 X1.299 Y0 Z0 F5000
G01 X1.299 Y25 Z5 F1000
G01 X1.299 Y0 Z0 F1000
G01 X263.736 Y0 Z0 F5000
G01 X263.736 Y25 Z5 F1000
G01 X263.736 Y0 Z0 F1000
G01 X264.82 Y0 Z0 F5000
G01 X264.82 Y25 Z5 F1000
G01 X264.82 Y0 Z0 F1000
G01 A21.064 F2000
G01 X265.8 Y0 Z0 F5000
G01 X265.8 Y25 Z5 F1000
G01 X265.8 Y0 Z0 F1000
G01 X264.507 Y0 Z0 F5000
G01 X264.507 Y25 Z5 F1000
G01 X264.507 Y0 Z0 F1000
G01 X1.506 Y0 Z0 F5000
G01 X1.506 Y25 Z5 F1000
G01 X1.506 Y0 Z0 F1000
G01 X0.236 Y0 Z0 F5000
G01 X0.236 Y25 Z5 F1000
G01 X0.236 Y0 Z0 F1000
G01 A22.979 F2000
G01 X-0.485 Y0 Z0 F5000
G01 X-0.485 Y25 Z5 F1000
G01 X-0.485 Y0 Z0 F1000
G01 X1.433 Y0 Z0 F5000
G01 X1.433 Y25 Z5 F1000
G01 X1.433 Y0 Z0 F1000
G01 X263.586 Y0 Z0 F5000
G01 X263.586 Y25 Z5 F1000
G01 X263.586 Y0 Z0 F1000
G01 X265.345 Y0 Z0 F5000
G01 X265.345 Y25 Z5 F1000
G01 X265.345 Y0 Z0 F1000
G01 A24.894 F2000
G01 X265.368 Y0 Z0 F5000
G01 X265.368 Y25 Z5 F1000
G01 X265.368 Y0 Z0 F1000
G01 X264.951 Y0 Z0 F5000
G01 X264.951 Y25 Z5 F1000
G01 X264.951 Y0 Z0 F1000
G01 X1.399 Y0 Z0 F5000
G01 X1.399 Y25 Z5 F1000
G01 X1.399 Y0 Z0 F1000
G01 X0.936 Y0 Z0 F5000
G01 X0.936 Y25 Z5 F1000
G01 X0.936 Y0 Z0 F1000
G01 A26.809 F2000
G01 X0.056 Y0 Z0 F5000
G01 X0.056 Y25 Z5 F1000
G01 X0.056 Y0 Z0 F1000
G01 X0.74 Y0 Z0 F5000
G01 X0.74 Y25 Z5 F1000
G01 X0.74 Y0 Z0 F1000
G01 X264.241 Y0 Z0 F5000
G01 X264.241 Y25 Z5 F1000
G01 X264.241 Y0 Z0 F1000
G01 X265.174 Y0 Z0 F5000
G01 X265.174 Y25 Z5 F1000
G01 X265.174 Y0 Z0 F1000
G01 A28.723 F2000
G01 X265.684 Y0 Z0 F5000
G01 X265.684 Y25 Z5 F1000
G01 X265.684 Y0 Z0 F1000
G01 X264.464 Y0 Z0 F5000
G01 X264.464 Y25 Z5 F1000
G01 X264.464 Y0 Z0 F1000
G01 X1.222 Y0 Z0 F5000
G01 X1.222 Y25 Z5 F1000
G01 X1.222 Y0 Z0 F1000
G01 X0.641 Y0 Z0 F5000
G01 X0.641 Y25 Z5 F1000
G01 X0.641 Y0 Z0 F1000
G01 A30.638 F2000
G01 X-0.393 Y0 Z0 F5000
G01 X-0.393 Y25 Z5 F1000
G01 X-0.393 Y0 Z0 F1000
G01 X1.192 Y0 Z0 F5000
G01 X1.192 Y25 Z5 F1000
G01 X1.192 Y0 Z0 F1000
G01 X264.135 Y0 Z0 F5000
G01 X264.135 Y25 Z5 F1000
G01 X264.135 Y0 Z0 F1000
G01 X264.877 Y0 Z0 F5000
G01 X264.877 Y25 Z5 F1000
G01 X264.877 Y0 Z0 F1000
G01 A32.553 F2000
G01 X265.799 Y0 Z0 F5000
G01 X265.799 Y25 Z5 F1000
G01 X265.799 Y0 Z0 F1000
G01 X264.194 Y0 Z0 F5000
G01 X264.194 Y25 Z5 F1000
G01 X264.194 Y0 Z0 F1000
G01 X1.39 Y0 Z0 F5000
G01 X1.39 Y25 Z5 F1000
G01 X1.39 Y0 Z0 F1000
G01 X0.798 Y0 Z0 F5000
G01 X0.798 Y25 Z5 F1000
G01 X0.798 Y0 Z0 F1000
G01 A34.468 F2000
G01 X-0.12 Y0 Z0 F5000
G01 X-0.12 Y25 Z5 F1000
G01 X-0.12 Y0 Z0 F1000
G01 X1.213 Y0 Z0 F5000
G01 X1.213 Y25 Z5 F1000
G01 X1.213 Y0 Z0 F1000
G01 X264.113 Y0 Z0 F5000
G01 X264.113 Y25 Z5 F1000
G01 X264.113 Y0 Z0 F1000
G01 X265.441 Y0 Z0 F5000
G01 X265.441 Y25 Z5 F1000
G01 X265.441 Y0 Z0 F1000
G01 A36.383 F2000
G01 X265.992 Y0 Z0 F5000
G01 X265.992 Y25 Z5 F1000
G01 X265.992 Y0 Z0 F1000
G01 X264.724 Y0 Z0 F5000
G01 X264.724 Y25 Z5 F1000
G01 X264.724 Y0 Z0 F1000
G01 X1.809 Y0 Z0 F5000
G01 X1.809 Y25 Z5 F1000
G01 X1.809 Y0 Z0 F1000
G01 X0.153 Y0 Z0 F5000
G01 X0.153 Y25 Z5 F1000
G01 X0.153 Y0 Z0 F1000
G01 A38.298 F2000
G01 X0.213 Y0 Z0 F5000
G01 X0.213 Y25 Z5 F1000
G01 X0.213 Y0 Z0 F1000
G01 X1.348 Y0 Z0 F5000
G01 X1.348 Y25 Z5 F1000
G01 X1.348 Y0 Z0 F1000
G01 X263.901 Y0 Z0 F5000
G01 X263.901 Y25 Z5 F1000
G01 X263.901 Y0 Z0 F1000
G01 X265.053 Y0 Z0 F5000
G01 X265.053 Y25 Z5 F1000
G01 X265.053 Y0 Z0 F1000
G01 A40.213 F2000
G01 X265.479 Y0 Z0 F5000
G01 X265.479 Y25 Z5 F1000
G01 X265.479 Y0 Z0 F1000
G01 X264.959 Y0 Z0 F5000
G01 X264.959 Y25 Z5 F1000
G01 X264.959 Y0 Z0 F1000
G01 X1.317 Y0 Z0 F5000
G01 X1.317 Y25 Z5 F1000
G01 X1.317 Y0 Z0 F1000
G01 X0.402 Y0 Z0 F5000
G01 X0.402 Y25 Z5 F1000
G01 X0.402 Y0 Z0 F1000
G01 A42.128 F2000
G01 X-0.499 Y0 Z0 F5000
G01 X-0.499 Y25 Z5 F1000
G01 X-0.499 Y0 Z0 F1000
G01 X0.92 Y0 Z0 F5000
G01 X0.92 Y25 Z5 F1000
G01 X0.92 Y0 Z0 F1000
G01 X264.131 Y0 Z0 F5000
G01 X264.131 Y25 Z5 F1000
G01 X264.131 Y0 Z0 F1000
G01 X265.435 Y0 Z0 F5000
G01 X265.435 Y25 Z5 F1000
G01 X265.435 Y0 Z0 F1000
G01 A44.043 F2000
G01 X265.924 Y0 Z0 F5000
G01 X265.924 Y25 Z5 F1000
G01 X265.924 Y0 Z0 F1000
G01 X264.327 Y0 Z0 F5000
G01 X264.327 Y25 Z5 F1000
G01 X264.327 Y0 Z0 F1000
G01 X1.989 Y0 Z0 F5000
G01 X1.989 Y25 Z5 F1000
G01 X1.989 Y0 Z0 F1000
G01 X0.188 Y0 Z0 F5000
G01 X0.188 Y25 Z5 F1000
G01 X0.188 Y0 Z0 F1000
G01 A45.957 F2000
G01 X0.323 Y0 Z0 F5000
G01 X0.323 Y25 Z5 F1000
G01 X0.323 Y0 Z0 F1000
G01 X0.657 Y0 Z0 F5000
G01 X0.657 Y25 Z5 F1000
G01 X0.657 Y0 Z0 F1000
G01 X263.905 Y0 Z0 F5000
G01 X263.905 Y25 Z5 F1000
G01 X263.905 Y0 Z0 F1000
G01 X264.573 Y0 Z0 F5000
G01 X264.573 Y25 Z5 F1000
G01 X264.573 Y0 Z0 F1000
G01 A47.872 F2000
G01 X265.858 Y0 Z0 F5000
G01 X265.858 Y25 Z5 F1000
G01 X265.858 Y0 Z0 F1000
G01 X264.829 Y0 Z0 F5000
G01 X264.829 Y25 Z5 F1000
G01 X264.829 Y0 Z0 F1000
G01 X1.14 Y0 Z0 F5000
G01 X1.14 Y25 Z5 F1000
G01 X1.14 Y0 Z0 F1000
G01 X0.527 Y0 Z0 F5000
G01 X0.527 Y25 Z5 F1000
G01 X0.527 Y0 Z0 F1000
G01 A49.787 F2000
G01 X-0.242 Y0 Z0 F5000
G01 X-0.242 Y25 Z5 F1000
G01 X-0.242 Y0 Z0 F1000
G01 X0.992 Y0 Z0 F5000
G01 X0.992 Y25 Z5 F1000
G01 X0.992 Y0 Z0 F1000
G01 X264.053 Y0 Z0 F5000
G01 X264.053 Y25 Z5 F1000
G01 X264.053 Y0 Z0 F1000
G01 X264.606 Y0 Z0 F5000
G01 X264.606 Y25 Z5 F1000
G01 X264.606 Y0 Z0 F1000
G01 A51.702 F2000
G01 X265.864 Y0 Z0 F5000
G01 X265.864 Y25 Z5 F1000
G01 X265.864 Y0 Z0 F1000
G01 X264.279 Y0 Z0 F5000
G01 X264.279 Y25 Z5 F1000
G01 X264.279 Y0 Z0 F1000
G01 X1.447 Y0 Z0 F5000
G01 X1.447 Y25 Z5 F1000
G01 X1.447 Y0 Z0 F1000
G01 X0.057 Y0 Z0 F5000
G01 X0.057 Y25 Z5 F1000
G01 X0.057 Y0 Z0 F1000
G01 A53.617 F2000
G01 X-0.497 Y0 Z0 F5000
G01 X-0.497 Y25 Z5 F1000
G01 X-0.497 Y0 Z0 F1000
G01 X0.695 Y0 Z0 F5000
G01 X0.695 Y25 Z5 F1000
G01 X0.695 Y0 Z0 F1000
G01 X263.842 Y0 Z0 F5000
G01 X263.842 Y25 Z5 F1000
G01 X263.842 Y0 Z0 F1000
G01 X265.428 Y0 Z0 F5000
G01 X265.428 Y25 Z5 F1000
G01 X265.428 Y0 Z0 F1000
G01 A55.532 F2000
G01 X265.89 Y0 Z0 F5000
G01 X265.89 Y25 Z5 F1000
G01 X265.89 Y0 Z0 F1000
G01 X264.481 Y0 Z0 F5000
G01 X264.481 Y25 Z5 F1000
G01 X264.481 Y0 Z0 F1000
G01 X1.455 Y0 Z0 F5000
G01 X1.455 Y25 Z5 F1000
G01 X1.455 Y0 Z0 F1000
G01 X0.667 Y0 Z0 F5000
G01 X0.667 Y25 Z5 F1000
G01 X0.667 Y0 Z0 F1000
G01 A57.447 F2000
G01 X0.359 Y0 Z0 F5000
G01 X0.359 Y25 Z5 F1000
G01 X0.359 Y0 Z0 F1000
G01 X0.837 Y0 Z0 F5000
G01 X0.837 Y25 Z5 F1000
G01 X0.837 Y0 Z0 F1000
G01 X264.294 Y0 Z0 F5000
G01 X264.294 Y25 Z5 F1000
G01 X264.294 Y0 Z0 F1000
G01 X264.899 Y0 Z0 F5000
G01 X264.899 Y25 Z5 F1000
G01 X264.899 Y0 Z0 F1000
G01 A59.362 F2000
G01 X265.594 Y0 Z0 F5000
G01 X265.594 Y25 Z5 F1000
G01 X265.594 Y0 Z0 F1000
G01 X264.737 Y0 Z0 F5000
G01 X264.737 Y25 Z5 F1000
G01 X264.737 Y0 Z0 F1000
G01 X1.501 Y0 Z0 F5000
G01 X1.501 Y25 Z5 F1000
G01 X1.501 Y0 Z0 F1000
G01 X0.691 Y0 Z0 F5000
G01 X0.691 Y25 Z5 F1000
G01 X0.691 Y0 Z0 F1000
G01 A61.277 F2000
G01 X0.197 Y0 Z0 F5000
G01 X0.197 Y25 Z5 F1000
G01 X0.197 Y0 Z0 F1000
G01 X0.506 Y0 Z0 F5000
G01 X0.506 Y25 Z5 F1000
G01 X0.506 Y0 Z0 F1000
G01 X263.539 Y0 Z0 F5000
G01 X263.539 Y25 Z5 F1000
G01 X263.539 Y0 Z0 F1000
G01 X264.649 Y0 Z0 F5000
G01 X264.649 Y25 Z5 F1000
G01 X264.649 Y0 Z0 F1000
G01 A63.191 F2000
G01 X265.214 Y0 Z0 F5000
G01 X265.214 Y25 Z5 F1000
G01 X265.214 Y0 Z0 F1000
G01 X264.203 Y0 Z0 F5000
G01 X264.203 Y25 Z5 F1000
G01 X264.203 Y0 Z0 F1000
G01 X1.049 Y0 Z0 F5000
G01 X1.049 Y25 Z5 F1000
G01 X1.049 Y0 Z0 F1000
G01 X0.217 Y0 Z0 F5000
G01 X0.217 Y25 Z5 F1000
G01 X0.217 Y0 Z0 F1000
G01 A65.106 F2000
G01 X0.101 Y0 Z0 F5000
G01 X0.101 Y25 Z5 F1000
G01 X0.101 Y0 Z0 F1000
G01 X1.386 Y0 Z0 F5000
G01 X1.386 Y25 Z5 F1000
G01 X1.386 Y0 Z0 F1000
G01 X263.85 Y0 Z0 F5000
G01 X263.85 Y25 Z5 F1000
G01 X263.85 Y0 Z0 F1000
G01 X264.866 Y0 Z0 F5000
G01 X264.866 Y25 Z5 F1000
G01 X264.866 Y0 Z0 F1000
G01 A67.021 F2000
G01 X265.417 Y0 Z0 F5000
G01 X265.417 Y25 Z5 F1000
G01 X265.417 Y0 Z0 F1000
G01 X264.68 Y0 Z0 F5000
G01 X264.68 Y25 Z5 F1000
G01 X264.68 Y0 Z0 F1000
G01 X1.785 Y0 Z0 F5000
G01 X1.785 Y25 Z5 F1000
G01 X1.785 Y0 Z0 F1000
G01 X0.941 Y0 Z0 F5000
G01 X0.941 Y25 Z5 F1000
G01 X0.941 Y0 Z0 F1000
G01 A68.936 F2000
G01 X-0.124 Y0 Z0 F5000
G01 X-0.124 Y25 Z5 F1000
G01 X-0.124 Y0 Z0 F1000
G01 X1.207 Y0 Z0 F5000
G01 X1.207 Y25 Z5 F1000
G01 X1.207 Y0 Z0 F1000
G01 X263.842 Y0 Z0 F5000
G01 X263.842 Y25 Z5 F1000
G01 X263.842 Y0 Z0 F1000
G01 X265.324 Y0 Z0 F5000
G01 X265.324 Y25 Z5 F1000
G01 X265.324 Y0 Z0 F1000
G01 A70.851 F2000
G01 X265.231 Y0 Z0 F5000
G01 X265.231 Y25 Z5 F1000
G01 X265.231 Y0 Z0 F1000
G01 X264.871 Y0 Z0 F5000
G01 X264.871 Y25 Z5 F1000
G01 X264.871 Y0 Z0 F1000
G01 X1.505 Y0 Z0 F5000
G01 X1.505 Y25 Z5 F1000
G01 X1.505 Y0 Z0 F1000
G01 X0.725 Y0 Z0 F5000
G01 X0.725 Y25 Z5 F1000
G01 X0.725 Y0 Z0 F1000
G01 A72.766 F2000
G01 X0.035 Y0 Z0 F5000
G01 X0.035 Y25 Z5 F1000
G01 X0.035 Y0 Z0 F1000
G01 X0.816 Y0 Z0 F5000
G01 X0.816 Y25 Z5 F1000
G01 X0.816 Y0 Z0 F1000
G01 X263.994 Y0 Z0 F5000
G01 X263.994 Y25 Z5 F1000
G01 X263.994 Y0 Z0 F1000
G01 X264.55 Y0 Z0 F5000
G01 X264.55 Y25 Z5 F1000
G01 X264.55 Y0 Z0 F1000
G01 A74.681 F2000
G01 X265.043 Y0 Z0 F5000
G01 X265.043 Y25 Z5 F1000
G01 X265.043 Y0 Z0 F1000
G01 X264.53 Y0 Z0 F5000
G01 X264.53 Y25 Z5 F1000
G01 X264.53 Y0 Z0 F1000
G01 X1.477 Y0 Z0 F5000
G01 X1.477 Y25 Z5 F1000
G01 X1.477 Y0 Z0 F1000
G01 X0.833 Y0 Z0 F5000
G01 X0.833 Y25 Z5 F1000
G01 X0.833 Y0 Z0 F1000
G01 A76.596 F2000
G01 X-0.48 Y0 Z0 F5000
G01 X-0.48 Y25 Z5 F1000
G01 X-0.48 Y0 Z0 F1000
G01 X1.057 Y0 Z0 F5000
G01 X1.057 Y25 Z5 F1000
G01 X1.057 Y0 Z0 F1000
G01 X263.991 Y0 Z0 F5000
G01 X263.991 Y25 Z5 F1000
G01 X263.991 Y0 Z0 F1000
G01 X265.098 Y0 Z0 F5000
G01 X265.098 Y25 Z5 F1000
G01 X265.098 Y0 Z0 F1000
G01 A78.511 F2000
G01 X265.73 Y0 Z0 F5000
G01 X265.73 Y25 Z5 F1000
G01 X265.73 Y0 Z0 F1000
G01 X264.525 Y0 Z0 F5000
G01 X264.525 Y25 Z5 F1000
G01 X264.525 Y0 Z0 F1000
G01 X1.563 Y0 Z0 F5000
G01 X1.563 Y25 Z5 F1000
G01 X1.563 Y0 Z0 F1000
G01 X0.492 Y0 Z0 F5000
G01 X0.492 Y25 Z5 F1000
G01 X0.492 Y0 Z0 F1000
G01 A80.426 F2000
G01 X0.115 Y0 Z0 F5000
G01 X0.115 Y25 Z5 F1000
G01 X0.115 Y0 Z0 F1000
G01 X0.748 Y0 Z0 F5000
G01 X0.748 Y25 Z5 F1000
G01 X0.748 Y0 Z0 F1000
G01 X264.053 Y0 Z0 F5000
G01 X264.053 Y25 Z5 F1000
G01 X264.053 Y0 Z0 F1000
G01 X265.172 Y0 Z0 F5000
G01 X265.172 Y25 Z5 F1000
G01 X265.172 Y0 Z0 F1000
G01 A82.34 F2000
G01 X265.191 Y0 Z0 F5000
G01 X265.191 Y25 Z5 F1000
G01 X265.191 Y0 Z0 F1000
G01 X264.99 Y0 Z0 F5000
G01 X264.99 Y25 Z5 F1000
G01 X264.99 Y0 Z0 F1000
G01 X1.746 Y0 Z0 F5000
G01 X1.746 Y25 Z5 F1000
G01 X1.746 Y0 Z0 F1000
G01 X0.955 Y0 Z0 F5000
G01 X0.955 Y25 Z5 F1000
G01 X0.955 Y0 Z0 F1000
G01 A84.255 F2000
G01 X-0.206 Y0 Z0 F5000
G01 X-0.206 Y25 Z5 F1000
G01 X-0.206 Y0 Z0 F1000
G01 X0.943 Y0 Z0 F5000
G01 X0.943 Y25 Z5 F1000
G01 X0.943 Y0 Z0 F1000
G01 X263.761 Y0 Z0 F5000
G01 X263.761 Y25 Z5 F1000
G01 X263.761 Y0 Z0 F1000
G01 X264.547 Y0 Z0 F5000
G01 X264.547 Y25 Z5 F1000
G01 X264.547 Y0 Z0 F1000
G01 A86.17 F2000
G01 X265.017 Y0 Z0 F5000
G01 X265.017 Y25 Z5 F1000
G01 X265.017 Y0 Z0 F1000
G01 X264.247 Y0 Z0 F5000
G01 X264.247 Y25 Z5 F1000
G01 X264.247 Y0 Z0 F1000
G01 X1.861 Y0 Z0 F5000
G01 X1.861 Y25 Z5 F1000
G01 X1.861 Y0 Z0 F1000
G01 X0.164 Y0 Z0 F5000
G01 X0.164 Y25 Z5 F1000
G01 X0.164 Y0 Z0 F1000
G01 A88.085 F2000
G01 X0.19 Y0 Z0 F5000
G01 X0.19 Y25 Z5 F1000
G01 X0.19 Y0 Z0 F1000
G01 X0.749 Y0 Z0 F5000
G01 X0.749 Y25 Z5 F1000
G01 X0.749 Y0 Z0 F1000
G01 X263.566 Y0 Z0 F5000
G01 X263.566 Y25 Z5 F1000
G01 X263.566 Y0 Z0 F1000
G01 X264.692 Y0 Z0 F5000
G01 X264.692 Y25 Z5 F1000
G01 X264.692 Y0 Z0 F1000
G01 A90.0 F2000
G01 X265.678 Y0 Z0 F5000
G01 X265.678 Y25 Z5 F1000
G01 X265.678 Y0 Z0 F1000
G01 X264.502 Y0 Z0 F5000
G01 X264.502 Y25 Z5 F1000
G01 X264.502 Y0 Z0 F1000
G01 X1.549 Y0 Z0 F5000
G01 X1.549 Y25 Z5 F1000
G01 X1.549 Y0 Z0 F1000
G01 X0.453 Y0 Z0 F5000
G01 X0.453 Y25 Z5 F1000
G01 X0.453 Y0 Z0 F1000
G01 A91.915 F2000
G01 X-0.226 Y0 Z0 F5000
G01 X-0.226 Y25 Z5 F1000
G01 X-0.226 Y0 Z0 F1000
G01 X0.988 Y0 Z0 F5000
G01 X0.988 Y25 Z5 F1000
G01 X0.988 Y0 Z0 F1000
G01 X264.422 Y0 Z0 F5000
G01 X264.422 Y25 Z5 F1000
G01 X264.422 Y0 Z0 F1000
G01 X264.701 Y0 Z0 F5000
G01 X264.701 Y25 Z5 F1000
G01 X264.701 Y0 Z0 F1000
G01 A93.83 F2000
G01 X265.733 Y0 Z0 F5000
G01 X265.733 Y25 Z5 F1000
G01 X265.733 Y0 Z0 F1000
G01 X264.251 Y0 Z0 F5000
G01 X264.251 Y25 Z5 F1000
G01 X264.251 Y0 Z0 F1000
G01 X1.193 Y0 Z0 F5000
G01 X1.193 Y25 Z5 F1000
G01 X1.193 Y0 Z0 F1000
G01 X0.324 Y0 Z0 F5000
G01 X0.324 Y25 Z5 F1000
G01 X0.324 Y0 Z0 F1000
G01 A95.745 F2000
G01 X-0.407 Y0 Z0 F5000
G01 X-0.407 Y25 Z5 F1000
G01 X-0.407 Y0 Z0 F1000
G01 X1.435 Y0 Z0 F5000
G01 X1.435 Y25 Z5 F1000
G01 X1.435 Y0 Z0 F1000
G01 X263.865 Y0 Z0 F5000
G01 X263.865 Y25 Z5 F1000
G01 X263.865 Y0 Z0 F1000
G01 X264.676 Y0 Z0 F5000
G01 X264.676 Y25 Z5 F1000
G01 X264.676 Y0 Z0 F1000
G01 A97.66 F2000
G01 X265.0 Y0 Z0 F5000
G01 X265.0 Y25 Z5 F1000
G01 X265.0 Y0 Z0 F1000
G01 X264.06 Y0 Z0 F5000
G01 X264.06 Y25 Z5 F1000
G01 X264.06 Y0 Z0 F1000
G01 X1.215 Y0 Z0 F5000
G01 X1.215 Y25 Z5 F1000
G01 X1.215 Y0 Z0 F1000
G01 X0.418 Y0 Z0 F5000
G01 X0.418 Y25 Z5 F1000
G01 X0.418 Y0 Z0 F1000
G01 A99.574 F2000
G01 X0.102 Y0 Z0 F5000
G01 X0.102 Y25 Z5 F1000
G01 X0.102 Y0 Z0 F1000
G01 X1.481 Y0 Z0 F5000
G01 X1.481 Y25 Z5 F1000
G01 X1.481 Y0 Z0 F1000
G01 X264.39 Y0 Z0 F5000
G01 X264.39 Y25 Z5 F1000
G01 X264.39 Y0 Z0 F1000
G01 X264.742 Y0 Z0 F5000
G01 X264.742 Y25 Z5 F1000
G01 X264.742 Y0 Z0 F1000
G01 A101.489 F2000
G01 X265.612 Y0 Z0 F5000
G01 X265.612 Y25 Z5 F1000
G01 X265.612 Y0 Z0 F1000
G01 X264.922 Y0 Z0 F5000
G01 X264.922 Y25 Z5 F1000
G01 X264.922 Y0 Z0 F1000
G01 X1.102 Y0 Z0 F5000
G01 X1.102 Y25 Z5 F1000
G01 X1.102 Y0 Z0 F1000
G01 X0.854 Y0 Z0 F5000
G01 X0.854 Y25 Z5 F1000
G01 X0.854 Y0 Z0 F1000
G01 A103.404 F2000
G01 X-0.104 Y0 Z0 F5000
G01 X-0.104 Y25 Z5 F1000
G01 X-0.104 Y0 Z0 F1000
G01 X1.282 Y0 Z0 F5000
G01 X1.282 Y25 Z5 F1000
G01 X1.282 Y0 Z0 F1000
G01 X263.823 Y0 Z0 F5000
G01 X263.823 Y25 Z5 F1000
G01 X263.823 Y0 Z0 F1000
G01 X265.126 Y0 Z0 F5000
G01 X265.126 Y25 Z5 F1000
G01 X265.126 Y0 Z0 F1000
G01 A105.319 F2000
G01 X265.507 Y0 Z0 F5000
G01 X265.507 Y25 Z5 F1000
G01 X265.507 Y0 Z0 F1000
G01 X264.104 Y0 Z0 F5000
G01 X264.104 Y25 Z5 F1000
G01 X264.104 Y0 Z0 F1000
G01 X1.76 Y0 Z0 F5000
G01 X1.76 Y25 Z5 F1000
G01 X1.76 Y0 Z0 F1000
G01 X0.823 Y0 Z0 F5000
G01 X0.823 Y25 Z5 F1000
G01 X0.823 Y0 Z0 F1000
G01 A107.234 F2000
G01 X-0.017 Y0 Z0 F5000
G01 X-0.017 Y25 Z5 F1000
G01 X-0.017 Y0 Z0 F1000
G01 X0.888 Y0 Z0 F5000
G01 X0.888 Y25 Z5 F1000
G01 X0.888 Y0 Z0 F1000
G01 X264.447 Y0 Z0 F5000
G01 X264.447 Y25 Z5 F1000
G01 X264.447 Y0 Z0 F1000
G01 X264.874 Y0 Z0 F5000
G01 X264.874 Y25 Z5 F1000
G01 X264.874 Y0 Z0 F1000
G01 A109.149 F2000
G01 X265.88 Y0 Z0 F5000
G01 X265.88 Y25 Z5 F1000
G01 X265.88 Y0 Z0 F1000
G01 X264.419 Y0 Z0 F5000
G01 X264.419 Y25 Z5 F1000
G01 X264.419 Y0 Z0 F1000
G01 X1.374 Y0 Z0 F5000
G01 X1.374 Y25 Z5 F1000
G01 X1.374 Y0 Z0 F1000
G01 X0.361 Y0 Z0 F5000
G01 X0.361 Y25 Z5 F1000
G01 X0.361 Y0 Z0 F1000
G01 A111.064 F2000
G01 X-0.44 Y0 Z0 F5000
G01 X-0.44 Y25 Z5 F1000
G01 X-0.44 Y0 Z0 F1000
G01 X0.777 Y0 Z0 F5000
G01 X0.777 Y25 Z5 F1000
G01 X0.777 Y0 Z0 F1000
G01 X263.729 Y0 Z0 F5000
G01 X263.729 Y25 Z5 F1000
G01 X263.729 Y0 Z0 F1000
G01 X264.562 Y0 Z0 F5000
G01 X264.562 Y25 Z5 F1000
G01 X264.562 Y0 Z0 F1000
G01 A112.979 F2000
G01 X265.542 Y0 Z0 F5000
G01 X265.542 Y25 Z5 F1000
G01 X265.542 Y0 Z0 F1000
G01 X264.442 Y0 Z0 F5000
G01 X264.442 Y25 Z5 F1000
G01 X264.442 Y0 Z0 F1000
G01 X1.025 Y0 Z0 F5000
G01 X1.025 Y25 Z5 F1000
G01 X1.025 Y0 Z0 F1000
G01 X0.156 Y0 Z0 F5000
G01 X0.156 Y25 Z5 F1000
G01 X0.156 Y0 Z0 F1000
G01 A114.894 F2000
G01 X0.419 Y0 Z0 F5000
G01 X0.419 Y25 Z5 F1000
G01 X0.419 Y0 Z0 F1000
G01 X0.634 Y0 Z0 F5000
G01 X0.634 Y25 Z5 F1000
G01 X0.634 Y0 Z0 F1000
G01 X263.873 Y0 Z0 F5000
G01 X263.873 Y25 Z5 F1000
G01 X263.873 Y0 Z0 F1000
G01 X265.451 Y0 Z0 F5000
G01 X265.451 Y25 Z5 F1000
G01 X265.451 Y0 Z0 F1000
G01 A116.809 F2000
G01 X265.113 Y0 Z0 F5000
G01 X265.113 Y25 Z5 F1000
G01 X265.113 Y0 Z0 F1000
G01 X264.41 Y0 Z0 F5000
G01 X264.41 Y25 Z5 F1000
G01 X264.41 Y0 Z0 F1000
G01 X1.801 Y0 Z0 F5000
G01 X1.801 Y25 Z5 F1000
G01 X1.801 Y0 Z0 F1000
G01 X0.019 Y0 Z0 F5000
G01 X0.019 Y25 Z5 F1000
G01 X0.019 Y0 Z0 F1000
G01 A118.723 F2000
G01 X-0.432 Y0 Z0 F5000
G01 X-0.432 Y25 Z5 F1000
G01 X-0.432 Y0 Z0 F1000
G01 X1.43 Y0 Z0 F5000
G01 X1.43 Y25 Z5 F1000
G01 X1.43 Y0 Z0 F1000
G01 X264.184 Y0 Z0 F5000
G01 X264.184 Y25 Z5 F1000
G01 X264.184 Y0 Z0 F1000
G01 X264.761 Y0 Z0 F5000
G01 X264.761 Y25 Z5 F1000
G01 X264.761 Y0 Z0 F1000
G01 A120.638 F2000
G01 X265.48 Y0 Z0 F5000
G01 X265.48 Y25 Z5 F1000
G01 X265.48 Y0 Z0 F1000
G01 X264.249 Y0 Z0 F5000
G01 X264.249 Y25 Z5 F1000
G01 X264.249 Y0 Z0 F1000
G01 X1.892 Y0 Z0 F5000
G01 X1.892 Y25 Z5 F1000
G01 X1.892 Y0 Z0 F1000
G01 X0.95 Y0 Z0 F5000
G01 X0.95 Y25 Z5 F1000
G01 X0.95 Y0 Z0 F1000
G01 A122.553 F2000
G01 X-0.429 Y0 Z0 F5000
G01 X-0.429 Y25 Z5 F1000
G01 X-0.429 Y0 Z0 F1000
G01 X1.024 Y0 Z0 F5000
G01 X1.024 Y25 Z5 F1000
G01 X1.024 Y0 Z0 F1000
G01 X263.684 Y0 Z0 F5000
G01 X263.684 Y25 Z5 F1000
G01 X263.684 Y0 Z0 F1000
G01 X264.904 Y0 Z0 F5000
G01 X264.904 Y25 Z5 F1000
G01 X264.904 Y0 Z0 F1000
G01 A124.468 F2000
G01 X265.741 Y0 Z0 F5000
G01 X265.741 Y25 Z5 F1000
G01 X265.741 Y0 Z0 F1000
G01 X264.713 Y0 Z0 F5000
G01 X264.713 Y25 Z5 F1000
G01 X264.713 Y0 Z0 F1000
G01 X1.19 Y0 Z0 F5000
G01 X1.19 Y25 Z5 F1000
G01 X1.19 Y0 Z0 F1000
G01 X0.332 Y0 Z0 F5000
G01 X0.332 Y25 Z5 F1000
G01 X0.332 Y0 Z0 F1000
G01 A126.383 F2000
G01 X-0.075 Y0 Z0 F5000
G01 X-0.075 Y25 Z5 F1000
G01 X-0.075 Y0 Z0 F1000
G01 X0.886 Y0 Z0 F5000
G01 X0.886 Y25 Z5 F1000
G01 X0.886 Y0 Z0 F1000
G01 X264.182 Y0 Z0 F5000
G01 X264.182 Y25 Z5 F1000
G01 X264.182 Y0 Z0 F1000
G01 X265.288 Y0 Z0 F5000
G01 X265.288 Y25 Z5 F1000
G01 X265.288 Y0 Z0 F1000
G01 A128.298 F2000
G01 X265.335 Y0 Z0 F5000
G01 X265.335 Y25 Z5 F1000
G01 X265.335 Y0 Z0 F1000
G01 X264.441 Y0 Z0 F5000
G01 X264.441 Y25 Z5 F1000
G01 X264.441 Y0 Z0 F1000
G01 X1.067 Y0 Z0 F5000
G01 X1.067 Y25 Z5 F1000
G01 X1.067 Y0 Z0 F1000
G01 X0.367 Y0 Z0 F5000
G01 X0.367 Y25 Z5 F1000
G01 X0.367 Y0 Z0 F1000
G01 A130.213 F2000
G01 X0.447 Y0 Z0 F5000
G01 X0.447 Y25 Z5 F1000
G01 X0.447 Y0 Z0 F1000
G01 X1.002 Y0 Z0 F5000
G01 X1.002 Y25 Z5 F1000
G01 X1.002 Y0 Z0 F1000
G01 X264.057 Y0 Z0 F5000
G01 X264.057 Y25 Z5 F1000
G01 X264.057 Y0 Z0 F1000
G01 X265.106 Y0 Z0 F5000
G01 X265.106 Y25 Z5 F1000
G01 X265.106 Y0 Z0 F1000
G01 A132.128 F2000
G01 X265.567 Y0 Z0 F5000
G01 X265.567 Y25 Z5 F1000
G01 X265.567 Y0 Z0 F1000
G01 X264.804 Y0 Z0 F5000
G01 X264.804 Y25 Z5 F1000
G01 X264.804 Y0 Z0 F1000
G01 X1.26 Y0 Z0 F5000
G01 X1.26 Y25 Z5 F1000
G01 X1.26 Y0 Z0 F1000
G01 X0.317 Y0 Z0 F5000
G01 X0.317 Y25 Z5 F1000
G01 X0.317 Y0 Z0 F1000
G01 A134.043 F2000
G01 X0.387 Y0 Z0 F5000
G01 X0.387 Y25 Z5 F1000
G01 X0.387 Y0 Z0 F1000
G01 X1.0 Y0 Z0 F5000
G01 X1.0 Y25 Z5 F1000
G01 X1.0 Y0 Z0 F1000
G01 X264.46 Y0 Z0 F5000
G01 X264.46 Y25 Z5 F1000
G01 X264.46 Y0 Z0 F1000
G01 X264.639 Y0 Z0 F5000
G01 X264.639 Y25 Z5 F1000
G01 X264.639 Y0 Z0 F1000
G01 A135.957 F2000
G01 X265.783 Y0 Z0 F5000
G01 X265.783 Y25 Z5 F1000
G01 X265.783 Y0 Z0 F1000
G01 X264.473 Y0 Z0 F5000
G01 X264.473 Y25 Z5 F1000
G01 X264.473 Y0 Z0 F1000
G01 X1.474 Y0 Z0 F5000
G01 X1.474 Y25 Z5 F1000
G01 X1.474 Y0 Z0 F1000
G01 X0.881 Y0 Z0 F5000
G01 X0.881 Y25 Z5 F1000
G01 X0.881 Y0 Z0 F1000
G01 A137.872 F2000
G01 X-0.369 Y0 Z0 F5000
G01 X-0.369 Y25 Z5 F1000
G01 X-0.369 Y0 Z0 F1000
G01 X1.014 Y0 Z0 F5000
G01 X1.014 Y25 Z5 F1000
G01 X1.014 Y0 Z0 F1000
G01 X263.75 Y0 Z0 F5000
G01 X263.75 Y25 Z5 F1000
G01 X263.75 Y0 Z0 F1000
G01 X264.843 Y0 Z0 F5000
G01 X264.843 Y25 Z5 F1000
G01 X264.843 Y0 Z0 F1000
G01 A139.787 F2000
G01 X265.817 Y0 Z0 F5000
G01 X265.817 Y25 Z5 F1000
G01 X265.817 Y0 Z0 F1000
G01 X264.398 Y0 Z0 F5000
G01 X264.398 Y25 Z5 F1000
G01 X264.398 Y0 Z0 F1000
G01 X1.784 Y0 Z0 F5000
G01 X1.784 Y25 Z5 F1000
G01 X1.784 Y0 Z0 F1000
G01 X0.013 Y0 Z0 F5000
G01 X0.013 Y25 Z5 F1000
G01 X0.013 Y0 Z0 F1000
G01 A141.702 F2000
G01 X0.499 Y0 Z0 F5000
G01 X0.499 Y25 Z5 F1000
G01 X0.499 Y0 Z0 F1000
G01 X1.455 Y0 Z0 F5000
G01 X1.455 Y25 Z5 F1000
G01 X1.455 Y0 Z0 F1000
G01 X264.179 Y0 Z0 F5000
G01 X264.179 Y25 Z5 F1000
G01 X264.179 Y0 Z0 F1000
G01 X264.697 Y0 Z0 F5000
G01 X264.697 Y25 Z5 F1000
G01 X264.697 Y0 Z0 F1000
G01 A143.617 F2000
G01 X265.657 Y0 Z0 F5000
G01 X265.657 Y25 Z5 F1000
G01 X265.657 Y0 Z0 F1000
G01 X264.19 Y0 Z0 F5000
G01 X264.19 Y25 Z5 F1000
G01 X264.19 Y0 Z0 F1000
G01 X1.373 Y0 Z0 F5000
G01 X1.373 Y25 Z5 F1000
G01 X1.373 Y0 Z0 F1000
G01 X0.035 Y0 Z0 F5000
G01 X0.035 Y25 Z5 F1000
G01 X0.035 Y0 Z0 F1000
G01 A145.532 F2000
G01 X-0.43 Y0 Z0 F5000
G01 X-0.43 Y25 Z5 F1000
G01 X-0.43 Y0 Z0 F1000
G01 X0.658 Y0 Z0 F5000
G01 X0.658 Y25 Z5 F1000
G01 X0.658 Y0 Z0 F1000
G01 X263.682 Y0 Z0 F5000
G01 X263.682 Y25 Z5 F1000
G01 X263.682 Y0 Z0 F1000
G01 X265.338 Y0 Z0 F5000
G01 X265.338 Y25 Z5 F1000
G01 X265.338 Y0 Z0 F1000
G01 A147.447 F2000
G01 X265.244 Y0 Z0 F5000
G01 X265.244 Y25 Z5 F1000
G01 X265.244 Y0 Z0 F1000
G01 X264.825 Y0 Z0 F5000
G01 X264.825 Y25 Z5 F1000
G01 X264.825 Y0 Z0 F1000
G01 X1.006 Y0 Z0 F5000
G01 X1.006 Y25 Z5 F1000
G01 X1.006 Y0 Z0 F1000
G01 X0.058 Y0 Z0 F5000
G01 X0.058 Y25 Z5 F1000
G01 X0.058 Y0 Z0 F1000
G01 A149.362 F2000
G01 X-0.439 Y0 Z0 F5000
G01 X-0.439 Y25 Z5 F1000
G01 X-0.439 Y0 Z0 F1000
G01 X1.432 Y0 Z0 F5000
G01 X1.432 Y25 Z5 F1000
G01 X1.432 Y0 Z0 F1000
G01 X264.317 Y0 Z0 F5000
G01 X264.317 Y25 Z5 F1000
G01 X264.317 Y0 Z0 F1000
G01 X264.516 Y0 Z0 F5000
G01 X264.516 Y25 Z5 F1000
G01 X264.516 Y0 Z0 F1000
G01 A151.277 F2000
G01 X265.932 Y0 Z0 F5000
G01 X265.932 Y25 Z5 F1000
G01 X265.932 Y0 Z0 F1000
G01 X264.227 Y0 Z0 F5000
G01 X264.227 Y25 Z5 F1000
G01 X264.227 Y0 Z0 F1000
G01 X1.265 Y0 Z0 F5000
G01 X1.265 Y25 Z5 F1000
G01 X1.265 Y0 Z0 F1000
G01 X0.584 Y0 Z0 F5000
G01 X0.584 Y25 Z5 F1000
G01 X0.584 Y0 Z0 F1000
G01 A153.191 F2000
G01 X-0.295 Y0 Z0 F5000
G01 X-0.295 Y25 Z5 F1000
G01 X-0.295 Y0 Z0 F1000
G01 X1.475 Y0 Z0 F5000
G01 X1.475 Y25 Z5 F1000
G01 X1.475 Y0 Z0 F1000
G01 X263.866 Y0 Z0 F5000
G01 X263.866 Y25 Z5 F1000
G01 X263.866 Y0 Z0 F1000
G01 X265.071 Y0 Z0 F5000
G01 X265.071 Y25 Z5 F1000
G01 X265.071 Y0 Z0 F1000
G01 A155.106 F2000
G01 X265.572 Y0 Z0 F5000
G01 X265.572 Y25 Z5 F1000
G01 X265.572 Y0 Z0 F1000
G01 X264.282 Y0 Z0 F5000
G01 X264.282 Y25 Z5 F1000
G01 X264.282 Y0 Z0 F1000
G01 X1.735 Y0 Z0 F5000
G01 X1.735 Y25 Z5 F1000
G01 X1.735 Y0 Z0 F1000
G01 X0.992 Y0 Z0 F5000
G01 X0.992 Y25 Z5 F1000
G01 X0.992 Y0 Z0 F1000
G01 A157.021 F2000
G01 X0.096 Y0 Z0 F5000
G01 X0.096 Y25 Z5 F1000
G01 X0.096 Y0 Z0 F1000
G01 X0.584 Y0 Z0 F5000
G01 X0.584 Y25 Z5 F1000
G01 X0.584 Y0 Z0 F1000
G01 X264.308 Y0 Z0 F5000
G01 X264.308 Y25 Z5 F1000
G01 X264.308 Y0 Z0 F1000
G01 X265.167 Y0 Z0 F5000
G01 X265.167 Y25 Z5 F1000
G01 X265.167 Y0 Z0 F1000
G01 A158.936 F2000
G01 X265.49 Y0 Z0 F5000
G01 X265.49 Y25 Z5 F1000
G01 X265.49 Y0 Z0 F1000
G01 X264.654 Y0 Z0 F5000
G01 X264.654 Y25 Z5 F1000
G01 X264.654 Y0 Z0 F1000
G01 X1.261 Y0 Z0 F5000
G01 X1.261 Y25 Z5 F1000
G01 X1.261 Y0 Z0 F1000
G01 X0.304 Y0 Z0 F5000
G01 X0.304 Y25 Z5 F1000
G01 X0.304 Y0 Z0 F1000
G01 A160.851 F2000
G01 X0.015 Y0 Z0 F5000
G01 X0.015 Y25 Z5 F1000
G01 X0.015 Y0 Z0 F1000
G01 X0.568 Y0 Z0 F5000
G01 X0.568 Y25 Z5 F1000
G01 X0.568 Y0 Z0 F1000
G01 X264.088 Y0 Z0 F5000
G01 X264.088 Y25 Z5 F1000
G01 X264.088 Y0 Z0 F1000
G01 X264.682 Y0 Z0 F5000
G01 X264.682 Y25 Z5 F1000
G01 X264.682 Y0 Z0 F1000
G01 A162.766 F2000
G01 X265.254 Y0 Z0 F5000
G01 X265.254 Y25 Z5 F1000
G01 X265.254 Y0 Z0 F1000
G01 X264.9 Y0 Z0 F5000
G01 X264.9 Y25 Z5 F1000
G01 X264.9 Y0 Z0 F1000
G01 X1.588 Y0 Z0 F5000
G01 X1.588 Y25 Z5 F1000
G01 X1.588 Y0 Z0 F1000
G01 X0.244 Y0 Z0 F5000
G01 X0.244 Y25 Z5 F1000
G01 X0.244 Y0 Z0 F1000
G01 A164.681 F2000
G01 X0.199 Y0 Z0 F5000
G01 X0.199 Y25 Z5 F1000
G01 X0.199 Y0 Z0 F1000
G01 X1.497 Y0 Z0 F5000
G01 X1.497 Y25 Z5 F1000
G01 X1.497 Y0 Z0 F1000
G01 X264.398 Y0 Z0 F5000
G01 X264.398 Y25 Z5 F1000
G01 X264.398 Y0 Z0 F1000
G01 X265.299 Y0 Z0 F5000
G01 X265.299 Y25 Z5 F1000
G01 X265.299 Y0 Z0 F1000
G01 A166.596 F2000
G01 X265.333 Y0 Z0 F5000
G01 X265.333 Y25 Z5 F1000
G01 X265.333 Y0 Z0 F1000
G01 X264.583 Y0 Z0 F5000
G01 X264.583 Y25 Z5 F1000
G01 X264.583 Y0 Z0 F1000
G01 X1.585 Y0 Z0 F5000
G01 X1.585 Y25 Z5 F1000
G01 X1.585 Y0 Z0 F1000
G01 X0.088 Y0 Z0 F5000
G01 X0.088 Y25 Z5 F1000
G01 X0.088 Y0 Z0 F1000
G01 A168.511 F2000
G01 X0.193 Y0 Z0 F5000
G01 X0.193 Y25 Z5 F1000
G01 X0.193 Y0 Z0 F1000
G01 X1.021 Y0 Z0 F5000
G01 X1.021 Y25 Z5 F1000
G01 X1.021 Y0 Z0 F1000
G01 X264.022 Y0 Z0 F5000
G01 X264.022 Y25 Z5 F1000
G01 X264.022 Y0 Z0 F1000
G01 X265.237 Y0 Z0 F5000
G01 X265.237 Y25 Z5 F1000
G01 X265.237 Y0 Z0 F1000
G01 A170.426 F2000
G01 X265.077 Y0 Z0 F5000
G01 X265.077 Y25 Z5 F1000
G01 X265.077 Y0 Z0 F1000
G01 X264.213 Y0 Z0 F5000
G01 X264.213 Y25 Z5 F1000
G01 X264.213 Y0 Z0 F1000
G01 X1.988 Y0 Z0 F5000
G01 X1.988 Y25 Z5 F1000
G01 X1.988 Y0 Z0 F1000
G01 X0.3 Y0 Z0 F5000
G01 X0.3 Y25 Z5 F1000
G01 X0.3 Y0 Z0 F1000
G01 A172.34 F2000
G01 X-0.245 Y0 Z0 F5000
G01 X-0.245 Y25 Z5 F1000
G01 X-0.245 Y0 Z0 F1000
G01 X0.572 Y0 Z0 F5000
G01 X0.572 Y25 Z5 F1000
G01 X0.572 Y0 Z0 F1000
G01 X263.812 Y0 Z0 F5000
G01 X263.812 Y25 Z5 F1000
G01 X263.812 Y0 Z0 F1000
G01 X265.061 Y0 Z0 F5000
G01 X265.061 Y25 Z5 F1000
G01 X265.061 Y0 Z0 F1000
G01 A174.255 F2000
G01 X265.039 Y0 Z0 F5000
G01 X265.039 Y25 Z5 F1000
G01 X265.039 Y0 Z0 F1000
G01 X264.289 Y0 Z0 F5000
G01 X264.289 Y25 Z5 F1000
G01 X264.289 Y0 Z0 F1000
G01 X1.256 Y0 Z0 F5000
G01 X1.256 Y25 Z5 F1000
G01 X1.256 Y0 Z0 F1000
G01 X0.154 Y0 Z0 F5000
G01 X0.154 Y25 Z5 F1000
G01 X0.154 Y0 Z0 F1000
G01 A176.17 F2000
G01 X0.292 Y0 Z0 F5000
G01 X0.292 Y25 Z5 F1000
G01 X0.292 Y0 Z0 F1000
G01 X1.462 Y0 Z0 F5000
G01 X1.462 Y25 Z5 F1000
G01 X1.462 Y0 Z0 F1000
G01 X264.416 Y0 Z0 F5000
G01 X264.416 Y25 Z5 F1000
G01 X264.416 Y0 Z0 F1000
G01 X264.941 Y0 Z0 F5000
G01 X264.941 Y25 Z5 F1000
G01 X264.941 Y0 Z0 F1000
G01 A178.085 F2000
G01 X265.066 Y0 Z0 F5000
G01 X265.066 Y25 Z5 F1000
G01 X265.066 Y0 Z0 F1000
G01 X264.349 Y0 Z0 F5000
G01 X264.349 Y25 Z5 F1000
G01 X264.349 Y0 Z0 F1000
G01 X1.525 Y0 Z0 F5000
G01 X1.525 Y25 Z5 F1000
G01 X1.525 Y0 Z0 F1000
G01 X0.38 Y0 Z0 F5000
G01 X0.38 Y25 Z5 F1000
G01 X0.38 Y0 Z0 F1000
G01 A180.0 F2000
G01 X0.231 Y0 Z0 F5000
G01 X0.231 Y25 Z5 F1000
G01 X0.231 Y0 Z0 F1000
G01 X1.243 Y0 Z0 F5000
G01 X1.243 Y25 Z5 F1000
G01 X1.243 Y0 Z0 F1000
G01 X264.397 Y0 Z0 F5000
G01 X264.397 Y25 Z5 F1000
G01 X264.397 Y0 Z0 F1000
G01 X264.969 Y0 Z0 F5000
G01 X264.969 Y25 Z5 F1000
G01 X264.969 Y0 Z0 F1000
G01 A181.915 F2000
G01 X265.238 Y0 Z0 F5000
G01 X265.238 Y25 Z5 F1000
G01 X265.238 Y0 Z0 F1000
G01 X264.911 Y0 Z0 F5000
G01 X264.911 Y25 Z5 F1000
G01 X264.911 Y0 Z0 F1000
G01 X1.884 Y0 Z0 F5000
G01 X1.884 Y25 Z5 F1000
G01 X1.884 Y0 Z0 F1000
G01 X0.127 Y0 Z0 F5000
G01 X0.127 Y25 Z5 F1000
G01 X0.127 Y0 Z0 F1000
G01 A183.83 F2000
G01 X-0.289 Y0 Z0 F5000
G01 X-0.289 Y25 Z5 F1000
G01 X-0.289 Y0 Z0 F1000
G01 X1.16 Y0 Z0 F5000
G01 X1.16 Y25 Z5 F1000
G01 X1.16 Y0 Z0 F1000
G01 X264.321 Y0 Z0 F5000
G01 X264.321 Y25 Z5 F1000
G01 X264.321 Y0 Z0 F1000
G01 X265.46 Y0 Z0 F5000
G01 X265.46 Y25 Z5 F1000
G01 X265.46 Y0 Z0 F1000
G01 A185.745 F2000
G01 X265.021 Y0 Z0 F5000
G01 X265.021 Y25 Z5 F1000
G01 X265.021 Y0 Z0 F1000
G01 X264.189 Y0 Z0 F5000
G01 X264.189 Y25 Z5 F1000
G01 X264.189 Y0 Z0 F1000
G01 X1.423 Y0 Z0 F5000
G01 X1.423 Y25 Z5 F1000
G01 X1.423 Y0 Z0 F1000
G01 X0.551 Y0 Z0 F5000
G01 X0.551 Y25 Z5 F1000
G01 X0.551 Y0 Z0 F1000
G01 A187.66 F2000
G01 X0.278 Y0 Z0 F5000
G01 X0.278 Y25 Z5 F1000
G01 X0.278 Y0 Z0 F1000
G01 X1.057 Y0 Z0 F5000
G01 X1.057 Y25 Z5 F1000
G01 X1.057 Y0 Z0 F1000
G01 X264.019 Y0 Z0 F5000
G01 X264.019 Y25 Z5 F1000
G01 X264.019 Y0 Z0 F1000
G01 X264.739 Y0 Z0 F5000
G01 X264.739 Y25 Z5 F1000
G01 X264.739 Y0 Z0 F1000
G01 A189.574 F2000
G01 X265.65 Y0 Z0 F5000
G01 X265.65 Y25 Z5 F1000
G01 X265.65 Y0 Z0 F1000
G01 X264.582 Y0 Z0 F5000
G01 X264.582 Y25 Z5 F1000
G01 X264.582 Y0 Z0 F1000
G01 X1.946 Y0 Z0 F5000
G01 X1.946 Y25 Z5 F1000
G01 X1.946 Y0 Z0 F1000
G01 X0.19 Y0 Z0 F5000
G01 X0.19 Y25 Z5 F1000
G01 X0.19 Y0 Z0 F1000
G01 A191.489 F2000
G01 X-0.375 Y0 Z0 F5000
G01 X-0.375 Y25 Z5 F1000
G01 X-0.375 Y0 Z0 F1000
G01 X0.854 Y0 Z0 F5000
G01 X0.854 Y25 Z5 F1000
G01 X0.854 Y0 Z0 F1000
G01 X263.826 Y0 Z0 F5000
G01 X263.826 Y25 Z5 F1000
G01 X263.826 Y0 Z0 F1000
G01 X264.953 Y0 Z0 F5000
G01 X264.953 Y25 Z5 F1000
G01 X264.953 Y0 Z0 F1000
G01 A193.404 F2000
G01 X265.172 Y0 Z0 F5000
G01 X265.172 Y25 Z5 F1000
G01 X265.172 Y0 Z0 F1000
G01 X264.707 Y0 Z0 F5000
G01 X264.707 Y25 Z5 F1000
G01 X264.707 Y0 Z0 F1000
G01 X1.823 Y0 Z0 F5000
G01 X1.823 Y25 Z5 F1000
G01 X1.823 Y0 Z0 F1000
G01 X0.006 Y0 Z0 F5000
G01 X0.006 Y25 Z5 F1000
G01 X0.006 Y0 Z0 F1000
G01 A195.319 F2000
G01 X0.41 Y0 Z0 F5000
G01 X0.41 Y25 Z5 F1000
G01 X0.41 Y0 Z0 F1000
G01 X0.591 Y0 Z0 F5000
G01 X0.591 Y25 Z5 F1000
G01 X0.591 Y0 Z0 F1000
G01 X263.806 Y0 Z0 F5000
G01 X263.806 Y25 Z5 F1000
G01 X263.806 Y0 Z0 F1000
G01 X264.986 Y0 Z0 F5000
G01 X264.986 Y25 Z5 F1000
G01 X264.986 Y0 Z0 F1000
G01 A197.234 F2000
G01 X265.424 Y0 Z0 F5000
G01 X265.424 Y25 Z5 F1000
G01 X265.424 Y0 Z0 F1000
G01 X264.215 Y0 Z0 F5000
G01 X264.215 Y25 Z5 F1000
G01 X264.215 Y0 Z0 F1000
G01 X1.729 Y0 Z0 F5000
G01 X1.729 Y25 Z5 F1000
G01 X1.729 Y0 Z0 F1000
G01 X0.839 Y0 Z0 F5000
G01 X0.839 Y25 Z5 F1000
G01 X0.839 Y0 Z0 F1000
G01 A199.149 F2000
G01 X-0.272 Y0 Z0 F5000
G01 X-0.272 Y25 Z5 F1000
G01 X-0.272 Y0 Z0 F1000
G01 X0.665 Y0 Z0 F5000
G01 X0.665 Y25 Z5 F1000
G01 X0.665 Y0 Z0 F1000
G01 X264.019 Y0 Z0 F5000
G01 X264.019 Y25 Z5 F1000
G01 X264.019 Y0 Z0 F1000
G01 X264.649 Y0 Z0 F5000
G01 X264.649 Y25 Z5 F1000
G01 X264.649 Y0 Z0 F1000
G01 A201.064 F2000
G01 X265.94 Y0 Z0 F5000
G01 X265.94 Y25 Z5 F1000
G01 X265.94 Y0 Z0 F1000
G01 X264.851 Y0 Z0 F5000
G01 X264.851 Y25 Z5 F1000
G01 X264.851 Y0 Z0 F1000
G01 X1.835 Y0 Z0 F5000
G01 X1.835 Y25 Z5 F1000
G01 X1.835 Y0 Z0 F1000
G01 X0.412 Y0 Z0 F5000
G01 X0.412 Y25 Z5 F1000
G01 X0.412 Y0 Z0 F1000
G01 A202.979 F2000
G01 X0.287 Y0 Z0 F5000
G01 X0.287 Y25 Z5 F1000
G01 X0.287 Y0 Z0 F1000
G01 X0.892 Y0 Z0 F5000
G01 X0.892 Y25 Z5 F1000
G01 X0.892 Y0 Z0 F1000
G01 X263.958 Y0 Z0 F5000
G01 X263.958 Y25 Z5 F1000
G01 X263.958 Y0 Z0 F1000
G01 X264.606 Y0 Z0 F5000
G01 X264.606 Y25 Z5 F1000
G01 X264.606 Y0 Z0 F1000
G01 A204.894 F2000
G01 X265.037 Y0 Z0 F5000
G01 X265.037 Y25 Z5 F1000
G01 X265.037 Y0 Z0 F1000
G01 X264.67 Y0 Z0 F5000
G01 X264.67 Y25 Z5 F1000
G01 X264.67 Y0 Z0 F1000
G01 X1.193 Y0 Z0 F5000
G01 X1.193 Y25 Z5 F1000
G01 X1.193 Y0 Z0 F1000
G01 X0.956 Y0 Z0 F5000
G01 X0.956 Y25 Z5 F1000
G01 X0.956 Y0 Z0 F1000
G01 A206.809 F2000
G01 X0.065 Y0 Z0 F5000
G01 X0.065 Y25 Z5 F1000
G01 X0.065 Y0 Z0 F1000
G01 X1.076 Y0 Z0 F5000
G01 X1.076 Y25 Z5 F1000
G01 X1.076 Y0 Z0 F1000
G01 X264.395 Y0 Z0 F5000
G01 X264.395 Y25 Z5 F1000
G01 X264.395 Y0 Z0 F1000
G01 X264.798 Y0 Z0 F5000
G01 X264.798 Y25 Z5 F1000
G01 X264.798 Y0 Z0 F1000
G01 A208.723 F2000
G01 X265.011 Y0 Z0 F5000
G01 X265.011 Y25 Z5 F1000
G01 X265.011 Y0 Z0 F1000
G01 X264.22 Y0 Z0 F5000
G01 X264.22 Y25 Z5 F1000
G01 X264.22 Y0 Z0 F1000
G01 X1.458 Y0 Z0 F5000
G01 X1.458 Y25 Z5 F1000
G01 X1.458 Y0 Z0 F1000
G01 X0.152 Y0 Z0 F5000
G01 X0.152 Y25 Z5 F1000
G01 X0.152 Y0 Z0 F1000
G01 A210.638 F2000
G01 X-0.219 Y0 Z0 F5000
G01 X-0.219 Y25 Z5 F1000
G01 X-0.219 Y0 Z0 F1000
G01 X1.238 Y0 Z0 F5000
G01 X1.238 Y25 Z5 F1000
G01 X1.238 Y0 Z0 F1000
G01 X263.877 Y0 Z0 F5000
G01 X263.877 Y25 Z5 F1000
G01 X263.877 Y0 Z0 F1000
G01 X264.842 Y0 Z0 F5000
G01 X264.842 Y25 Z5 F1000
G01 X264.842 Y0 Z0 F1000
G01 A212.553 F2000
G01 X265.234 Y0 Z0 F5000
G01 X265.234 Y25 Z5 F1000
G01 X265.234 Y0 Z0 F1000
G01 X264.532 Y0 Z0 F5000
G01 X264.532 Y25 Z5 F1000
G01 X264.532 Y0 Z0 F1000
G01 X1.995 Y0 Z0 F5000
G01 X1.995 Y25 Z5 F1000
G01 X1.995 Y0 Z0 F1000
G01 X0.169 Y0 Z0 F5000
G01 X0.169 Y25 Z5 F1000
G01 X0.169 Y0 Z0 F1000
G01 A214.468 F2000
G01 X0.344 Y0 Z0 F5000
G01 X0.344 Y25 Z5 F1000
G01 X0.344 Y0 Z0 F1000
G01 X1.275 Y0 Z0 F5000
G01 X1.275 Y25 Z5 F1000
G01 X1.275 Y0 Z0 F1000
G01 X264.101 Y0 Z0 F5000
G01 X264.101 Y25 Z5 F1000
G01 X264.101 Y0 Z0 F1000
G01 X265.043 Y0 Z0 F5000
G01 X265.043 Y25 Z5 F1000
G01 X265.043 Y0 Z0 F1000
G01 A216.383 F2000
G01 X265.52 Y0 Z0 F5000
G01 X265.52 Y25 Z5 F1000
G01 X265.52 Y0 Z0 F1000
G01 X264.103 Y0 Z0 F5000
G01 X264.103 Y25 Z5 F1000
G01 X264.103 Y0 Z0 F1000
G01 X1.569 Y0 Z0 F5000
G01 X1.569 Y25 Z5 F1000
G01 X1.569 Y0 Z0 F1000
G01 X0.989 Y0 Z0 F5000
G01 X0.989 Y25 Z5 F1000
G01 X0.989 Y0 Z0 F1000
G01 A218.298 F2000
G01 X0.229 Y0 Z0 F5000
G01 X0.229 Y25 Z5 F1000
G01 X0.229 Y0 Z0 F1000
G01 X0.967 Y0 Z0 F5000
G01 X0.967 Y25 Z5 F1000
G01 X0.967 Y0 Z0 F1000
G01 X263.943 Y0 Z0 F5000
G01 X263.943 Y25 Z5 F1000
G01 X263.943 Y0 Z0 F1000
G01 X265.37 Y0 Z0 F5000
G01 X265.37 Y25 Z5 F1000
G01 X265.37 Y0 Z0 F1000
G01 A220.213 F2000
G01 X265.006 Y0 Z0 F5000
G01 X265.006 Y25 Z5 F1000
G01 X265.006 Y0 Z0 F1000
G01 X264.2 Y0 Z0 F5000
G01 X264.2 Y25 Z5 F1000
G01 X264.2 Y0 Z0 F1000
G01 X1.957 Y0 Z0 F5000
G01 X1.957 Y25 Z5 F1000
G01 X1.957 Y0 Z0 F1000
G01 X0.654 Y0 Z0 F5000
G01 X0.654 Y25 Z5 F1000
G01 X0.654 Y0 Z0 F1000
G01 A222.128 F2000
G01 X0.328 Y0 Z0 F5000
G01 X0.328 Y25 Z5 F1000
G01 X0.328 Y0 Z0 F1000
G01 X1.034 Y0 Z0 F5000
G01 X1.034 Y25 Z5 F1000
G01 X1.034 Y0 Z0 F1000
G01 X263.541 Y0 Z0 F5000
G01 X263.541 Y25 Z5 F1000
G01 X263.541 Y0 Z0 F1000
G01 X265.036 Y0 Z0 F5000
G01 X265.036 Y25 Z5 F1000
G01 X265.036 Y0 Z0 F1000
G01 A224.043 F2000
G01 X265.63 Y0 Z0 F5000
G01 X265.63 Y25 Z5 F1000
G01 X265.63 Y0 Z0 F1000
G01 X264.088 Y0 Z0 F5000
G01 X264.088 Y25 Z5 F1000
G01 X264.088 Y0 Z0 F1000
G01 X1.481 Y0 Z0 F5000
G01 X1.481 Y25 Z5 F1000
G01 X1.481 Y0 Z0 F1000
G01 X0.943 Y0 Z0 F5000
G01 X0.943 Y25 Z5 F1000
G01 X0.943 Y0 Z0 F1000
G01 A225.957 F2000
G01 X-0.438 Y0 Z0 F5000
G01 X-0.438 Y25 Z5 F1000
G01 X-0.438 Y0 Z0 F1000
G01 X0.546 Y0 Z0 F5000
G01 X0.546 Y25 Z5 F1000
G01 X0.546 Y0 Z0 F1000
G01 X263.603 Y0 Z0 F5000
G01 X263.603 Y25 Z5 F1000
G01 X263.603 Y0 Z0 F1000
G01 X265.182 Y0 Z0 F5000
G01 X265.182 Y25 Z5 F1000
G01 X265.182 Y0 Z0 F1000
G01 A227.872 F2000
G01 X265.893 Y0 Z0 F5000
G01 X265.893 Y25 Z5 F1000
G01 X265.893 Y0 Z0 F1000
G01 X264.156 Y0 Z0 F5000
G01 X264.156 Y25 Z5 F1000
G01 X264.156 Y0 Z0 F1000
G01 X1.845 Y0 Z0 F5000
G01 X1.845 Y25 Z5 F1000
G01 X1.845 Y0 Z0 F1000
G01 X0.222 Y0 Z0 F5000
G01 X0.222 Y25 Z5 F1000
G01 X0.222 Y0 Z0 F1000
G01 A229.787 F2000
G01 X0.038 Y0 Z0 F5000
G01 X0.038 Y25 Z5 F1000
G01 X0.038 Y0 Z0 F1000
G01 X1.264 Y0 Z0 F5000
G01 X1.264 Y25 Z5 F1000
G01 X1.264 Y0 Z0 F1000
G01 X263.618 Y0 Z0 F5000
G01 X263.618 Y25 Z5 F1000
G01 X263.618 Y0 Z0 F1000
G01 X264.977 Y0 Z0 F5000
G01 X264.977 Y25 Z5 F1000
G01 X264.977 Y0 Z0 F1000
G01 A231.702 F2000
G01 X265.867 Y0 Z0 F5000
G01 X265.867 Y25 Z5 F1000
G01 X265.867 Y0 Z0 F1000
G01 X264.355 Y0 Z0 F5000
G01 X264.355 Y25 Z5 F1000
G01 X264.355 Y0 Z0 F1000
G01 X1.797 Y0 Z0 F5000
G01 X1.797 Y25 Z5 F1000
G01 X1.797 Y0 Z0 F1000
G01 X0.454 Y0 Z0 F5000
G01 X0.454 Y25 Z5 F1000
G01 X0.454 Y0 Z0 F1000
G01 A233.617 F2000
G01 X0.443 Y0 Z0 F5000
G01 X0.443 Y25 Z5 F1000
G01 X0.443 Y0 Z0 F1000
G01 X0.901 Y0 Z0 F5000
G01 X0.901 Y25 Z5 F1000
G01 X0.901 Y0 Z0 F1000
G01 X264.323 Y0 Z0 F5000
G01 X264.323 Y25 Z5 F1000
G01 X264.323 Y0 Z0 F1000
G01 X264.576 Y0 Z0 F5000
G01 X264.576 Y25 Z5 F1000
G01 X264.576 Y0 Z0 F1000
G01 A235.532 F2000
G01 X265.339 Y0 Z0 F5000
G01 X265.339 Y25 Z5 F1000
G01 X265.339 Y0 Z0 F1000
G01 X264.146 Y0 Z0 F5000
G01 X264.146 Y25 Z5 F1000
G01 X264.146 Y0 Z0 F1000
G01 X1.404 Y0 Z0 F5000
G01 X1.404 Y25 Z5 F1000
G01 X1.404 Y0 Z0 F1000
G01 X0.405 Y0 Z0 F5000
G01 X0.405 Y25 Z5 F1000
G01 X0.405 Y0 Z0 F1000
G01 A237.447 F2000
G01 X-0.259 Y0 Z0 F5000
G01 X-0.259 Y25 Z5 F1000
G01 X-0.259 Y0 Z0 F1000
G01 X0.919 Y0 Z0 F5000
G01 X0.919 Y25 Z5 F1000
G01 X0.919 Y0 Z0 F1000
G01 X264.182 Y0 Z0 F5000
G01 X264.182 Y25 Z5 F1000
G01 X264.182 Y0 Z0 F1000
G01 X265.078 Y0 Z0 F5000
G01 X265.078 Y25 Z5 F1000
G01 X265.078 Y0 Z0 F1000
G01 A239.362 F2000
G01 X265.243 Y0 Z0 F5000
G01 X265.243 Y25 Z5 F1000
G01 X265.243 Y0 Z0 F1000
G01 X264.711 Y0 Z0 F5000
G01 X264.711 Y25 Z5 F1000
G01 X264.711 Y0 Z0 F1000
G01 X1.709 Y0 Z0 F5000
G01 X1.709 Y25 Z5 F1000
G01 X1.709 Y0 Z0 F1000
G01 X0.422 Y0 Z0 F5000
G01 X0.422 Y25 Z5 F1000
G01 X0.422 Y0 Z0 F1000
G01 A241.277 F2000
G01 X-0.041 Y0 Z0 F5000
G01 X-0.041 Y25 Z5 F1000
G01 X-0.041 Y0 Z0 F1000
G01 X0.673 Y0 Z0 F5000
G01 X0.673 Y25 Z5 F1000
G01 X0.673 Y0 Z0 F1000
G01 X264.335 Y0 Z0 F5000
G01 X264.335 Y25 Z5 F1000
G01 X264.335 Y0 Z0 F1000
G01 X264.857 Y0 Z0 F5000
G01 X264.857 Y25 Z5 F1000
G01 X264.857 Y0 Z0 F1000
G01 A243.191 F2000
G01 X265.293 Y0 Z0 F5000
G01 X265.293 Y25 Z5 F1000
G01 X265.293 Y0 Z0 F1000
G01 X264.929 Y0 Z0 F5000
G01 X264.929 Y25 Z5 F1000
G01 X264.929 Y0 Z0 F1000
G01 X1.305 Y0 Z0 F5000
G01 X1.305 Y25 Z5 F1000
G01 X1.305 Y0 Z0 F1000
G01 X0.198 Y0 Z0 F5000
G01 X0.198 Y25 Z5 F1000
G01 X0.198 Y0 Z0 F1000
G01 A245.106 F2000
G01 X-0.118 Y0 Z0 F5000
G01 X-0.118 Y25 Z5 F1000
G01 X-0.118 Y0 Z0 F1000
G01 X1.016 Y0 Z0 F5000
G01 X1.016 Y25 Z5 F1000
G01 X1.016 Y0 Z0 F1000
G01 X264.114 Y0 Z0 F5000
G01 X264.114 Y25 Z5 F1000
G01 X264.114 Y0 Z0 F1000
G01 X264.898 Y0 Z0 F5000
G01 X264.898 Y25 Z5 F1000
G01 X264.898 Y0 Z0 F1000
G01 A247.021 F2000
G01 X265.684 Y0 Z0 F5000
G01 X265.684 Y25 Z5 F1000
G01 X265.684 Y0 Z0 F1000
G01 X264.023 Y0 Z0 F5000
G01 X264.023 Y25 Z5 F1000
G01 X264.023 Y0 Z0 F1000
G01 X1.927 Y0 Z0 F5000
G01 X1.927 Y25 Z5 F1000
G01 X1.927 Y0 Z0 F1000
G01 X0.461 Y0 Z0 F5000
G01 X0.461 Y25 Z5 F1000
G01 X0.461 Y0 Z0 F1000
G01 A248.936 F2000
G01 X-0.051 Y0 Z0 F5000
G01 X-0.051 Y25 Z5 F1000
G01 X-0.051 Y0 Z0 F1000
G01 X0.947 Y0 Z0 F5000
G01 X0.947 Y25 Z5 F1000
G01 X0.947 Y0 Z0 F1000
G01 X263.776 Y0 Z0 F5000
G01 X263.776 Y25 Z5 F1000
G01 X263.776 Y0 Z0 F1000
G01 X265.315 Y0 Z0 F5000
G01 X265.315 Y25 Z5 F1000
G01 X265.315 Y0 Z0 F1000
G01 A250.851 F2000
G01 X265.453 Y0 Z0 F5000
G01 X265.453 Y25 Z5 F1000
G01 X265.453 Y0 Z0 F1000
G01 X264.096 Y0 Z0 F5000
G01 X264.096 Y25 Z5 F1000
G01 X264.096 Y0 Z0 F1000
G01 X1.35 Y0 Z0 F5000
G01 X1.35 Y25 Z5 F1000
G01 X1.35 Y0 Z0 F1000
G01 X0.485 Y0 Z0 F5000
G01 X0.485 Y25 Z5 F1000
G01 X0.485 Y0 Z0 F1000
G01 A252.766 F2000
G01 X-0.14 Y0 Z0 F5000
G01 X-0.14 Y25 Z5 F1000
G01 X-0.14 Y0 Z0 F1000
G01 X0.603 Y0 Z0 F5000
G01 X0.603 Y25 Z5 F1000
G01 X0.603 Y0 Z0 F1000
G01 X264.389 Y0 Z0 F5000
G01 X264.389 Y25 Z5 F1000
G01 X264.389 Y0 Z0 F1000
G01 X264.651 Y0 Z0 F5000
G01 X264.651 Y25 Z5 F1000
G01 X264.651 Y0 Z0 F1000
G01 A254.681 F2000
G01 X265.729 Y0 Z0 F5000
G01 X265.729 Y25 Z5 F1000
G01 X265.729 Y0 Z0 F1000
G01 X264.424 Y0 Z0 F5000
G01 X264.424 Y25 Z5 F1000
G01 X264.424 Y0 Z0 F1000
G01 X1.495 Y0 Z0 F5000
G01 X1.495 Y25 Z5 F1000
G01 X1.495 Y0 Z0 F1000
G01 X0.677 Y0 Z0 F5000
G01 X0.677 Y25 Z5 F1000
G01 X0.677 Y0 Z0 F1000
G01 A256.596 F2000
G01 X-0.483 Y0 Z0 F5000
G01 X-0.483 Y25 Z5 F1000
G01 X-0.483 Y0 Z0 F1000
G01 X0.99 Y0 Z0 F5000
G01 X0.99 Y25 Z5 F1000
G01 X0.99 Y0 Z0 F1000
G01 X263.959 Y0 Z0 F5000
G01 X263.959 Y25 Z5 F1000
G01 X263.959 Y0 Z0 F1000
G01 X264.929 Y0 Z0 F5000
G01 X264.929 Y25 Z5 F1000
G01 X264.929 Y0 Z0 F1000
G01 A258.511 F2000
G01 X265.001 Y0 Z0 F5000
G01 X265.001 Y25 Z5 F1000
G01 X265.001 Y0 Z0 F1000
G01 X264.011 Y0 Z0 F5000
G01 X264.011 Y25 Z5 F1000
G01 X264.011 Y0 Z0 F1000
G01 X1.49 Y0 Z0 F5000
G01 X1.49 Y25 Z5 F1000
G01 X1.49 Y0 Z0 F1000
G01 X0.456 Y0 Z0 F5000
G01 X0.456 Y25 Z5 F1000
G01 X0.456 Y0 Z0 F1000
G01 A260.426 F2000
G01 X-0.165 Y0 Z0 F5000
G01 X-0.165 Y25 Z5 F1000
G01 X-0.165 Y0 Z0 F1000
G01 X0.616 Y0 Z0 F5000
G01 X0.616 Y25 Z5 F1000
G01 X0.616 Y0 Z0 F1000
G01 X263.864 Y0 Z0 F5000
G01 X263.864 Y25 Z5 F1000
G01 X263.864 Y0 Z0 F1000
G01 X265.173 Y0 Z0 F5000
G01 X265.173 Y25 Z5 F1000
G01 X265.173 Y0 Z0 F1000
G01 A262.34 F2000
G01 X265.82 Y0 Z0 F5000
G01 X265.82 Y25 Z5 F1000
G01 X265.82 Y0 Z0 F1000
G01 X264.764 Y0 Z0 F5000
G01 X264.764 Y25 Z5 F1000
G01 X264.764 Y0 Z0 F1000
G01 X1.002 Y0 Z0 F5000
G01 X1.002 Y25 Z5 F1000
G01 X1.002 Y0 Z0 F1000
G01 X0.339 Y0 Z0 F5000
G01 X0.339 Y25 Z5 F1000
G01 X0.339 Y0 Z0 F1000
G01 A264.255 F2000
G01 X-0.011 Y0 Z0 F5000
G01 X-0.011 Y25 Z5 F1000
G01 X-0.011 Y0 Z0 F1000
G01 X1.314 Y0 Z0 F5000
G01 X1.314 Y25 Z5 F1000
G01 X1.314 Y0 Z0 F1000
G01 X264.065 Y0 Z0 F5000
G01 X264.065 Y25 Z5 F1000
G01 X264.065 Y0 Z0 F1000
G01 X265.302 Y0 Z0 F5000
G01 X265.302 Y25 Z5 F1000
G01 X265.302 Y0 Z0 F1000
G01 A266.17 F2000
G01 X265.689 Y0 Z0 F5000
G01 X265.689 Y25 Z5 F1000
G01 X265.689 Y0 Z0 F1000
G01 X264.072 Y0 Z0 F5000
G01 X264.072 Y25 Z5 F1000
G01 X264.072 Y0 Z0 F1000
G01 X1.981 Y0 Z0 F5000
G01 X1.981 Y25 Z5 F1000
G01 X1.981 Y0 Z0 F1000
G01 X0.558 Y0 Z0 F5000
G01 X0.558 Y25 Z5 F1000
G01 X0.558 Y0 Z0 F1000
G01 A268.085 F2000
G01 X0.104 Y0 Z0 F5000
G01 X0.104 Y25 Z5 F1000
G01 X0.104 Y0 Z0 F1000
G01 X0.759 Y0 Z0 F5000
G01 X0.759 Y25 Z5 F1000
G01 X0.759 Y0 Z0 F1000
G01 X264.403 Y0 Z0 F5000
G01 X264.403 Y25 Z5 F1000
G01 X264.403 Y0 Z0 F1000
G01 X265.498 Y0 Z0 F5000
G01 X265.498 Y25 Z5 F1000
G01 X265.498 Y0 Z0 F1000
G01 A270.0 F2000
G01 X265.343 Y0 Z0 F5000
G01 X265.343 Y25 Z5 F1000
G01 X265.343 Y0 Z0 F1000
G01 X264.489 Y0 Z0 F5000
G01 X264.489 Y25 Z5 F1000
G01 X264.489 Y0 Z0 F1000
G01 X1.063 Y0 Z0 F5000
G01 X1.063 Y25 Z5 F1000
G01 X1.063 Y0 Z0 F1000
G01 X0.763 Y0 Z0 F5000
G01 X0.763 Y25 Z5 F1000
G01 X0.763 Y0 Z0 F1000
G01 A271.915 F2000
G01 X0.143 Y0 Z0 F5000
G01 X0.143 Y25 Z5 F1000
G01 X0.143 Y0 Z0 F1000
G01 X0.734 Y0 Z0 F5000
G01 X0.734 Y25 Z5 F1000
G01 X0.734 Y0 Z0 F1000
G01 X264.33 Y0 Z0 F5000
G01 X264.33 Y25 Z5 F1000
G01 X264.33 Y0 Z0 F1000
G01 X265.047 Y0 Z0 F5000
G01 X265.047 Y25 Z5 F1000
G01 X265.047 Y0 Z0 F1000
G01 A273.83 F2000
G01 X265.929 Y0 Z0 F5000
G01 X265.929 Y25 Z5 F1000
G01 X265.929 Y0 Z0 F1000
G01 X264.82 Y0 Z0 F5000
G01 X264.82 Y25 Z5 F1000
G01 X264.82 Y0 Z0 F1000
G01 X1.101 Y0 Z0 F5000
G01 X1.101 Y25 Z5 F1000
G01 X1.101 Y0 Z0 F1000
G01 X0.237 Y0 Z0 F5000
G01 X0.237 Y25 Z5 F1000
G01 X0.237 Y0 Z0 F1000
G01 A275.745 F2000
G01 X0.348 Y0 Z0 F5000
G01 X0.348 Y25 Z5 F1000
G01 X0.348 Y0 Z0 F1000
G01 X0.532 Y0 Z0 F5000
G01 X0.532 Y25 Z5 F1000
G01 X0.532 Y0 Z0 F1000
G01 X263.63 Y0 Z0 F5000
G01 X263.63 Y25 Z5 F1000
G01 X263.63 Y0 Z0 F1000
G01 X265.419 Y0 Z0 F5000
G01 X265.419 Y25 Z5 F1000
G01 X265.419 Y0 Z0 F1000
G01 A277.66 F2000
G01 X265.811 Y0 Z0 F5000
G01 X265.811 Y25 Z5 F1000
G01 X265.811 Y0 Z0 F1000
G01 X264.255 Y0 Z0 F5000
G01 X264.255 Y25 Z5 F1000
G01 X264.255 Y0 Z0 F1000
G01 X1.339 Y0 Z0 F5000
G01 X1.339 Y25 Z5 F1000
G01 X1.339 Y0 Z0 F1000
G01 X0.038 Y0 Z0 F5000
G01 X0.038 Y25 Z5 F1000
G01 X0.038 Y0 Z0 F1000
G01 A279.574 F2000
G01 X-0.373 Y0 Z0 F5000
G01 X-0.373 Y25 Z5 F1000
G01 X-0.373 Y0 Z0 F1000
G01 X0.511 Y0 Z0 F5000
G01 X0.511 Y25 Z5 F1000
G01 X0.511 Y0 Z0 F1000
G01 X264.087 Y0 Z0 F5000
G01 X264.087 Y25 Z5 F1000
G01 X264.087 Y0 Z0 F1000
G01 X265.111 Y0 Z0 F5000
G01 X265.111 Y25 Z5 F1000
G01 X265.111 Y0 Z0 F1000
G01 A281.489 F2000
G01 X265.144 Y0 Z0 F5000
G01 X265.144 Y25 Z5 F1000
G01 X265.144 Y0 Z0 F1000
G01 X264.833 Y0 Z0 F5000
G01 X264.833 Y25 Z5 F1000
G01 X264.833 Y0 Z0 F1000
G01 X1.487 Y0 Z0 F5000
G01 X1.487 Y25 Z5 F1000
G01 X1.487 Y0 Z0 F1000
G01 X0.599 Y0 Z0 F5000
G01 X0.599 Y25 Z5 F1000
G01 X0.599 Y0 Z0 F1000
G01 A283.404 F2000
G01 X0.162 Y0 Z0 F5000
G01 X0.162 Y25 Z5 F1000
G01 X0.162 Y0 Z0 F1000
G01 X0.705 Y0 Z0 F5000
G01 X0.705 Y25 Z5 F1000
G01 X0.705 Y0 Z0 F1000
G01 X264.304 Y0 Z0 F5000
G01 X264.304 Y25 Z5 F1000
G01 X264.304 Y0 Z0 F1000
G01 X264.911 Y0 Z0 F5000
G01 X264.911 Y25 Z5 F1000
G01 X264.911 Y0 Z0 F1000
G01 A285.319 F2000
G01 X265.498 Y0 Z0 F5000
G01 X265.498 Y25 Z5 F1000
G01 X265.498 Y0 Z0 F1000
G01 X264.126 Y0 Z0 F5000
G01 X264.126 Y25 Z5 F1000
G01 X264.126 Y0 Z0 F1000
G01 X1.255 Y0 Z0 F5000
G01 X1.255 Y25 Z5 F1000
G01 X1.255 Y0 Z0 F1000
G01 X0.455 Y0 Z0 F5000
G01 X0.455 Y25 Z5 F1000
G01 X0.455 Y0 Z0 F1000
G01 A287.234 F2000
G01 X0.224 Y0 Z0 F5000
G01 X0.224 Y25 Z5 F1000
G01 X0.224 Y0 Z0 F1000
G01 X0.958 Y0 Z0 F5000
G01 X0.958 Y25 Z5 F1000
G01 X0.958 Y0 Z0 F1000
G01 X264.06 Y0 Z0 F5000
G01 X264.06 Y25 Z5 F1000
G01 X264.06 Y0 Z0 F1000
G01 X265.257 Y0 Z0 F5000
G01 X265.257 Y25 Z5 F1000
G01 X265.257 Y0 Z0 F1000
G01 A289.149 F2000
G01 X265.403 Y0 Z0 F5000
G01 X265.403 Y25 Z5 F1000
G01 X265.403 Y0 Z0 F1000
G01 X264.016 Y0 Z0 F5000
G01 X264.016 Y25 Z5 F1000
G01 X264.016 Y0 Z0 F1000
G01 X1.562 Y0 Z0 F5000
G01 X1.562 Y25 Z5 F1000
G01 X1.562 Y0 Z0 F1000
G01 X0.944 Y0 Z0 F5000
G01 X0.944 Y25 Z5 F1000
G01 X0.944 Y0 Z0 F1000
G01 A291.064 F2000
G01 X-0.462 Y0 Z0 F5000
G01 X-0.462 Y25 Z5 F1000
G01 X-0.462 Y0 Z0 F1000
G01 X0.963 Y0 Z0 F5000
G01 X0.963 Y25 Z5 F1000
G01 X0.963 Y0 Z0 F1000
G01 X264.154 Y0 Z0 F5000
G01 X264.154 Y25 Z5 F1000
G01 X264.154 Y0 Z0 F1000
G01 X264.989 Y0 Z0 F5000
G01 X264.989 Y25 Z5 F1000
G01 X264.989 Y0 Z0 F1000
G01 A292.979 F2000
G01 X265.103 Y0 Z0 F5000
G01 X265.103 Y25 Z5 F1000
G01 X265.103 Y0 Z0 F1000
G01 X264.514 Y0 Z0 F5000
G01 X264.514 Y25 Z5 F1000
G01 X264.514 Y0 Z0 F1000
G01 X1.08 Y0 Z0 F5000
G01 X1.08 Y25 Z5 F1000
G01 X1.08 Y0 Z0 F1000
G01 X0.07 Y0 Z0 F5000
G01 X0.07 Y25 Z5 F1000
G01 X0.07 Y0 Z0 F1000
G01 A294.894 F2000
G01 X-0.162 Y0 Z0 F5000
G01 X-0.162 Y25 Z5 F1000
G01 X-0.162 Y0 Z0 F1000
G01 X0.677 Y0 Z0 F5000
G01 X0.677 Y25 Z5 F1000
G01 X0.677 Y0 Z0 F1000
G01 X264.004 Y0 Z0 F5000
G01 X264.004 Y25 Z5 F1000
G01 X264.004 Y0 Z0 F1000
G01 X265.445 Y0 Z0 F5000
G01 X265.445 Y25 Z5 F1000
G01 X265.445 Y0 Z0 F1000
G01 A296.809 F2000
G01 X265.215 Y0 Z0 F5000
G01 X265.215 Y25 Z5 F1000
G01 X265.215 Y0 Z0 F1000
G01 X264.989 Y0 Z0 F5000
G01 X264.989 Y25 Z5 F1000
G01 X264.989 Y0 Z0 F1000
G01 X1.349 Y0 Z0 F5000
G01 X1.349 Y25 Z5 F1000
G01 X1.349 Y0 Z0 F1000
G01 X0.836 Y0 Z0 F5000
G01 X0.836 Y25 Z5 F1000
G01 X0.836 Y0 Z0 F1000
G01 A298.723 F2000
G01 X0.023 Y0 Z0 F5000
G01 X0.023 Y25 Z5 F1000
G01 X0.023 Y0 Z0 F1000
G01 X1.281 Y0 Z0 F5000
G01 X1.281 Y25 Z5 F1000
G01 X1.281 Y0 Z0 F1000
G01 X264.365 Y0 Z0 F5000
G01 X264.365 Y25 Z5 F1000
G01 X264.365 Y0 Z0 F1000
G01 X265.342 Y0 Z0 F5000
G01 X265.342 Y25 Z5 F1000
G01 X265.342 Y0 Z0 F1000
G01 A300.638 F2000
G01 X265.148 Y0 Z0 F5000
G01 X265.148 Y25 Z5 F1000
G01 X265.148 Y0 Z0 F1000
G01 X264.891 Y0 Z0 F5000
G01 X264.891 Y25 Z5 F1000
G01 X264.891 Y0 Z0 F1000
G01 X1.12 Y0 Z0 F5000
G01 X1.12 Y25 Z5 F1000
G01 X1.12 Y0 Z0 F1000
G01 X0.734 Y0 Z0 F5000
G01 X0.734 Y25 Z5 F1000
G01 X0.734 Y0 Z0 F1000
G01 A302.553 F2000
G01 X-0.454 Y0 Z0 F5000
G01 X-0.454 Y25 Z5 F1000
G01 X-0.454 Y0 Z0 F1000
G01 X0.8 Y0 Z0 F5000
G01 X0.8 Y25 Z5 F1000
G01 X0.8 Y0 Z0 F1000
G01 X263.632 Y0 Z0 F5000
G01 X263.632 Y25 Z5 F1000
G01 X263.632 Y0 Z0 F1000
G01 X265.122 Y0 Z0 F5000
G01 X265.122 Y25 Z5 F1000
G01 X265.122 Y0 Z0 F1000
G01 A304.468 F2000
G01 X265.315 Y0 Z0 F5000
G01 X265.315 Y25 Z5 F1000
G01 X265.315 Y0 Z0 F1000
G01 X264.566 Y0 Z0 F5000
G01 X264.566 Y25 Z5 F1000
G01 X264.566 Y0 Z0 F1000
G01 X1.218 Y0 Z0 F5000
G01 X1.218 Y25 Z5 F1000
G01 X1.218 Y0 Z0 F1000
G01 X0.399 Y0 Z0 F5000
G01 X0.399 Y25 Z5 F1000
G01 X0.399 Y0 Z0 F1000
G01 A306.383 F2000
G01 X0.401 Y0 Z0 F5000
G01 X0.401 Y25 Z5 F1000
G01 X0.401 Y0 Z0 F1000
G01 X1.097 Y0 Z0 F5000
G01 X1.097 Y25 Z5 F1000
G01 X1.097 Y0 Z0 F1000
G01 X263.987 Y0 Z0 F5000
G01 X263.987 Y25 Z5 F1000
G01 X263.987 Y0 Z0 F1000
G01 X265.226 Y0 Z0 F5000
G01 X265.226 Y25 Z5 F1000
G01 X265.226 Y0 Z0 F1000
G01 A308.298 F2000
G01 X265.993 Y0 Z0 F5000
G01 X265.993 Y25 Z5 F1000
G01 X265.993 Y0 Z0 F1000
G01 X264.334 Y0 Z0 F5000
G01 X264.334 Y25 Z5 F1000
G01 X264.334 Y0 Z0 F1000
G01 X1.11 Y0 Z0 F5000
G01 X1.11 Y25 Z5 F1000
G01 X1.11 Y0 Z0 F1000
G01 X0.241 Y0 Z0 F5000
G01 X0.241 Y25 Z5 F1000
G01 X0.241 Y0 Z0 F1000
G01 A310.213 F2000
G01 X-0.344 Y0 Z0 F5000
G01 X-0.344 Y25 Z5 F1000
G01 X-0.344 Y0 Z0 F1000
G01 X0.905 Y0 Z0 F5000
G01 X0.905 Y25 Z5 F1000
G01 X0.905 Y0 Z0 F1000
G01 X264.242 Y0 Z0 F5000
G01 X264.242 Y25 Z5 F1000
G01 X264.242 Y0 Z0 F1000
G01 X265.266 Y0 Z0 F5000
G01 X265.266 Y25 Z5 F1000
G01 X265.266 Y0 Z0 F1000
G01 A312.128 F2000
G01 X265.108 Y0 Z0 F5000
G01 X265.108 Y25 Z5 F1000
G01 X265.108 Y0 Z0 F1000
G01 X264.162 Y0 Z0 F5000
G01 X264.162 Y25 Z5 F1000
G01 X264.162 Y0 Z0 F1000
G01 X1.36 Y0 Z0 F5000
G01 X1.36 Y25 Z5 F1000
G01 X1.36 Y0 Z0 F1000
G01 X0.844 Y0 Z0 F5000
G01 X0.844 Y25 Z5 F1000
G01 X0.844 Y0 Z0 F1000
G01 A314.043 F2000
G01 X-0.016 Y0 Z0 F5000
G01 X-0.016 Y25 Z5 F1000
G01 X-0.016 Y0 Z0 F1000
G01 X1.039 Y0 Z0 F5000
G01 X1.039 Y25 Z5 F1000
G01 X1.039 Y0 Z0 F1000
G01 X263.791 Y0 Z0 F5000
G01 X263.791 Y25 Z5 F1000
G01 X263.791 Y0 Z0 F1000
G01 X265.05 Y0 Z0 F5000
G01 X265.05 Y25 Z5 F1000
G01 X265.05 Y0 Z0 F1000
G01 A315.957 F2000
G01 X265.605 Y0 Z0 F5000
G01 X265.605 Y25 Z5 F1000
G01 X265.605 Y0 Z0 F1000
G01 X264.336 Y0 Z0 F5000
G01 X264.336 Y25 Z5 F1000
G01 X264.336 Y0 Z0 F1000
G01 X1.602 Y0 Z0 F5000
G01 X1.602 Y25 Z5 F1000
G01 X1.602 Y0 Z0 F1000
G01 X0.754 Y0 Z0 F5000
G01 X0.754 Y25 Z5 F1000
G01 X0.754 Y0 Z0 F1000
G01 A317.872 F2000
G01 X-0.146 Y0 Z0 F5000
G01 X-0.146 Y25 Z5 F1000
G01 X-0.146 Y0 Z0 F1000
G01 X0.956 Y0 Z0 F5000
G01 X0.956 Y25 Z5 F1000
G01 X0.956 Y0 Z0 F1000
G01 X263.63 Y0 Z0 F5000
G01 X263.63 Y25 Z5 F1000
G01 X263.63 Y0 Z0 F1000
G01 X264.759 Y0 Z0 F5000
G01 X264.759 Y25 Z5 F1000
G01 X264.759 Y0 Z0 F1000
G01 A319.787 F2000
G01 X265.041 Y0 Z0 F5000
G01 X265.041 Y25 Z5 F1000
G01 X265.041 Y0 Z0 F1000
G01 X264.056 Y0 Z0 F5000
G01 X264.056 Y25 Z5 F1000
G01 X264.056 Y0 Z0 F1000
G01 X1.084 Y0 Z0 F5000
G01 X1.084 Y25 Z5 F1000
G01 X1.084 Y0 Z0 F1000
G01 X0.898 Y0 Z0 F5000
G01 X0.898 Y25 Z5 F1000
G01 X0.898 Y0 Z0 F1000
G01 A321.702 F2000
G01 X0.232 Y0 Z0 F5000
G01 X0.232 Y25 Z5 F1000
G01 X0.232 Y0 Z0 F1000
G01 X1.085 Y0 Z0 F5000
G01 X1.085 Y25 Z5 F1000
G01 X1.085 Y0 Z0 F1000
G01 X264.298 Y0 Z0 F5000
G01 X264.298 Y25 Z5 F1000
G01 X264.298 Y0 Z0 F1000
G01 X264.676 Y0 Z0 F5000
G01 X264.676 Y25 Z5 F1000
G01 X264.676 Y0 Z0 F1000
G01 A323.617 F2000
G01 X265.352 Y0 Z0 F5000
G01 X265.352 Y25 Z5 F1000
G01 X265.352 Y0 Z0 F1000
G01 X264.582 Y0 Z0 F5000
G01 X264.582 Y25 Z5 F1000
G01 X264.582 Y0 Z0 F1000
G01 X1.855 Y0 Z0 F5000
G01 X1.855 Y25 Z5 F1000
G01 X1.855 Y0 Z0 F1000
G01 X0.54 Y0 Z0 F5000
G01 X0.54 Y25 Z5 F1000
G01 X0.54 Y0 Z0 F1000
G01 A325.532 F2000
G01 X-0.374 Y0 Z0 F5000
G01 X-0.374 Y25 Z5 F1000
G01 X-0.374 Y0 Z0 F1000
G01 X0.544 Y0 Z0 F5000
G01 X0.544 Y25 Z5 F1000
G01 X0.544 Y0 Z0 F1000
G01 X263.535 Y0 Z0 F5000
G01 X263.535 Y25 Z5 F1000
G01 X263.535 Y0 Z0 F1000
G01 X265.256 Y0 Z0 F5000
G01 X265.256 Y25 Z5 F1000
G01 X265.256 Y0 Z0 F1000
G01 A327.447 F2000
G01 X265.894 Y0 Z0 F5000
G01 X265.894 Y25 Z5 F1000
G01 X265.894 Y0 Z0 F1000
G01 X264.145 Y0 Z0 F5000
G01 X264.145 Y25 Z5 F1000
G01 X264.145 Y0 Z0 F1000
G01 X1.81 Y0 Z0 F5000
G01 X1.81 Y25 Z5 F1000
G01 X1.81 Y0 Z0 F1000
G01 X0.042 Y0 Z0 F5000
G01 X0.042 Y25 Z5 F1000
G01 X0.042 Y0 Z0 F1000
G01 A329.362 F2000
G01 X0.335 Y0 Z0 F5000
G01 X0.335 Y25 Z5 F1000
G01 X0.335 Y0 Z0 F1000
G01 X1.202 Y0 Z0 F5000
G01 X1.202 Y25 Z5 F1000
G01 X1.202 Y0 Z0 F1000
G01 X263.973 Y0 Z0 F5000
G01 X263.973 Y25 Z5 F1000
G01 X263.973 Y0 Z0 F1000
G01 X264.977 Y0 Z0 F5000
G01 X264.977 Y25 Z5 F1000
G01 X264.977 Y0 Z0 F1000
G01 A331.277 F2000
G01 X265.219 Y0 Z0 F5000
G01 X265.219 Y25 Z5 F1000
G01 X265.219 Y0 Z0 F1000
G01 X264.931 Y0 Z0 F5000
G01 X264.931 Y25 Z5 F1000
G01 X264.931 Y0 Z0 F1000
G01 X1.272 Y0 Z0 F5000
G01 X1.272 Y25 Z5 F1000
G01 X1.272 Y0 Z0 F1000
G01 X0.265 Y0 Z0 F5000
G01 X0.265 Y25 Z5 F1000
G01 X0.265 Y0 Z0 F1000
G01 A333.191 F2000
G01 X0.271 Y0 Z0 F5000
G01 X0.271 Y25 Z5 F1000
G01 X0.271 Y0 Z0 F1000
G01 X1.077 Y0 Z0 F5000
G01 X1.077 Y25 Z5 F1000
G01 X1.077 Y0 Z0 F1000
G01 X264.017 Y0 Z0 F5000
G01 X264.017 Y25 Z5 F1000
G01 X264.017 Y0 Z0 F1000
G01 X265.071 Y0 Z0 F5000
G01 X265.071 Y25 Z5 F1000
G01 X265.071 Y0 Z0 F1000
G01 A335.106 F2000
G01 X265.11 Y0 Z0 F5000
G01 X265.11 Y25 Z5 F1000
G01 X265.11 Y0 Z0 F1000
G01 X264.109 Y0 Z0 F5000
G01 X264.109 Y25 Z5 F1000
G01 X264.109 Y0 Z0 F1000
G01 X1.979 Y0 Z0 F5000
G01 X1.979 Y25 Z5 F1000
G01 X1.979 Y0 Z0 F1000
G01 X0.703 Y0 Z0 F5000
G01 X0.703 Y25 Z5 F1000
G01 X0.703 Y0 Z0 F1000
G01 A337.021 F2000
G01 X0.115 Y0 Z0 F5000
G01 X0.115 Y25 Z5 F1000
G01 X0.115 Y0 Z0 F1000
G01 X1.061 Y0 Z0 F5000
G01 X1.061 Y25 Z5 F1000
G01 X1.061 Y0 Z0 F1000
G01 X263.735 Y0 Z0 F5000
G01 X263.735 Y25 Z5 F1000
G01 X263.735 Y0 Z0 F1000
G01 X264.657 Y0 Z0 F5000
G01 X264.657 Y25 Z5 F1000
G01 X264.657 Y0 Z0 F1000
G01 A338.936 F2000
G01 X265.584 Y0 Z0 F5000
G01 X265.584 Y25 Z5 F1000
G01 X265.584 Y0 Z0 F1000
G01 X264.01 Y0 Z0 F5000
G01 X264.01 Y25 Z5 F1000
G01 X264.01 Y0 Z0 F1000
G01 X1.028 Y0 Z0 F5000
G01 X1.028 Y25 Z5 F1000
G01 X1.028 Y0 Z0 F1000
G01 X0.343 Y0 Z0 F5000
G01 X0.343 Y25 Z5 F1000
G01 X0.343 Y0 Z0 F1000
G01 A340.851 F2000
G01 X0.086 Y0 Z0 F5000
G01 X0.086 Y25 Z5 F1000
G01 X0.086 Y0 Z0 F1000
G01 X1.43 Y0 Z0 F5000
G01 X1.43 Y25 Z5 F1000
G01 X1.43 Y0 Z0 F1000
G01 X263.953 Y0 Z0 F5000
G01 X263.953 Y25 Z5 F1000
G01 X263.953 Y0 Z0 F1000
G01 X264.806 Y0 Z0 F5000
G01 X264.806 Y25 Z5 F1000
G01 X264.806 Y0 Z0 F1000
G01 A342.766 F2000
G01 X265.955 Y0 Z0 F5000
G01 X265.955 Y25 Z5 F1000
G01 X265.955 Y0 Z0 F1000
G01 X264.297 Y0 Z0 F5000
G01 X264.297 Y25 Z5 F1000
G01 X264.297 Y0 Z0 F1000
G01 X1.481 Y0 Z0 F5000
G01 X1.481 Y25 Z5 F1000
G01 X1.481 Y0 Z0 F1000
G01 X0.477 Y0 Z0 F5000
G01 X0.477 Y25 Z5 F1000
G01 X0.477 Y0 Z0 F1000
G01 A344.681 F2000
G01 X-0.456 Y0 Z0 F5000
G01 X-0.456 Y25 Z5 F1000
G01 X-0.456 Y0 Z0 F1000
G01 X0.606 Y0 Z0 F5000
G01 X0.606 Y25 Z5 F1000
G01 X0.606 Y0 Z0 F1000
G01 X263.508 Y0 Z0 F5000
G01 X263.508 Y25 Z5 F1000
G01 X263.508 Y0 Z0 F1000
G01 X265.294 Y0 Z0 F5000
G01 X265.294 Y25 Z5 F1000
G01 X265.294 Y0 Z0 F1000
G01 A346.596 F2000
G01 X265.38 Y0 Z0 F5000
G01 X265.38 Y25 Z5 F1000
G01 X265.38 Y0 Z0 F1000
G01 X264.681 Y0 Z0 F5000
G01 X264.681 Y25 Z5 F1000
G01 X264.681 Y0 Z0 F1000
G01 X1.446 Y0 Z0 F5000
G01 X1.446 Y25 Z5 F1000
G01 X1.446 Y0 Z0 F1000
G01 X0.495 Y0 Z0 F5000
G01 X0.495 Y25 Z5 F1000
G01 X0.495 Y0 Z0 F1000
G01 A348.511 F2000
G01 X0.364 Y0 Z0 F5000
G01 X0.364 Y25 Z5 F1000
G01 X0.364 Y0 Z0 F1000
G01 X0.894 Y0 Z0 F5000
G01 X0.894 Y25 Z5 F1000
G01 X0.894 Y0 Z0 F1000
G01 X263.602 Y0 Z0 F5000
G01 X263.602 Y25 Z5 F1000
G01 X263.602 Y0 Z0 F1000
G01 X265.169 Y0 Z0 F5000
G01 X265.169 Y25 Z5 F1000
G01 X265.169 Y0 Z0 F1000
G01 A350.426 F2000
G01 X265.03 Y0 Z0 F5000
G01 X265.03 Y25 Z5 F1000
G01 X265.03 Y0 Z0 F1000
G01 X264.516 Y0 Z0 F5000
G01 X264.516 Y25 Z5 F1000
G01 X264.516 Y0 Z0 F1000
G01 X1.369 Y0 Z0 F5000
G01 X1.369 Y25 Z5 F1000
G01 X1.369 Y0 Z0 F1000
G01 X0.427 Y0 Z0 F5000
G01 X0.427 Y25 Z5 F1000
G01 X0.427 Y0 Z0 F1000
G01 A352.34 F2000
G01 X0.228 Y0 Z0 F5000
G01 X0.228 Y25 Z5 F1000
G01 X0.228 Y0 Z0 F1000
G01 X1.339 Y0 Z0 F5000
G01 X1.339 Y25 Z5 F1000
G01 X1.339 Y0 Z0 F1000
G01 X264.463 Y0 Z0 F5000
G01 X264.463 Y25 Z5 F1000
G01 X264.463 Y0 Z0 F1000
G01 X265.28 Y0 Z0 F5000
G01 X265.28 Y25 Z5 F1000
G01 X265.28 Y0 Z0 F1000
G01 A354.255 F2000
G01 X265.82 Y0 Z0 F5000
G01 X265.82 Y25 Z5 F1000
G01 X265.82 Y0 Z0 F1000
G01 X264.937 Y0 Z0 F5000
G01 X264.937 Y25 Z5 F1000
G01 X264.937 Y0 Z0 F1000
G01 X1.385 Y0 Z0 F5000
G01 X1.385 Y25 Z5 F1000
G01 X1.385 Y0 Z0 F1000
G01 X0.343 Y0 Z0 F5000
G01 X0.343 Y25 Z5 F1000
G01 X0.343 Y0 Z0 F1000
G01 A356.17 F2000
G01 X-0.472 Y0 Z0 F5000
G01 X-0.472 Y25 Z5 F1000
G01 X-0.472 Y0 Z0 F1000
G01 X0.954 Y0 Z0 F5000
G01 X0.954 Y25 Z5 F1000
G01 X0.954 Y0 Z0 F1000
G01 X263.557 Y0 Z0 F5000
G01 X263.557 Y25 Z5 F1000
G01 X263.557 Y0 Z0 F1000
G01 X264.714 Y0 Z0 F5000
G01 X264.714 Y25 Z5 F1000
G01 X264.714 Y0 Z0 F1000
G01 A358.085 F2000
G01 X265.413 Y0 Z0 F5000
G01 X265.413 Y25 Z5 F1000
G01 X265.413 Y0 Z0 F1000
G01 X264.412 Y0 Z0 F5000
G01 X264.412 Y25 Z5 F1000
G01 X264.412 Y0 Z0 F1000
G01 X1.765 Y0 Z0 F5000
G01 X1.765 Y25 Z5 F1000
G01 X1.765 Y0 Z0 F1000
G01 X0.464 Y0 Z0 F5000
G01 X0.464 Y25 Z5 F1000
G01 X0.464 Y0 Z0 F1000
G01 A360.0 F2000
G01 X2.207 Y-1 Z-1 F5000
G01 X2.207 Y24 Z4 F1000
G01 X2.207 Y-1 Z-1 F1000
G01 X2.523 Y-1 Z-1 F5000
G01 X2.523 Y24 Z4 F1000
G01 X2.523 Y-1 Z-1 F1000
G01 X266.221 Y-1 Z-1 F5000
G01 X266.221 Y24 Z4 F1000
G01 X266.221 Y-1 Z-1 F1000
G01 X267.262 Y-1 Z-1 F5000
G01 X267.262 Y24 Z4 F1000
G01 X267.262 Y-1 Z-1 F1000
G01 A361.856 F2000
G01 X267.013 Y-1 Z-1 F5000
G01 X267.013 Y24 Z4 F1000
G01 X267.013 Y-1 Z-1 F1000
G01 X266.351 Y-1 Z-1 F5000
G01 X266.351 Y24 Z4 F1000
G01 X266.351 Y-1 Z-1 F1000
G01 X3.636 Y-1 Z-1 F5000
G01 X3.636 Y24 Z4 F1000
G01 X3.636 Y-1 Z-1 F1000
G01 X2.137 Y-1 Z-1 F5000
G01 X2.137 Y24 Z4 F1000
G01 X2.137 Y-1 Z-1 F1000
G01 A363.711 F2000
G01 X2.306 Y-1 Z-1 F5000
G01 X2.306 Y24 Z4 F1000
G01 X2.306 Y-1 Z-1 F1000
G01 X3.473 Y-1 Z-1 F5000
G01 X3.473 Y24 Z4 F1000
G01 X3.473 Y-1 Z-1 F1000
G01 X266.284 Y-1 Z-1 F5000
G01 X266.284 Y24 Z4 F1000
G01 X266.284 Y-1 Z-1 F1000
G01 X267.12 Y-1 Z-1 F5000
G01 X267.12 Y24 Z4 F1000
G01 X267.12 Y-1 Z-1 F1000
G01 A365.567 F2000
G01 X267.784 Y-1 Z-1 F5000
G01 X267.784 Y24 Z4 F1000
G01 X267.784 Y-1 Z-1 F1000
G01 X266.938 Y-1 Z-1 F5000
G01 X266.938 Y24 Z4 F1000
G01 X266.938 Y-1 Z-1 F1000
G01 X3.955 Y-1 Z-1 F5000
G01 X3.955 Y24 Z4 F1000
G01 X3.955 Y-1 Z-1 F1000
G01 X2.333 Y-1 Z-1 F5000
G01 X2.333 Y24 Z4 F1000
G01 X2.333 Y-1 Z-1 F1000
G01 A367.423 F2000
G01 X2.147 Y-1 Z-1 F5000
G01 X2.147 Y24 Z4 F1000
G01 X2.147 Y-1 Z-1 F1000
G01 X2.594 Y-1 Z-1 F5000
G01 X2.594 Y24 Z4 F1000
G01 X2.594 Y-1 Z-1 F1000
G01 X266.415 Y-1 Z-1 F5000
G01 X266.415 Y24 Z4 F1000
G01 X266.415 Y-1 Z-1 F1000
G01 X266.558 Y-1 Z-1 F5000
G01 X266.558 Y24 Z4 F1000
G01 X266.558 Y-1 Z-1 F1000
G01 A369.278 F2000
G01 X267.287 Y-1 Z-1 F5000
G01 X267.287 Y24 Z4 F1000
G01 X267.287 Y-1 Z-1 F1000
G01 X266.573 Y-1 Z-1 F5000
G01 X266.573 Y24 Z4 F1000
G01 X266.573 Y-1 Z-1 F1000
G01 X3.223 Y-1 Z-1 F5000
G01 X3.223 Y24 Z4 F1000
G01 X3.223 Y-1 Z-1 F1000
G01 X2.421 Y-1 Z-1 F5000
G01 X2.421 Y24 Z4 F1000
G01 X2.421 Y-1 Z-1 F1000
G01 A371.134 F2000
G01 X1.851 Y-1 Z-1 F5000
G01 X1.851 Y24 Z4 F1000
G01 X1.851 Y-1 Z-1 F1000
G01 X3.167 Y-1 Z-1 F5000
G01 X3.167 Y24 Z4 F1000
G01 X3.167 Y-1 Z-1 F1000
G01 X266.018 Y-1 Z-1 F5000
G01 X266.018 Y24 Z4 F1000
G01 X266.018 Y-1 Z-1 F1000
G01 X267.33 Y-1 Z-1 F5000
G01 X267.33 Y24 Z4 F1000
G01 X267.33 Y-1 Z-1 F1000
G01 A372.99 F2000
G01 X267.621 Y-1 Z-1 F5000
G01 X267.621 Y24 Z4 F1000
G01 X267.621 Y-1 Z-1 F1000
G01 X266.721 Y-1 Z-1 F5000
G01 X266.721 Y24 Z4 F1000
G01 X266.721 Y-1 Z-1 F1000
G01 X3.016 Y-1 Z-1 F5000
G01 X3.016 Y24 Z4 F1000
G01 X3.016 Y-1 Z-1 F1000
G01 X2.676 Y-1 Z-1 F5000
G01 X2.676 Y24 Z4 F1000
G01 X2.676 Y-1 Z-1 F1000
G01 A374.845 F2000
G01 X2.41 Y-1 Z-1 F5000
G01 X2.41 Y24 Z4 F1000
G01 X2.41 Y-1 Z-1 F1000
G01 X2.636 Y-1 Z-1 F5000
G01 X2.636 Y24 Z4 F1000
G01 X2.636 Y-1 Z-1 F1000
G01 X266.283 Y-1 Z-1 F5000
G01 X266.283 Y24 Z4 F1000
G01 X266.283 Y-1 Z-1 F1000
G01 X267.285 Y-1 Z-1 F5000
G01 X267.285 Y24 Z4 F1000
G01 X267.285 Y-1 Z-1 F1000
G01 A376.701 F2000
G01 X267.083 Y-1 Z-1 F5000
G01 X267.083 Y24 Z4 F1000
G01 X267.083 Y-1 Z-1 F1000
G01 X266.615 Y-1 Z-1 F5000
G01 X266.615 Y24 Z4 F1000
G01 X266.615 Y-1 Z-1 F1000
G01 X3.311 Y-1 Z-1 F5000
G01 X3.311 Y24 Z4 F1000
G01 X3.311 Y-1 Z-1 F1000
G01 X2.37 Y-1 Z-1 F5000
G01 X2.37 Y24 Z4 F1000
G01 X2.37 Y-1 Z-1 F1000
G01 A378.557 F2000
G01 X2.494 Y-1 Z-1 F5000
G01 X2.494 Y24 Z4 F1000
G01 X2.494 Y-1 Z-1 F1000
G01 X3.071 Y-1 Z-1 F5000
G01 X3.071 Y24 Z4 F1000
G01 X3.071 Y-1 Z-1 F1000
G01 X265.977 Y-1 Z-1 F5000
G01 X265.977 Y24 Z4 F1000
G01 X265.977 Y-1 Z-1 F1000
G01 X267.297 Y-1 Z-1 F5000
G01 X267.297 Y24 Z4 F1000
G01 X267.297 Y-1 Z-1 F1000
G01 A380.412 F2000
G01 X267.391 Y-1 Z-1 F5000
G01 X267.391 Y24 Z4 F1000
G01 X267.391 Y-1 Z-1 F1000
G01 X266.13 Y-1 Z-1 F5000
G01 X266.13 Y24 Z4 F1000
G01 X266.13 Y-1 Z-1 F1000
G01 X3.98 Y-1 Z-1 F5000
G01 X3.98 Y24 Z4 F1000
G01 X3.98 Y-1 Z-1 F1000
G01 X2.161 Y-1 Z-1 F5000
G01 X2.161 Y24 Z4 F1000
G01 X2.161 Y-1 Z-1 F1000
G01 A382.268 F2000
G01 X2.401 Y-1 Z-1 F5000
G01 X2.401 Y24 Z4 F1000
G01 X2.401 Y-1 Z-1 F1000
G01 X3.477 Y-1 Z-1 F5000
G01 X3.477 Y24 Z4 F1000
G01 X3.477 Y-1 Z-1 F1000
G01 X265.969 Y-1 Z-1 F5000
G01 X265.969 Y24 Z4 F1000
G01 X265.969 Y-1 Z-1 F1000
G01 X266.62 Y-1 Z-1 F5000
G01 X266.62 Y24 Z4 F1000
G01 X266.62 Y-1 Z-1 F1000
G01 A384.124 F2000
G01 X267.46 Y-1 Z-1 F5000
G01 X267.46 Y24 Z4 F1000
G01 X267.46 Y-1 Z-1 F1000
G01 X266.543 Y-1 Z-1 F5000
G01 X266.543 Y24 Z4 F1000
G01 X266.543 Y-1 Z-1 F1000
G01 X3.787 Y-1 Z-1 F5000
G01 X3.787 Y24 Z4 F1000
G01 X3.787 Y-1 Z-1 F1000
G01 X2.999 Y-1 Z-1 F5000
G01 X2.999 Y24 Z4 F1000
G01 X2.999 Y-1 Z-1 F1000
G01 A385.979 F2000
G01 X1.745 Y-1 Z-1 F5000
G01 X1.745 Y24 Z4 F1000
G01 X1.745 Y-1 Z-1 F1000
G01 X2.534 Y-1 Z-1 F5000
G01 X2.534 Y24 Z4 F1000
G01 X2.534 Y-1 Z-1 F1000
G01 X266.482 Y-1 Z-1 F5000
G01 X266.482 Y24 Z4 F1000
G01 X266.482 Y-1 Z-1 F1000
G01 X266.502 Y-1 Z-1 F5000
G01 X266.502 Y24 Z4 F1000
G01 X266.502 Y-1 Z-1 F1000
G01 A387.835 F2000
G01 X267.963 Y-1 Z-1 F5000
G01 X267.963 Y24 Z4 F1000
G01 X267.963 Y-1 Z-1 F1000
G01 X266.893 Y-1 Z-1 F5000
G01 X266.893 Y24 Z4 F1000
G01 X266.893 Y-1 Z-1 F1000
G01 X3.9 Y-1 Z-1 F5000
G01 X3.9 Y24 Z4 F1000
G01 X3.9 Y-1 Z-1 F1000
G01 X2.402 Y-1 Z-1 F5000
G01 X2.402 Y24 Z4 F1000
G01 X2.402 Y-1 Z-1 F1000
G01 A389.691 F2000
G01 X1.7 Y-1 Z-1 F5000
G01 X1.7 Y24 Z4 F1000
G01 X1.7 Y-1 Z-1 F1000
G01 X3.098 Y-1 Z-1 F5000
G01 X3.098 Y24 Z4 F1000
G01 X3.098 Y-1 Z-1 F1000
G01 X265.933 Y-1 Z-1 F5000
G01 X265.933 Y24 Z4 F1000
G01 X265.933 Y-1 Z-1 F1000
G01 X267.21 Y-1 Z-1 F5000
G01 X267.21 Y24 Z4 F1000
G01 X267.21 Y-1 Z-1 F1000
G01 A391.546 F2000
G01 X267.192 Y-1 Z-1 F5000
G01 X267.192 Y24 Z4 F1000
G01 X267.192 Y-1 Z-1 F1000
G01 X266.47 Y-1 Z-1 F5000
G01 X266.47 Y24 Z4 F1000
G01 X266.47 Y-1 Z-1 F1000
G01 X3.913 Y-1 Z-1 F5000
G01 X3.913 Y24 Z4 F1000
G01 X3.913 Y-1 Z-1 F1000
G01 X2.589 Y-1 Z-1 F5000
G01 X2.589 Y24 Z4 F1000
G01 X2.589 Y-1 Z-1 F1000
G01 A393.402 F2000
G01 X2.428 Y-1 Z-1 F5000
G01 X2.428 Y24 Z4 F1000
G01 X2.428 Y-1 Z-1 F1000
G01 X3.25 Y-1 Z-1 F5000
G01 X3.25 Y24 Z4 F1000
G01 X3.25 Y-1 Z-1 F1000
G01 X265.634 Y-1 Z-1 F5000
G01 X265.634 Y24 Z4 F1000
G01 X265.634 Y-1 Z-1 F1000
G01 X267.145 Y-1 Z-1 F5000
G01 X267.145 Y24 Z4 F1000
G01 X267.145 Y-1 Z-1 F1000
G01 A395.258 F2000
G01 X267.185 Y-1 Z-1 F5000
G01 X267.185 Y24 Z4 F1000
G01 X267.185 Y-1 Z-1 F1000
G01 X266.071 Y-1 Z-1 F5000
G01 X266.071 Y24 Z4 F1000
G01 X266.071 Y-1 Z-1 F1000
G01 X3.604 Y-1 Z-1 F5000
G01 X3.604 Y24 Z4 F1000
G01 X3.604 Y-1 Z-1 F1000
G01 X2.009 Y-1 Z-1 F5000
G01 X2.009 Y24 Z4 F1000
G01 X2.009 Y-1 Z-1 F1000
G01 A397.113 F2000
G01 X1.553 Y-1 Z-1 F5000
G01 X1.553 Y24 Z4 F1000
G01 X1.553 Y-1 Z-1 F1000
G01 X2.891 Y-1 Z-1 F5000
G01 X2.891 Y24 Z4 F1000
G01 X2.891 Y-1 Z-1 F1000
G01 X265.681 Y-1 Z-1 F5000
G01 X265.681 Y24 Z4 F1000
G01 X265.681 Y-1 Z-1 F1000
G01 X267.165 Y-1 Z-1 F5000
G01 X267.165 Y24 Z4 F1000
G01 X267.165 Y-1 Z-1 F1000
G01 A398.969 F2000
G01 X267.278 Y-1 Z-1 F5000
G01 X267.278 Y24 Z4 F1000
G01 X267.278 Y-1 Z-1 F1000
G01 X266.242 Y-1 Z-1 F5000
G01 X266.242 Y24 Z4 F1000
G01 X266.242 Y-1 Z-1 F1000
G01 X3.552 Y-1 Z-1 F5000
G01 X3.552 Y24 Z4 F1000
G01 X3.552 Y-1 Z-1 F1000
G01 X2.525 Y-1 Z-1 F5000
G01 X2.525 Y24 Z4 F1000
G01 X2.525 Y-1 Z-1 F1000
G01 A400.825 F2000
G01 X2.346 Y-1 Z-1 F5000
G01 X2.346 Y24 Z4 F1000
G01 X2.346 Y-1 Z-1 F1000
G01 X3.321 Y-1 Z-1 F5000
G01 X3.321 Y24 Z4 F1000
G01 X3.321 Y-1 Z-1 F1000
G01 X266.434 Y-1 Z-1 F5000
G01 X266.434 Y24 Z4 F1000
G01 X266.434 Y-1 Z-1 F1000
G01 X266.611 Y-1 Z-1 F5000
G01 X266.611 Y24 Z4 F1000
G01 X266.611 Y-1 Z-1 F1000
G01 A402.68 F2000
G01 X267.056 Y-1 Z-1 F5000
G01 X267.056 Y24 Z4 F1000
G01 X267.056 Y-1 Z-1 F1000
G01 X266.752 Y-1 Z-1 F5000
G01 X266.752 Y24 Z4 F1000
G01 X266.752 Y-1 Z-1 F1000
G01 X3.4 Y-1 Z-1 F5000
G01 X3.4 Y24 Z4 F1000
G01 X3.4 Y-1 Z-1 F1000
G01 X2.053 Y-1 Z-1 F5000
G01 X2.053 Y24 Z4 F1000
G01 X2.053 Y-1 Z-1 F1000
G01 A404.536 F2000
G01 X2.03 Y-1 Z-1 F5000
G01 X2.03 Y24 Z4 F1000
G01 X2.03 Y-1 Z-1 F1000
G01 X2.82 Y-1 Z-1 F5000
G01 X2.82 Y24 Z4 F1000
G01 X2.82 Y-1 Z-1 F1000
G01 X265.714 Y-1 Z-1 F5000
G01 X265.714 Y24 Z4 F1000
G01 X265.714 Y-1 Z-1 F1000
G01 X267.165 Y-1 Z-1 F5000
G01 X267.165 Y24 Z4 F1000
G01 X267.165 Y-1 Z-1 F1000
G01 A406.392 F2000
G01 X267.734 Y-1 Z-1 F5000
G01 X267.734 Y24 Z4 F1000
G01 X267.734 Y-1 Z-1 F1000
G01 X266.26 Y-1 Z-1 F5000
G01 X266.26 Y24 Z4 F1000
G01 X266.26 Y-1 Z-1 F1000
G01 X3.666 Y-1 Z-1 F5000
G01 X3.666 Y24 Z4 F1000
G01 X3.666 Y-1 Z-1 F1000
G01 X2.226 Y-1 Z-1 F5000
G01 X2.226 Y24 Z4 F1000
G01 X2.226 Y-1 Z-1 F1000
G01 A408.247 F2000
G01 X2.386 Y-1 Z-1 F5000
G01 X2.386 Y24 Z4 F1000
G01 X2.386 Y-1 Z-1 F1000
G01 X2.898 Y-1 Z-1 F5000
G01 X2.898 Y24 Z4 F1000
G01 X2.898 Y-1 Z-1 F1000
G01 X265.973 Y-1 Z-1 F5000
G01 X265.973 Y24 Z4 F1000
G01 X265.973 Y-1 Z-1 F1000
G01 X266.668 Y-1 Z-1 F5000
G01 X266.668 Y24 Z4 F1000
G01 X266.668 Y-1 Z-1 F1000
G01 A410.103 F2000
G01 X267.464 Y-1 Z-1 F5000
G01 X267.464 Y24 Z4 F1000
G01 X267.464 Y-1 Z-1 F1000
G01 X266.277 Y-1 Z-1 F5000
G01 X266.277 Y24 Z4 F1000
G01 X266.277 Y-1 Z-1 F1000
G01 X3.784 Y-1 Z-1 F5000
G01 X3.784 Y24 Z4 F1000
G01 X3.784 Y-1 Z-1 F1000
G01 X2.135 Y-1 Z-1 F5000
G01 X2.135 Y24 Z4 F1000
G01 X2.135 Y-1 Z-1 F1000
G01 A411.959 F2000
G01 X2.034 Y-1 Z-1 F5000
G01 X2.034 Y24 Z4 F1000
G01 X2.034 Y-1 Z-1 F1000
G01 X2.904 Y-1 Z-1 F5000
G01 X2.904 Y24 Z4 F1000
G01 X2.904 Y-1 Z-1 F1000
G01 X266.413 Y-1 Z-1 F5000
G01 X266.413 Y24 Z4 F1000
G01 X266.413 Y-1 Z-1 F1000
G01 X267.155 Y-1 Z-1 F5000
G01 X267.155 Y24 Z4 F1000
G01 X267.155 Y-1 Z-1 F1000
G01 A413.814 F2000
G01 X267.563 Y-1 Z-1 F5000
G01 X267.563 Y24 Z4 F1000
G01 X267.563 Y-1 Z-1 F1000
G01 X266.146 Y-1 Z-1 F5000
G01 X266.146 Y24 Z4 F1000
G01 X266.146 Y-1 Z-1 F1000
G01 X3.104 Y-1 Z-1 F5000
G01 X3.104 Y24 Z4 F1000
G01 X3.104 Y-1 Z-1 F1000
G01 X2.605 Y-1 Z-1 F5000
G01 X2.605 Y24 Z4 F1000
G01 X2.605 Y-1 Z-1 F1000
G01 A415.67 F2000
G01 X2.42 Y-1 Z-1 F5000
G01 X2.42 Y24 Z4 F1000
G01 X2.42 Y-1 Z-1 F1000
G01 X2.582 Y-1 Z-1 F5000
G01 X2.582 Y24 Z4 F1000
G01 X2.582 Y-1 Z-1 F1000
G01 X265.922 Y-1 Z-1 F5000
G01 X265.922 Y24 Z4 F1000
G01 X265.922 Y-1 Z-1 F1000
G01 X266.87 Y-1 Z-1 F5000
G01 X266.87 Y24 Z4 F1000
G01 X266.87 Y-1 Z-1 F1000
G01 A417.526 F2000
G01 X267.022 Y-1 Z-1 F5000
G01 X267.022 Y24 Z4 F1000
G01 X267.022 Y-1 Z-1 F1000
G01 X266.624 Y-1 Z-1 F5000
G01 X266.624 Y24 Z4 F1000
G01 X266.624 Y-1 Z-1 F1000
G01 X3.463 Y-1 Z-1 F5000
G01 X3.463 Y24 Z4 F1000
G01 X3.463 Y-1 Z-1 F1000
G01 X2.482 Y-1 Z-1 F5000
G01 X2.482 Y24 Z4 F1000
G01 X2.482 Y-1 Z-1 F1000
G01 A419.381 F2000
G01 X2.33 Y-1 Z-1 F5000
G01 X2.33 Y24 Z4 F1000
G01 X2.33 Y-1 Z-1 F1000
G01 X3.123 Y-1 Z-1 F5000
G01 X3.123 Y24 Z4 F1000
G01 X3.123 Y-1 Z-1 F1000
G01 X265.74 Y-1 Z-1 F5000
G01 X265.74 Y24 Z4 F1000
G01 X265.74 Y-1 Z-1 F1000
G01 X267.461 Y-1 Z-1 F5000
G01 X267.461 Y24 Z4 F1000
G01 X267.461 Y-1 Z-1 F1000
G01 A421.237 F2000
G01 X267.924 Y-1 Z-1 F5000
G01 X267.924 Y24 Z4 F1000
G01 X267.924 Y-1 Z-1 F1000
G01 X266.693 Y-1 Z-1 F5000
G01 X266.693 Y24 Z4 F1000
G01 X266.693 Y-1 Z-1 F1000
G01 X3.122 Y-1 Z-1 F5000
G01 X3.122 Y24 Z4 F1000
G01 X3.122 Y-1 Z-1 F1000
G01 X2.633 Y-1 Z-1 F5000
G01 X2.633 Y24 Z4 F1000
G01 X2.633 Y-1 Z-1 F1000
G01 A423.093 F2000
G01 X1.502 Y-1 Z-1 F5000
G01 X1.502 Y24 Z4 F1000
G01 X1.502 Y-1 Z-1 F1000
G01 X2.786 Y-1 Z-1 F5000
G01 X2.786 Y24 Z4 F1000
G01 X2.786 Y-1 Z-1 F1000
G01 X265.935 Y-1 Z-1 F5000
G01 X265.935 Y24 Z4 F1000
G01 X265.935 Y-1 Z-1 F1000
G01 X266.961 Y-1 Z-1 F5000
G01 X266.961 Y24 Z4 F1000
G01 X266.961 Y-1 Z-1 F1000
G01 A424.948 F2000
G01 X267.788 Y-1 Z-1 F5000
G01 X267.788 Y24 Z4 F1000
G01 X267.788 Y-1 Z-1 F1000
G01 X266.559 Y-1 Z-1 F5000
G01 X266.559 Y24 Z4 F1000
G01 X266.559 Y-1 Z-1 F1000
G01 X3.648 Y-1 Z-1 F5000
G01 X3.648 Y24 Z4 F1000
G01 X3.648 Y-1 Z-1 F1000
G01 X2.45 Y-1 Z-1 F5000
G01 X2.45 Y24 Z4 F1000
G01 X2.45 Y-1 Z-1 F1000
G01 A426.804 F2000
G01 X2.231 Y-1 Z-1 F5000
G01 X2.231 Y24 Z4 F1000
G01 X2.231 Y-1 Z-1 F1000
G01 X2.687 Y-1 Z-1 F5000
G01 X2.687 Y24 Z4 F1000
G01 X2.687 Y-1 Z-1 F1000
G01 X266.398 Y-1 Z-1 F5000
G01 X266.398 Y24 Z4 F1000
G01 X266.398 Y-1 Z-1 F1000
G01 X267.34 Y-1 Z-1 F5000
G01 X267.34 Y24 Z4 F1000
G01 X267.34 Y-1 Z-1 F1000
G01 A428.66 F2000
G01 X267.913 Y-1 Z-1 F5000
G01 X267.913 Y24 Z4 F1000
G01 X267.913 Y-1 Z-1 F1000
G01 X266.951 Y-1 Z-1 F5000
G01 X266.951 Y24 Z4 F1000
G01 X266.951 Y-1 Z-1 F1000
G01 X3.783 Y-1 Z-1 F5000
G01 X3.783 Y24 Z4 F1000
G01 X3.783 Y-1 Z-1 F1000
G01 X2.29 Y-1 Z-1 F5000
G01 X2.29 Y24 Z4 F1000
G01 X2.29 Y-1 Z-1 F1000
G01 A430.515 F2000
G01 X2.415 Y-1 Z-1 F5000
G01 X2.415 Y24 Z4 F1000
G01 X2.415 Y-1 Z-1 F1000
G01 X3.311 Y-1 Z-1 F5000
G01 X3.311 Y24 Z4 F1000
G01 X3.311 Y-1 Z-1 F1000
G01 X265.972 Y-1 Z-1 F5000
G01 X265.972 Y24 Z4 F1000
G01 X265.972 Y-1 Z-1 F1000
G01 X266.598 Y-1 Z-1 F5000
G01 X266.598 Y24 Z4 F1000
G01 X266.598 Y-1 Z-1 F1000
G01 A432.371 F2000
G01 X267.975 Y-1 Z-1 F5000
G01 X267.975 Y24 Z4 F1000
G01 X267.975 Y-1 Z-1 F1000
G01 X266.214 Y-1 Z-1 F5000
G01 X266.214 Y24 Z4 F1000
G01 X266.214 Y-1 Z-1 F1000
G01 X3.173 Y-1 Z-1 F5000
G01 X3.173 Y24 Z4 F1000
G01 X3.173 Y-1 Z-1 F1000
G01 X2.554 Y-1 Z-1 F5000
G01 X2.554 Y24 Z4 F1000
G01 X2.554 Y-1 Z-1 F1000
G01 A434.227 F2000
G01 X2.36 Y-1 Z-1 F5000
G01 X2.36 Y24 Z4 F1000
G01 X2.36 Y-1 Z-1 F1000
G01 X2.77 Y-1 Z-1 F5000
G01 X2.77 Y24 Z4 F1000
G01 X2.77 Y-1 Z-1 F1000
G01 X265.709 Y-1 Z-1 F5000
G01 X265.709 Y24 Z4 F1000
G01 X265.709 Y-1 Z-1 F1000
G01 X267.285 Y-1 Z-1 F5000
G01 X267.285 Y24 Z4 F1000
G01 X267.285 Y-1 Z-1 F1000
G01 A436.082 F2000
G01 X267.566 Y-1 Z-1 F5000
G01 X267.566 Y24 Z4 F1000
G01 X267.566 Y-1 Z-1 F1000
G01 X266.568 Y-1 Z-1 F5000
G01 X266.568 Y24 Z4 F1000
G01 X266.568 Y-1 Z-1 F1000
G01 X3.595 Y-1 Z-1 F5000
G01 X3.595 Y24 Z4 F1000
G01 X3.595 Y-1 Z-1 F1000
G01 X2.809 Y-1 Z-1 F5000
G01 X2.809 Y24 Z4 F1000
G01 X2.809 Y-1 Z-1 F1000
G01 A437.938 F2000
G01 X2.28 Y-1 Z-1 F5000
G01 X2.28 Y24 Z4 F1000
G01 X2.28 Y-1 Z-1 F1000
G01 X2.765 Y-1 Z-1 F5000
G01 X2.765 Y24 Z4 F1000
G01 X2.765 Y-1 Z-1 F1000
G01 X265.863 Y-1 Z-1 F5000
G01 X265.863 Y24 Z4 F1000
G01 X265.863 Y-1 Z-1 F1000
G01 X267.498 Y-1 Z-1 F5000
G01 X267.498 Y24 Z4 F1000
G01 X267.498 Y-1 Z-1 F1000
G01 A439.794 F2000
G01 X267.838 Y-1 Z-1 F5000
G01 X267.838 Y24 Z4 F1000
G01 X267.838 Y-1 Z-1 F1000
G01 X266.54 Y-1 Z-1 F5000
G01 X266.54 Y24 Z4 F1000
G01 X266.54 Y-1 Z-1 F1000
G01 X3.32 Y-1 Z-1 F5000
G01 X3.32 Y24 Z4 F1000
G01 X3.32 Y-1 Z-1 F1000
G01 X2.9 Y-1 Z-1 F5000
G01 X2.9 Y24 Z4 F1000
G01 X2.9 Y-1 Z-1 F1000
G01 A441.649 F2000
G01 X1.783 Y-1 Z-1 F5000
G01 X1.783 Y24 Z4 F1000
G01 X1.783 Y-1 Z-1 F1000
G01 X2.963 Y-1 Z-1 F5000
G01 X2.963 Y24 Z4 F1000
G01 X2.963 Y-1 Z-1 F1000
G01 X266.093 Y-1 Z-1 F5000
G01 X266.093 Y24 Z4 F1000
G01 X266.093 Y-1 Z-1 F1000
G01 X267.267 Y-1 Z-1 F5000
G01 X267.267 Y24 Z4 F1000
G01 X267.267 Y-1 Z-1 F1000
G01 A443.505 F2000
G01 X267.707 Y-1 Z-1 F5000
G01 X267.707 Y24 Z4 F1000
G01 X267.707 Y-1 Z-1 F1000
G01 X266.687 Y-1 Z-1 F5000
G01 X266.687 Y24 Z4 F1000
G01 X266.687 Y-1 Z-1 F1000
G01 X3.207 Y-1 Z-1 F5000
G01 X3.207 Y24 Z4 F1000
G01 X3.207 Y-1 Z-1 F1000
G01 X2.339 Y-1 Z-1 F5000
G01 X2.339 Y24 Z4 F1000
G01 X2.339 Y-1 Z-1 F1000
G01 A445.361 F2000
G01 X2.25 Y-1 Z-1 F5000
G01 X2.25 Y24 Z4 F1000
G01 X2.25 Y-1 Z-1 F1000
G01 X3.077 Y-1 Z-1 F5000
G01 X3.077 Y24 Z4 F1000
G01 X3.077 Y-1 Z-1 F1000
G01 X266.412 Y-1 Z-1 F5000
G01 X266.412 Y24 Z4 F1000
G01 X266.412 Y-1 Z-1 F1000
G01 X266.57 Y-1 Z-1 F5000
G01 X266.57 Y24 Z4 F1000
G01 X266.57 Y-1 Z-1 F1000
G01 A447.216 F2000
G01 X267.984 Y-1 Z-1 F5000
G01 X267.984 Y24 Z4 F1000
G01 X267.984 Y-1 Z-1 F1000
G01 X266.494 Y-1 Z-1 F5000
G01 X266.494 Y24 Z4 F1000
G01 X266.494 Y-1 Z-1 F1000
G01 X3.296 Y-1 Z-1 F5000
G01 X3.296 Y24 Z4 F1000
G01 X3.296 Y-1 Z-1 F1000
G01 X2.1 Y-1 Z-1 F5000
G01 X2.1 Y24 Z4 F1000
G01 X2.1 Y-1 Z-1 F1000
G01 A449.072 F2000
G01 X1.569 Y-1 Z-1 F5000
G01 X1.569 Y24 Z4 F1000
G01 X1.569 Y-1 Z-1 F1000
G01 X3.492 Y-1 Z-1 F5000
G01 X3.492 Y24 Z4 F1000
G01 X3.492 Y-1 Z-1 F1000
G01 X266.287 Y-1 Z-1 F5000
G01 X266.287 Y24 Z4 F1000
G01 X266.287 Y-1 Z-1 F1000
G01 X267.479 Y-1 Z-1 F5000
G01 X267.479 Y24 Z4 F1000
G01 X267.479 Y-1 Z-1 F1000
G01 A450.928 F2000
G01 X267.847 Y-1 Z-1 F5000
G01 X267.847 Y24 Z4 F1000
G01 X267.847 Y-1 Z-1 F1000
G01 X266.431 Y-1 Z-1 F5000
G01 X266.431 Y24 Z4 F1000
G01 X266.431 Y-1 Z-1 F1000
G01 X3.192 Y-1 Z-1 F5000
G01 X3.192 Y24 Z4 F1000
G01 X3.192 Y-1 Z-1 F1000
G01 X2.537 Y-1 Z-1 F5000
G01 X2.537 Y24 Z4 F1000
G01 X2.537 Y-1 Z-1 F1000
G01 A452.784 F2000
G01 X1.739 Y-1 Z-1 F5000
G01 X1.739 Y24 Z4 F1000
G01 X1.739 Y-1 Z-1 F1000
G01 X2.659 Y-1 Z-1 F5000
G01 X2.659 Y24 Z4 F1000
G01 X2.659 Y-1 Z-1 F1000
G01 X266.055 Y-1 Z-1 F5000
G01 X266.055 Y24 Z4 F1000
G01 X266.055 Y-1 Z-1 F1000
G01 X267.071 Y-1 Z-1 F5000
G01 X267.071 Y24 Z4 F1000
G01 X267.071 Y-1 Z-1 F1000
G01 A454.639 F2000
G01 X267.984 Y-1 Z-1 F5000
G01 X267.984 Y24 Z4 F1000
G01 X267.984 Y-1 Z-1 F1000
G01 X266.804 Y-1 Z-1 F5000
G01 X266.804 Y24 Z4 F1000
G01 X266.804 Y-1 Z-1 F1000
G01 X3.018 Y-1 Z-1 F5000
G01 X3.018 Y24 Z4 F1000
G01 X3.018 Y-1 Z-1 F1000
G01 X2.172 Y-1 Z-1 F5000
G01 X2.172 Y24 Z4 F1000
G01 X2.172 Y-1 Z-1 F1000
G01 A456.495 F2000
G01 X2.059 Y-1 Z-1 F5000
G01 X2.059 Y24 Z4 F1000
G01 X2.059 Y-1 Z-1 F1000
G01 X3.207 Y-1 Z-1 F5000
G01 X3.207 Y24 Z4 F1000
G01 X3.207 Y-1 Z-1 F1000
G01 X266.489 Y-1 Z-1 F5000
G01 X266.489 Y24 Z4 F1000
G01 X266.489 Y-1 Z-1 F1000
G01 X267.05 Y-1 Z-1 F5000
G01 X267.05 Y24 Z4 F1000
G01 X267.05 Y-1 Z-1 F1000
G01 A458.351 F2000
G01 X267.469 Y-1 Z-1 F5000
G01 X267.469 Y24 Z4 F1000
G01 X267.469 Y-1 Z-1 F1000
G01 X266.011 Y-1 Z-1 F5000
G01 X266.011 Y24 Z4 F1000
G01 X266.011 Y-1 Z-1 F1000
G01 X3.435 Y-1 Z-1 F5000
G01 X3.435 Y24 Z4 F1000
G01 X3.435 Y-1 Z-1 F1000
G01 X2.863 Y-1 Z-1 F5000
G01 X2.863 Y24 Z4 F1000
G01 X2.863 Y-1 Z-1 F1000
G01 A460.206 F2000
G01 X1.559 Y-1 Z-1 F5000
G01 X1.559 Y24 Z4 F1000
G01 X1.559 Y-1 Z-1 F1000
G01 X3.025 Y-1 Z-1 F5000
G01 X3.025 Y24 Z4 F1000
G01 X3.025 Y-1 Z-1 F1000
G01 X266.451 Y-1 Z-1 F5000
G01 X266.451 Y24 Z4 F1000
G01 X266.451 Y-1 Z-1 F1000
G01 X267.463 Y-1 Z-1 F5000
G01 X267.463 Y24 Z4 F1000
G01 X267.463 Y-1 Z-1 F1000
G01 A462.062 F2000
G01 X267.017 Y-1 Z-1 F5000
G01 X267.017 Y24 Z4 F1000
G01 X267.017 Y-1 Z-1 F1000
G01 X266.307 Y-1 Z-1 F5000
G01 X266.307 Y24 Z4 F1000
G01 X266.307 Y-1 Z-1 F1000
G01 X3.195 Y-1 Z-1 F5000
G01 X3.195 Y24 Z4 F1000
G01 X3.195 Y-1 Z-1 F1000
G01 X2.982 Y-1 Z-1 F5000
G01 X2.982 Y24 Z4 F1000
G01 X2.982 Y-1 Z-1 F1000
G01 A463.918 F2000
G01 X2.298 Y-1 Z-1 F5000
G01 X2.298 Y24 Z4 F1000
G01 X2.298 Y-1 Z-1 F1000
G01 X2.768 Y-1 Z-1 F5000
G01 X2.768 Y24 Z4 F1000
G01 X2.768 Y-1 Z-1 F1000
G01 X265.886 Y-1 Z-1 F5000
G01 X265.886 Y24 Z4 F1000
G01 X265.886 Y-1 Z-1 F1000
G01 X267.175 Y-1 Z-1 F5000
G01 X267.175 Y24 Z4 F1000
G01 X267.175 Y-1 Z-1 F1000
G01 A465.773 F2000
G01 X267.025 Y-1 Z-1 F5000
G01 X267.025 Y24 Z4 F1000
G01 X267.025 Y-1 Z-1 F1000
G01 X266.167 Y-1 Z-1 F5000
G01 X266.167 Y24 Z4 F1000
G01 X266.167 Y-1 Z-1 F1000
G01 X3.789 Y-1 Z-1 F5000
G01 X3.789 Y24 Z4 F1000
G01 X3.789 Y-1 Z-1 F1000
G01 X2.306 Y-1 Z-1 F5000
G01 X2.306 Y24 Z4 F1000
G01 X2.306 Y-1 Z-1 F1000
G01 A467.629 F2000
G01 X1.737 Y-1 Z-1 F5000
G01 X1.737 Y24 Z4 F1000
G01 X1.737 Y-1 Z-1 F1000
G01 X3.41 Y-1 Z-1 F5000
G01 X3.41 Y24 Z4 F1000
G01 X3.41 Y-1 Z-1 F1000
G01 X266.221 Y-1 Z-1 F5000
G01 X266.221 Y24 Z4 F1000
G01 X266.221 Y-1 Z-1 F1000
G01 X267.358 Y-1 Z-1 F5000
G01 X267.358 Y24 Z4 F1000
G01 X267.358 Y-1 Z-1 F1000
G01 A469.485 F2000
G01 X267.783 Y-1 Z-1 F5000
G01 X267.783 Y24 Z4 F1000
G01 X267.783 Y-1 Z-1 F1000
G01 X266.514 Y-1 Z-1 F5000
G01 X266.514 Y24 Z4 F1000
G01 X266.514 Y-1 Z-1 F1000
G01 X3.185 Y-1 Z-1 F5000
G01 X3.185 Y24 Z4 F1000
G01 X3.185 Y-1 Z-1 F1000
G01 X2.695 Y-1 Z-1 F5000
G01 X2.695 Y24 Z4 F1000
G01 X2.695 Y-1 Z-1 F1000
G01 A471.34 F2000
G01 X2.048 Y-1 Z-1 F5000
G01 X2.048 Y24 Z4 F1000
G01 X2.048 Y-1 Z-1 F1000
G01 X3.229 Y-1 Z-1 F5000
G01 X3.229 Y24 Z4 F1000
G01 X3.229 Y-1 Z-1 F1000
G01 X266.175 Y-1 Z-1 F5000
G01 X266.175 Y24 Z4 F1000
G01 X266.175 Y-1 Z-1 F1000
G01 X267.289 Y-1 Z-1 F5000
G01 X267.289 Y24 Z4 F1000
G01 X267.289 Y-1 Z-1 F1000
G01 A473.196 F2000
G01 X267.055 Y-1 Z-1 F5000
G01 X267.055 Y24 Z4 F1000
G01 X267.055 Y-1 Z-1 F1000
G01 X266.165 Y-1 Z-1 F5000
G01 X266.165 Y24 Z4 F1000
G01 X266.165 Y-1 Z-1 F1000
G01 X3.883 Y-1 Z-1 F5000
G01 X3.883 Y24 Z4 F1000
G01 X3.883 Y-1 Z-1 F1000
G01 X2.685 Y-1 Z-1 F5000
G01 X2.685 Y24 Z4 F1000
G01 X2.685 Y-1 Z-1 F1000
G01 A475.052 F2000
G01 X2.367 Y-1 Z-1 F5000
G01 X2.367 Y24 Z4 F1000
G01 X2.367 Y-1 Z-1 F1000
G01 X2.556 Y-1 Z-1 F5000
G01 X2.556 Y24 Z4 F1000
G01 X2.556 Y-1 Z-1 F1000
G01 X266.021 Y-1 Z-1 F5000
G01 X266.021 Y24 Z4 F1000
G01 X266.021 Y-1 Z-1 F1000
G01 X266.512 Y-1 Z-1 F5000
G01 X266.512 Y24 Z4 F1000
G01 X266.512 Y-1 Z-1 F1000
G01 A476.907 F2000
G01 X267.158 Y-1 Z-1 F5000
G01 X267.158 Y24 Z4 F1000
G01 X267.158 Y-1 Z-1 F1000
G01 X266.047 Y-1 Z-1 F5000
G01 X266.047 Y24 Z4 F1000
G01 X266.047 Y-1 Z-1 F1000
G01 X3.19 Y-1 Z-1 F5000
G01 X3.19 Y24 Z4 F1000
G01 X3.19 Y-1 Z-1 F1000
G01 X2.257 Y-1 Z-1 F5000
G01 X2.257 Y24 Z4 F1000
G01 X2.257 Y-1 Z-1 F1000
G01 A478.763 F2000
G01 X1.572 Y-1 Z-1 F5000
G01 X1.572 Y24 Z4 F1000
G01 X1.572 Y-1 Z-1 F1000
G01 X3.149 Y-1 Z-1 F5000
G01 X3.149 Y24 Z4 F1000
G01 X3.149 Y-1 Z-1 F1000
G01 X266.085 Y-1 Z-1 F5000
G01 X266.085 Y24 Z4 F1000
G01 X266.085 Y-1 Z-1 F1000
G01 X267.185 Y-1 Z-1 F5000
G01 X267.185 Y24 Z4 F1000
G01 X267.185 Y-1 Z-1 F1000
G01 A480.619 F2000
G01 X267.977 Y-1 Z-1 F5000
G01 X267.977 Y24 Z4 F1000
G01 X267.977 Y-1 Z-1 F1000
G01 X266.282 Y-1 Z-1 F5000
G01 X266.282 Y24 Z4 F1000
G01 X266.282 Y-1 Z-1 F1000
G01 X3.243 Y-1 Z-1 F5000
G01 X3.243 Y24 Z4 F1000
G01 X3.243 Y-1 Z-1 F1000
G01 X2.305 Y-1 Z-1 F5000
G01 X2.305 Y24 Z4 F1000
G01 X2.305 Y-1 Z-1 F1000
G01 A482.474 F2000
G01 X2.314 Y-1 Z-1 F5000
G01 X2.314 Y24 Z4 F1000
G01 X2.314 Y-1 Z-1 F1000
G01 X3.154 Y-1 Z-1 F5000
G01 X3.154 Y24 Z4 F1000
G01 X3.154 Y-1 Z-1 F1000
G01 X266.25 Y-1 Z-1 F5000
G01 X266.25 Y24 Z4 F1000
G01 X266.25 Y-1 Z-1 F1000
G01 X266.736 Y-1 Z-1 F5000
G01 X266.736 Y24 Z4 F1000
G01 X266.736 Y-1 Z-1 F1000
G01 A484.33 F2000
G01 X267.134 Y-1 Z-1 F5000
G01 X267.134 Y24 Z4 F1000
G01 X267.134 Y-1 Z-1 F1000
G01 X266.473 Y-1 Z-1 F5000
G01 X266.473 Y24 Z4 F1000
G01 X266.473 Y-1 Z-1 F1000
G01 X3.904 Y-1 Z-1 F5000
G01 X3.904 Y24 Z4 F1000
G01 X3.904 Y-1 Z-1 F1000
G01 X2.259 Y-1 Z-1 F5000
G01 X2.259 Y24 Z4 F1000
G01 X2.259 Y-1 Z-1 F1000
G01 A486.186 F2000
G01 X2.263 Y-1 Z-1 F5000
G01 X2.263 Y24 Z4 F1000
G01 X2.263 Y-1 Z-1 F1000
G01 X3.202 Y-1 Z-1 F5000
G01 X3.202 Y24 Z4 F1000
G01 X3.202 Y-1 Z-1 F1000
G01 X265.866 Y-1 Z-1 F5000
G01 X265.866 Y24 Z4 F1000
G01 X265.866 Y-1 Z-1 F1000
G01 X267.2 Y-1 Z-1 F5000
G01 X267.2 Y24 Z4 F1000
G01 X267.2 Y-1 Z-1 F1000
G01 A488.041 F2000
G01 X267.921 Y-1 Z-1 F5000
G01 X267.921 Y24 Z4 F1000
G01 X267.921 Y-1 Z-1 F1000
G01 X266.211 Y-1 Z-1 F5000
G01 X266.211 Y24 Z4 F1000
G01 X266.211 Y-1 Z-1 F1000
G01 X3.261 Y-1 Z-1 F5000
G01 X3.261 Y24 Z4 F1000
G01 X3.261 Y-1 Z-1 F1000
G01 X2.39 Y-1 Z-1 F5000
G01 X2.39 Y24 Z4 F1000
G01 X2.39 Y-1 Z-1 F1000
G01 A489.897 F2000
G01 X1.698 Y-1 Z-1 F5000
G01 X1.698 Y24 Z4 F1000
G01 X1.698 Y-1 Z-1 F1000
G01 X2.901 Y-1 Z-1 F5000
G01 X2.901 Y24 Z4 F1000
G01 X2.901 Y-1 Z-1 F1000
G01 X266.232 Y-1 Z-1 F5000
G01 X266.232 Y24 Z4 F1000
G01 X266.232 Y-1 Z-1 F1000
G01 X267.356 Y-1 Z-1 F5000
G01 X267.356 Y24 Z4 F1000
G01 X267.356 Y-1 Z-1 F1000
G01 A491.753 F2000
G01 X267.664 Y-1 Z-1 F5000
G01 X267.664 Y24 Z4 F1000
G01 X267.664 Y-1 Z-1 F1000
G01 X266.542 Y-1 Z-1 F5000
G01 X266.542 Y24 Z4 F1000
G01 X266.542 Y-1 Z-1 F1000
G01 X3.921 Y-1 Z-1 F5000
G01 X3.921 Y24 Z4 F1000
G01 X3.921 Y-1 Z-1 F1000
G01 X2.187 Y-1 Z-1 F5000
G01 X2.187 Y24 Z4 F1000
G01 X2.187 Y-1 Z-1 F1000
G01 A493.608 F2000
G01 X2.197 Y-1 Z-1 F5000
G01 X2.197 Y24 Z4 F1000
G01 X2.197 Y-1 Z-1 F1000
G01 X2.88 Y-1 Z-1 F5000
G01 X2.88 Y24 Z4 F1000
G01 X2.88 Y-1 Z-1 F1000
G01 X266.436 Y-1 Z-1 F5000
G01 X266.436 Y24 Z4 F1000
G01 X266.436 Y-1 Z-1 F1000
G01 X266.695 Y-1 Z-1 F5000
G01 X266.695 Y24 Z4 F1000
G01 X266.695 Y-1 Z-1 F1000
G01 A495.464 F2000
G01 X267.255 Y-1 Z-1 F5000
G01 X267.255 Y24 Z4 F1000
G01 X267.255 Y-1 Z-1 F1000
G01 X266.115 Y-1 Z-1 F5000
G01 X266.115 Y24 Z4 F1000
G01 X266.115 Y-1 Z-1 F1000
G01 X3.455 Y-1 Z-1 F5000
G01 X3.455 Y24 Z4 F1000
G01 X3.455 Y-1 Z-1 F1000
G01 X2.688 Y-1 Z-1 F5000
G01 X2.688 Y24 Z4 F1000
G01 X2.688 Y-1 Z-1 F1000
G01 A497.32 F2000
G01 X1.792 Y-1 Z-1 F5000
G01 X1.792 Y24 Z4 F1000
G01 X1.792 Y-1 Z-1 F1000
G01 X3.397 Y-1 Z-1 F5000
G01 X3.397 Y24 Z4 F1000
G01 X3.397 Y-1 Z-1 F1000
G01 X266.3 Y-1 Z-1 F5000
G01 X266.3 Y24 Z4 F1000
G01 X266.3 Y-1 Z-1 F1000
G01 X266.771 Y-1 Z-1 F5000
G01 X266.771 Y24 Z4 F1000
G01 X266.771 Y-1 Z-1 F1000
G01 A499.175 F2000
G01 X267.604 Y-1 Z-1 F5000
G01 X267.604 Y24 Z4 F1000
G01 X267.604 Y-1 Z-1 F1000
G01 X266.656 Y-1 Z-1 F5000
G01 X266.656 Y24 Z4 F1000
G01 X266.656 Y-1 Z-1 F1000
G01 X3.137 Y-1 Z-1 F5000
G01 X3.137 Y24 Z4 F1000
G01 X3.137 Y-1 Z-1 F1000
G01 X2.649 Y-1 Z-1 F5000
G01 X2.649 Y24 Z4 F1000
G01 X2.649 Y-1 Z-1 F1000
G01 A501.031 F2000
G01 X2.126 Y-1 Z-1 F5000
G01 X2.126 Y24 Z4 F1000
G01 X2.126 Y-1 Z-1 F1000
G01 X3.371 Y-1 Z-1 F5000
G01 X3.371 Y24 Z4 F1000
G01 X3.371 Y-1 Z-1 F1000
G01 X265.797 Y-1 Z-1 F5000
G01 X265.797 Y24 Z4 F1000
G01 X265.797 Y-1 Z-1 F1000
G01 X266.638 Y-1 Z-1 F5000
G01 X266.638 Y24 Z4 F1000
G01 X266.638 Y-1 Z-1 F1000
G01 A502.887 F2000
G01 X267.544 Y-1 Z-1 F5000
G01 X267.544 Y24 Z4 F1000
G01 X267.544 Y-1 Z-1 F1000
G01 X266.858 Y-1 Z-1 F5000
G01 X266.858 Y24 Z4 F1000
G01 X266.858 Y-1 Z-1 F1000
G01 X3.12 Y-1 Z-1 F5000
G01 X3.12 Y24 Z4 F1000
G01 X3.12 Y-1 Z-1 F1000
G01 X2.207 Y-1 Z-1 F5000
G01 X2.207 Y24 Z4 F1000
G01 X2.207 Y-1 Z-1 F1000
G01 A504.742 F2000
G01 X1.605 Y-1 Z-1 F5000
G01 X1.605 Y24 Z4 F1000
G01 X1.605 Y-1 Z-1 F1000
G01 X3.487 Y-1 Z-1 F5000
G01 X3.487 Y24 Z4 F1000
G01 X3.487 Y-1 Z-1 F1000
G01 X266.26 Y-1 Z-1 F5000
G01 X266.26 Y24 Z4 F1000
G01 X266.26 Y-1 Z-1 F1000
G01 X266.593 Y-1 Z-1 F5000
G01 X266.593 Y24 Z4 F1000
G01 X266.593 Y-1 Z-1 F1000
G01 A506.598 F2000
G01 X267.848 Y-1 Z-1 F5000
G01 X267.848 Y24 Z4 F1000
G01 X267.848 Y-1 Z-1 F1000
G01 X266.437 Y-1 Z-1 F5000
G01 X266.437 Y24 Z4 F1000
G01 X266.437 Y-1 Z-1 F1000
G01 X3.024 Y-1 Z-1 F5000
G01 X3.024 Y24 Z4 F1000
G01 X3.024 Y-1 Z-1 F1000
G01 X2.061 Y-1 Z-1 F5000
G01 X2.061 Y24 Z4 F1000
G01 X2.061 Y-1 Z-1 F1000
G01 A508.454 F2000
G01 X1.748 Y-1 Z-1 F5000
G01 X1.748 Y24 Z4 F1000
G01 X1.748 Y-1 Z-1 F1000
G01 X2.539 Y-1 Z-1 F5000
G01 X2.539 Y24 Z4 F1000
G01 X2.539 Y-1 Z-1 F1000
G01 X265.669 Y-1 Z-1 F5000
G01 X265.669 Y24 Z4 F1000
G01 X265.669 Y-1 Z-1 F1000
G01 X266.563 Y-1 Z-1 F5000
G01 X266.563 Y24 Z4 F1000
G01 X266.563 Y-1 Z-1 F1000
G01 A510.309 F2000
G01 X267.141 Y-1 Z-1 F5000
G01 X267.141 Y24 Z4 F1000
G01 X267.141 Y-1 Z-1 F1000
G01 X266.099 Y-1 Z-1 F5000
G01 X266.099 Y24 Z4 F1000
G01 X266.099 Y-1 Z-1 F1000
G01 X3.425 Y-1 Z-1 F5000
G01 X3.425 Y24 Z4 F1000
G01 X3.425 Y-1 Z-1 F1000
G01 X2.826 Y-1 Z-1 F5000
G01 X2.826 Y24 Z4 F1000
G01 X2.826 Y-1 Z-1 F1000
G01 A512.165 F2000
G01 X2.284 Y-1 Z-1 F5000
G01 X2.284 Y24 Z4 F1000
G01 X2.284 Y-1 Z-1 F1000
G01 X3.03 Y-1 Z-1 F5000
G01 X3.03 Y24 Z4 F1000
G01 X3.03 Y-1 Z-1 F1000
G01 X265.562 Y-1 Z-1 F5000
G01 X265.562 Y24 Z4 F1000
G01 X265.562 Y-1 Z-1 F1000
G01 X267.448 Y-1 Z-1 F5000
G01 X267.448 Y24 Z4 F1000
G01 X267.448 Y-1 Z-1 F1000
G01 A514.021 F2000
G01 X267.066 Y-1 Z-1 F5000
G01 X267.066 Y24 Z4 F1000
G01 X267.066 Y-1 Z-1 F1000
G01 X266.013 Y-1 Z-1 F5000
G01 X266.013 Y24 Z4 F1000
G01 X266.013 Y-1 Z-1 F1000
G01 X3.749 Y-1 Z-1 F5000
G01 X3.749 Y24 Z4 F1000
G01 X3.749 Y-1 Z-1 F1000
G01 X2.626 Y-1 Z-1 F5000
G01 X2.626 Y24 Z4 F1000
G01 X2.626 Y-1 Z-1 F1000
G01 A515.876 F2000
G01 X2.258 Y-1 Z-1 F5000
G01 X2.258 Y24 Z4 F1000
G01 X2.258 Y-1 Z-1 F1000
G01 X2.775 Y-1 Z-1 F5000
G01 X2.775 Y24 Z4 F1000
G01 X2.775 Y-1 Z-1 F1000
G01 X266.393 Y-1 Z-1 F5000
G01 X266.393 Y24 Z4 F1000
G01 X266.393 Y-1 Z-1 F1000
G01 X267.372 Y-1 Z-1 F5000
G01 X267.372 Y24 Z4 F1000
G01 X267.372 Y-1 Z-1 F1000
G01 A517.732 F2000
G01 X267.044 Y-1 Z-1 F5000
G01 X267.044 Y24 Z4 F1000
G01 X267.044 Y-1 Z-1 F1000
G01 X266.957 Y-1 Z-1 F5000
G01 X266.957 Y24 Z4 F1000
G01 X266.957 Y-1 Z-1 F1000
G01 X3.769 Y-1 Z-1 F5000
G01 X3.769 Y24 Z4 F1000
G01 X3.769 Y-1 Z-1 F1000
G01 X2.854 Y-1 Z-1 F5000
G01 X2.854 Y24 Z4 F1000
G01 X2.854 Y-1 Z-1 F1000
G01 A519.588 F2000
G01 X1.979 Y-1 Z-1 F5000
G01 X1.979 Y24 Z4 F1000
G01 X1.979 Y-1 Z-1 F1000
G01 X3.295 Y-1 Z-1 F5000
G01 X3.295 Y24 Z4 F1000
G01 X3.295 Y-1 Z-1 F1000
G01 X266.411 Y-1 Z-1 F5000
G01 X266.411 Y24 Z4 F1000
G01 X266.411 Y-1 Z-1 F1000
G01 X267.397 Y-1 Z-1 F5000
G01 X267.397 Y24 Z4 F1000
G01 X267.397 Y-1 Z-1 F1000
G01 A521.443 F2000
G01 X267.277 Y-1 Z-1 F5000
G01 X267.277 Y24 Z4 F1000
G01 X267.277 Y-1 Z-1 F1000
G01 X266.171 Y-1 Z-1 F5000
G01 X266.171 Y24 Z4 F1000
G01 X266.171 Y-1 Z-1 F1000
G01 X3.648 Y-1 Z-1 F5000
G01 X3.648 Y24 Z4 F1000
G01 X3.648 Y-1 Z-1 F1000
G01 X2.445 Y-1 Z-1 F5000
G01 X2.445 Y24 Z4 F1000
G01 X2.445 Y-1 Z-1 F1000
G01 A523.299 F2000
G01 X2.359 Y-1 Z-1 F5000
G01 X2.359 Y24 Z4 F1000
G01 X2.359 Y-1 Z-1 F1000
G01 X2.951 Y-1 Z-1 F5000
G01 X2.951 Y24 Z4 F1000
G01 X2.951 Y-1 Z-1 F1000
G01 X265.659 Y-1 Z-1 F5000
G01 X265.659 Y24 Z4 F1000
G01 X265.659 Y-1 Z-1 F1000
G01 X266.875 Y-1 Z-1 F5000
G01 X266.875 Y24 Z4 F1000
G01 X266.875 Y-1 Z-1 F1000
G01 A525.155 F2000
G01 X267.962 Y-1 Z-1 F5000
G01 X267.962 Y24 Z4 F1000
G01 X267.962 Y-1 Z-1 F1000
G01 X266.698 Y-1 Z-1 F5000
G01 X266.698 Y24 Z4 F1000
G01 X266.698 Y-1 Z-1 F1000
G01 X3.168 Y-1 Z-1 F5000
G01 X3.168 Y24 Z4 F1000
G01 X3.168 Y-1 Z-1 F1000
G01 X2.188 Y-1 Z-1 F5000
G01 X2.188 Y24 Z4 F1000
G01 X2.188 Y-1 Z-1 F1000
G01 A527.01 F2000
G01 X1.887 Y-1 Z-1 F5000
G01 X1.887 Y24 Z4 F1000
G01 X1.887 Y-1 Z-1 F1000
G01 X3.441 Y-1 Z-1 F5000
G01 X3.441 Y24 Z4 F1000
G01 X3.441 Y-1 Z-1 F1000
G01 X266.017 Y-1 Z-1 F5000
G01 X266.017 Y24 Z4 F1000
G01 X266.017 Y-1 Z-1 F1000
G01 X266.77 Y-1 Z-1 F5000
G01 X266.77 Y24 Z4 F1000
G01 X266.77 Y-1 Z-1 F1000
G01 A528.866 F2000
G01 X267.211 Y-1 Z-1 F5000
G01 X267.211 Y24 Z4 F1000
G01 X267.211 Y-1 Z-1 F1000
G01 X266.248 Y-1 Z-1 F5000
G01 X266.248 Y24 Z4 F1000
G01 X266.248 Y-1 Z-1 F1000
G01 X3.536 Y-1 Z-1 F5000
G01 X3.536 Y24 Z4 F1000
G01 X3.536 Y-1 Z-1 F1000
G01 X2.213 Y-1 Z-1 F5000
G01 X2.213 Y24 Z4 F1000
G01 X2.213 Y-1 Z-1 F1000
G01 A530.722 F2000
G01 X1.606 Y-1 Z-1 F5000
G01 X1.606 Y24 Z4 F1000
G01 X1.606 Y-1 Z-1 F1000
G01 X3.322 Y-1 Z-1 F5000
G01 X3.322 Y24 Z4 F1000
G01 X3.322 Y-1 Z-1 F1000
G01 X266.155 Y-1 Z-1 F5000
G01 X266.155 Y24 Z4 F1000
G01 X266.155 Y-1 Z-1 F1000
G01 X267.095 Y-1 Z-1 F5000
G01 X267.095 Y24 Z4 F1000
G01 X267.095 Y-1 Z-1 F1000
G01 A532.577 F2000
G01 X267.255 Y-1 Z-1 F5000
G01 X267.255 Y24 Z4 F1000
G01 X267.255 Y-1 Z-1 F1000
G01 X266.42 Y-1 Z-1 F5000
G01 X266.42 Y24 Z4 F1000
G01 X266.42 Y-1 Z-1 F1000
G01 X3.879 Y-1 Z-1 F5000
G01 X3.879 Y24 Z4 F1000
G01 X3.879 Y-1 Z-1 F1000
G01 X2.262 Y-1 Z-1 F5000
G01 X2.262 Y24 Z4 F1000
G01 X2.262 Y-1 Z-1 F1000
G01 A534.433 F2000
G01 X1.932 Y-1 Z-1 F5000
G01 X1.932 Y24 Z4 F1000
G01 X1.932 Y-1 Z-1 F1000
G01 X2.598 Y-1 Z-1 F5000
G01 X2.598 Y24 Z4 F1000
G01 X2.598 Y-1 Z-1 F1000
G01 X265.89 Y-1 Z-1 F5000
G01 X265.89 Y24 Z4 F1000
G01 X265.89 Y-1 Z-1 F1000
G01 X266.585 Y-1 Z-1 F5000
G01 X266.585 Y24 Z4 F1000
G01 X266.585 Y-1 Z-1 F1000
G01 A536.289 F2000
G01 X267.771 Y-1 Z-1 F5000
G01 X267.771 Y24 Z4 F1000
G01 X267.771 Y-1 Z-1 F1000
G01 X266.998 Y-1 Z-1 F5000
G01 X266.998 Y24 Z4 F1000
G01 X266.998 Y-1 Z-1 F1000
G01 X3.075 Y-1 Z-1 F5000
G01 X3.075 Y24 Z4 F1000
G01 X3.075 Y-1 Z-1 F1000
G01 X2.36 Y-1 Z-1 F5000
G01 X2.36 Y24 Z4 F1000
G01 X2.36 Y-1 Z-1 F1000
G01 A538.144 F2000
G01 X2.452 Y-1 Z-1 F5000
G01 X2.452 Y24 Z4 F1000
G01 X2.452 Y-1 Z-1 F1000
G01 X2.621 Y-1 Z-1 F5000
G01 X2.621 Y24 Z4 F1000
G01 X2.621 Y-1 Z-1 F1000
G01 X266.31 Y-1 Z-1 F5000
G01 X266.31 Y24 Z4 F1000
G01 X266.31 Y-1 Z-1 F1000
G01 X266.61 Y-1 Z-1 F5000
G01 X266.61 Y24 Z4 F1000
G01 X266.61 Y-1 Z-1 F1000
G01 A540.0 F2000
G01 X267.461 Y-1 Z-1 F5000
G01 X267.461 Y24 Z4 F1000
G01 X267.461 Y-1 Z-1 F1000
G01 X266.783 Y-1 Z-1 F5000
G01 X266.783 Y24 Z4 F1000
G01 X266.783 Y-1 Z-1 F1000
G01 X3.789 Y-1 Z-1 F5000
G01 X3.789 Y24 Z4 F1000
G01 X3.789 Y-1 Z-1 F1000
G01 X2.804 Y-1 Z-1 F5000
G01 X2.804 Y24 Z4 F1000
G01 X2.804 Y-1 Z-1 F1000
G01 A541.856 F2000
G01 X1.824 Y-1 Z-1 F5000
G01 X1.824 Y24 Z4 F1000
G01 X1.824 Y-1 Z-1 F1000
G01 X3.04 Y-1 Z-1 F5000
G01 X3.04 Y24 Z4 F1000
G01 X3.04 Y-1 Z-1 F1000
G01 X265.629 Y-1 Z-1 F5000
G01 X265.629 Y24 Z4 F1000
G01 X265.629 Y-1 Z-1 F1000
G01 X267.494 Y-1 Z-1 F5000
G01 X267.494 Y24 Z4 F1000
G01 X267.494 Y-1 Z-1 F1000
G01 A543.711 F2000
G01 X267.734 Y-1 Z-1 F5000
G01 X267.734 Y24 Z4 F1000
G01 X267.734 Y-1 Z-1 F1000
G01 X266.393 Y-1 Z-1 F5000
G01 X266.393 Y24 Z4 F1000
G01 X266.393 Y-1 Z-1 F1000
G01 X3.494 Y-1 Z-1 F5000
G01 X3.494 Y24 Z4 F1000
G01 X3.494 Y-1 Z-1 F1000
G01 X2.583 Y-1 Z-1 F5000
G01 X2.583 Y24 Z4 F1000
G01 X2.583 Y-1 Z-1 F1000
G01 A545.567 F2000
G01 X1.859 Y-1 Z-1 F5000
G01 X1.859 Y24 Z4 F1000
G01 X1.859 Y-1 Z-1 F1000
G01 X2.831 Y-1 Z-1 F5000
G01 X2.831 Y24 Z4 F1000
G01 X2.831 Y-1 Z-1 F1000
G01 X266.407 Y-1 Z-1 F5000
G01 X266.407 Y24 Z4 F1000
G01 X266.407 Y-1 Z-1 F1000
G01 X266.659 Y-1 Z-1 F5000
G01 X266.659 Y24 Z4 F1000
G01 X266.659 Y-1 Z-1 F1000
G01 A547.423 F2000
G01 X267.95 Y-1 Z-1 F5000
G01 X267.95 Y24 Z4 F1000
G01 X267.95 Y-1 Z-1 F1000
G01 X266.549 Y-1 Z-1 F5000
G01 X266.549 Y24 Z4 F1000
G01 X266.549 Y-1 Z-1 F1000
G01 X3.461 Y-1 Z-1 F5000
G01 X3.461 Y24 Z4 F1000
G01 X3.461 Y-1 Z-1 F1000
G01 X2.47 Y-1 Z-1 F5000
G01 X2.47 Y24 Z4 F1000
G01 X2.47 Y-1 Z-1 F1000
G01 A549.278 F2000
G01 X1.515 Y-1 Z-1 F5000
G01 X1.515 Y24 Z4 F1000
G01 X1.515 Y-1 Z-1 F1000
G01 X2.825 Y-1 Z-1 F5000
G01 X2.825 Y24 Z4 F1000
G01 X2.825 Y-1 Z-1 F1000
G01 X265.961 Y-1 Z-1 F5000
G01 X265.961 Y24 Z4 F1000
G01 X265.961 Y-1 Z-1 F1000
G01 X266.547 Y-1 Z-1 F5000
G01 X266.547 Y24 Z4 F1000
G01 X266.547 Y-1 Z-1 F1000
G01 A551.134 F2000
G01 X267.012 Y-1 Z-1 F5000
G01 X267.012 Y24 Z4 F1000
G01 X267.012 Y-1 Z-1 F1000
G01 X266.006 Y-1 Z-1 F5000
G01 X266.006 Y24 Z4 F1000
G01 X266.006 Y-1 Z-1 F1000
G01 X3.619 Y-1 Z-1 F5000
G01 X3.619 Y24 Z4 F1000
G01 X3.619 Y-1 Z-1 F1000
G01 X2.007 Y-1 Z-1 F5000
G01 X2.007 Y24 Z4 F1000
G01 X2.007 Y-1 Z-1 F1000
G01 A552.99 F2000
G01 X2.453 Y-1 Z-1 F5000
G01 X2.453 Y24 Z4 F1000
G01 X2.453 Y-1 Z-1 F1000
G01 X3.126 Y-1 Z-1 F5000
G01 X3.126 Y24 Z4 F1000
G01 X3.126 Y-1 Z-1 F1000
G01 X266.218 Y-1 Z-1 F5000
G01 X266.218 Y24 Z4 F1000
G01 X266.218 Y-1 Z-1 F1000
G01 X266.542 Y-1 Z-1 F5000
G01 X266.542 Y24 Z4 F1000
G01 X266.542 Y-1 Z-1 F1000
G01 A554.845 F2000
G01 X267.508 Y-1 Z-1 F5000
G01 X267.508 Y24 Z4 F1000
G01 X267.508 Y-1 Z-1 F1000
G01 X266.207 Y-1 Z-1 F5000
G01 X266.207 Y24 Z4 F1000
G01 X266.207 Y-1 Z-1 F1000
G01 X3.92 Y-1 Z-1 F5000
G01 X3.92 Y24 Z4 F1000
G01 X3.92 Y-1 Z-1 F1000
G01 X2.355 Y-1 Z-1 F5000
G01 X2.355 Y24 Z4 F1000
G01 X2.355 Y-1 Z-1 F1000
G01 A556.701 F2000
G01 X1.699 Y-1 Z-1 F5000
G01 X1.699 Y24 Z4 F1000
G01 X1.699 Y-1 Z-1 F1000
G01 X2.93 Y-1 Z-1 F5000
G01 X2.93 Y24 Z4 F1000
G01 X2.93 Y-1 Z-1 F1000
G01 X265.823 Y-1 Z-1 F5000
G01 X265.823 Y24 Z4 F1000
G01 X265.823 Y-1 Z-1 F1000
G01 X266.644 Y-1 Z-1 F5000
G01 X266.644 Y24 Z4 F1000
G01 X266.644 Y-1 Z-1 F1000
G01 A558.557 F2000
G01 X267.78 Y-1 Z-1 F5000
G01 X267.78 Y24 Z4 F1000
G01 X267.78 Y-1 Z-1 F1000
G01 X266.217 Y-1 Z-1 F5000
G01 X266.217 Y24 Z4 F1000
G01 X266.217 Y-1 Z-1 F1000
G01 X3.909 Y-1 Z-1 F5000
G01 X3.909 Y24 Z4 F1000
G01 X3.909 Y-1 Z-1 F1000
G01 X2.737 Y-1 Z-1 F5000
G01 X2.737 Y24 Z4 F1000
G01 X2.737 Y-1 Z-1 F1000
G01 A560.412 F2000
G01 X2.362 Y-1 Z-1 F5000
G01 X2.362 Y24 Z4 F1000
G01 X2.362 Y-1 Z-1 F1000
G01 X3.229 Y-1 Z-1 F5000
G01 X3.229 Y24 Z4 F1000
G01 X3.229 Y-1 Z-1 F1000
G01 X266.385 Y-1 Z-1 F5000
G01 X266.385 Y24 Z4 F1000
G01 X266.385 Y-1 Z-1 F1000
G01 X267.457 Y-1 Z-1 F5000
G01 X267.457 Y24 Z4 F1000
G01 X267.457 Y-1 Z-1 F1000
G01 A562.268 F2000
G01 X267.011 Y-1 Z-1 F5000
G01 X267.011 Y24 Z4 F1000
G01 X267.011 Y-1 Z-1 F1000
G01 X266.258 Y-1 Z-1 F5000
G01 X266.258 Y24 Z4 F1000
G01 X266.258 Y-1 Z-1 F1000
G01 X3.905 Y-1 Z-1 F5000
G01 X3.905 Y24 Z4 F1000
G01 X3.905 Y-1 Z-1 F1000
G01 X2.545 Y-1 Z-1 F5000
G01 X2.545 Y24 Z4 F1000
G01 X2.545 Y-1 Z-1 F1000
G01 A564.124 F2000
G01 X2.421 Y-1 Z-1 F5000
G01 X2.421 Y24 Z4 F1000
G01 X2.421 Y-1 Z-1 F1000
G01 X2.962 Y-1 Z-1 F5000
G01 X2.962 Y24 Z4 F1000
G01 X2.962 Y-1 Z-1 F1000
G01 X265.842 Y-1 Z-1 F5000
G01 X265.842 Y24 Z4 F1000
G01 X265.842 Y-1 Z-1 F1000
G01 X267.333 Y-1 Z-1 F5000
G01 X267.333 Y24 Z4 F1000
G01 X267.333 Y-1 Z-1 F1000
G01 A565.979 F2000
G01 X267.263 Y-1 Z-1 F5000
G01 X267.263 Y24 Z4 F1000
G01 X267.263 Y-1 Z-1 F1000
G01 X266.407 Y-1 Z-1 F5000
G01 X266.407 Y24 Z4 F1000
G01 X266.407 Y-1 Z-1 F1000
G01 X3.826 Y-1 Z-1 F5000
G01 X3.826 Y24 Z4 F1000
G01 X3.826 Y-1 Z-1 F1000
G01 X2.39 Y-1 Z-1 F5000
G01 X2.39 Y24 Z4 F1000
G01 X2.39 Y-1 Z-1 F1000
G01 A567.835 F2000
G01 X2.156 Y-1 Z-1 F5000
G01 X2.156 Y24 Z4 F1000
G01 X2.156 Y-1 Z-1 F1000
G01 X2.652 Y-1 Z-1 F5000
G01 X2.652 Y24 Z4 F1000
G01 X2.652 Y-1 Z-1 F1000
G01 X265.71 Y-1 Z-1 F5000
G01 X265.71 Y24 Z4 F1000
G01 X265.71 Y-1 Z-1 F1000
G01 X267.48 Y-1 Z-1 F5000
G01 X267.48 Y24 Z4 F1000
G01 X267.48 Y-1 Z-1 F1000
G01 A569.691 F2000
G01 X267.193 Y-1 Z-1 F5000
G01 X267.193 Y24 Z4 F1000
G01 X267.193 Y-1 Z-1 F1000
